;START_OF_HEADER
;HEADER_VERSION:0.1
;FLAVOR:Griffin
;GENERATOR.NAME:Cura_SteamEngine
;GENERATOR.VERSION:5.2.2
;GENERATOR.BUILD_DATE:2023-01-24
;TARGET_MACHINE.NAME:Ultimaker S5
;EXTRUDER_TRAIN.1.INITIAL_TEMPERATURE:200
;EXTRUDER_TRAIN.1.MATERIAL.VOLUME_USED:1094
;EXTRUDER_TRAIN.1.MATERIAL.GUID:506c9f0d-e3aa-4bd4-b2d2-23e2425b1aa9
;EXTRUDER_TRAIN.1.NOZZLE.DIAMETER:0.4
;EXTRUDER_TRAIN.1.NOZZLE.NAME:AA 0.4
;BUILD_PLATE.INITIAL_TEMPERATURE:60
;BUILD_VOLUME.TEMPERATURE:28
;PRINT.TIME:527
;PRINT.GROUPS:1
;PRINT.SIZE.MIN.X:125.76
;PRINT.SIZE.MIN.Y:92.74
;PRINT.SIZE.MIN.Z:0.25
;PRINT.SIZE.MAX.X:160.24
;PRINT.SIZE.MAX.Y:147.26
;PRINT.SIZE.MAX.Z:2
;SLICE_UUID:c01b5eb3-81ab-4046-b058-141cc372225e
;END_OF_HEADER
;Generated with Cura_SteamEngine 5.2.2
T1
M82 ;absolute extrusion mode

G92 E0
M109 S200
G280 S1
G0 Z20.001
G1 F2700 E-6.5
;LAYER_COUNT:8
;LAYER:0
M106 S255
M204 S1000
M205 X20 Y20
G0 F9000 X159.61 Y143.037 Z0.25
;TYPE:SKIRT
G1 F2700 E0
G1 F1200 X159.263 Y143.7 E0.01173
G1 X158.848 Y144.323 E0.02346
G1 X158.369 Y144.897 E0.03518
G1 X157.51 Y145.689 E0.0535
G1 X156.799 Y146.19 E0.06713
G1 X156.145 Y146.553 E0.07886
G1 X155.456 Y146.844 E0.09058
G1 X154.74 Y147.06 E0.10231
G1 X154.005 Y147.199 E0.11403
G1 X153.08 Y147.26 E0.12856
G1 X132.886 Y147.26 E0.44511
G1 X132.139 Y147.22 E0.45684
G1 X131.401 Y147.101 E0.46856
G1 X130.679 Y146.903 E0.48029
G1 X129.983 Y146.63 E0.49201
G1 X129.32 Y146.283 E0.50374
G1 X128.697 Y145.868 E0.51548
G1 X128.123 Y145.389 E0.5272
G1 X127.331 Y144.53 E0.54551
G1 X126.83 Y143.819 E0.55914
G1 X126.467 Y143.165 E0.57087
G1 X126.176 Y142.476 E0.58259
G1 X125.96 Y141.76 E0.59432
G1 X125.821 Y141.025 E0.60604
G1 X125.76 Y140.1 E0.62057
G1 X125.76 Y99.866 E1.25126
G1 X125.8 Y99.119 E1.26299
G1 X125.919 Y98.381 E1.2747
G1 X126.117 Y97.659 E1.28644
G1 X126.39 Y96.963 E1.29816
G1 X126.737 Y96.3 E1.30989
G1 X127.152 Y95.677 E1.32162
G1 X127.631 Y95.103 E1.33334
G1 X128.49 Y94.311 E1.35166
G1 X129.201 Y93.81 E1.36529
G1 X129.855 Y93.447 E1.37702
G1 X130.544 Y93.156 E1.38874
G1 X131.26 Y92.94 E1.40047
G1 X131.995 Y92.801 E1.41219
G1 X132.92 Y92.74 E1.42672
G1 X138.08 Y92.74 E1.50761
G1 X138.827 Y92.78 E1.51933
G1 X139.565 Y92.899 E1.53105
G1 X140.287 Y93.097 E1.54279
G1 X140.983 Y93.37 E1.55451
G1 X141.646 Y93.717 E1.56624
G1 X142.269 Y94.132 E1.57797
G1 X142.843 Y94.611 E1.58969
G1 X143.635 Y95.47 E1.60801
G1 X144.136 Y96.181 E1.62164
G1 X144.499 Y96.835 E1.63336
G1 X144.79 Y97.524 E1.64509
G1 X145.006 Y98.24 E1.65681
G1 X145.145 Y98.975 E1.66854
G1 X145.206 Y99.9 E1.68307
G1 X145.206 Y109.777 E1.8379
G1 X153.114 Y109.777 E1.96186
G1 X153.861 Y109.817 E1.97358
G1 X154.599 Y109.936 E1.9853
G1 X155.321 Y110.134 E1.99704
G1 X156.017 Y110.407 E2.00876
G1 X156.68 Y110.754 E2.02049
G1 X157.303 Y111.169 E2.03222
G1 X157.877 Y111.648 E2.04394
G1 X158.669 Y112.507 E2.06225
G1 X159.17 Y113.218 E2.07589
G1 X159.533 Y113.872 E2.08761
G1 X159.824 Y114.561 E2.09934
G1 X160.04 Y115.277 E2.11106
G1 X160.179 Y116.012 E2.12279
G1 X160.24 Y116.937 E2.13732
G1 X160.24 Y123.097 E2.23388
G1 X160.2 Y123.844 E2.24561
G1 X160.081 Y124.582 E2.25732
G1 X159.883 Y125.304 E2.26906
G1 X159.61 Y126 E2.28078
G1 X159.263 Y126.663 E2.29251
G1 X158.848 Y127.286 E2.30424
G1 X158.369 Y127.86 E2.31596
G1 X157.571 Y128.596 E2.33298
G1 X157.038 Y128.984 E2.34331
G1 X157.877 Y129.684 E2.36044
G1 X158.669 Y130.543 E2.37876
G1 X159.17 Y131.254 E2.39239
G1 X159.533 Y131.908 E2.40412
G1 X159.824 Y132.597 E2.41584
G1 X160.04 Y133.313 E2.42756
G1 X160.179 Y134.048 E2.43929
G1 X160.24 Y134.973 E2.45382
G1 X160.24 Y140.134 E2.53472
G1 X160.2 Y140.881 E2.54645
G1 X160.081 Y141.619 E2.55817
G1 X159.883 Y142.341 E2.5699
G1 X159.61 Y143.037 E2.58162
G0 F9000 X159.21 Y142.948
G1 F1200 X158.865 Y143.587 E2.593
G1 X158.451 Y144.184 E2.60439
G1 X157.975 Y144.732 E2.61577
G1 X157.255 Y145.38 E2.63095
G1 X156.569 Y145.863 E2.64411
G1 X155.932 Y146.212 E2.65549
G1 X155.261 Y146.489 E2.66687
G1 X154.563 Y146.691 E2.67826
G1 X153.847 Y146.815 E2.68965
G1 X153.08 Y146.86 E2.7017
G1 X132.886 Y146.86 E3.01825
G1 X132.161 Y146.82 E3.02963
G1 X131.444 Y146.701 E3.04102
G1 X130.745 Y146.503 E3.05241
G1 X130.072 Y146.23 E3.06379
G1 X129.433 Y145.885 E3.07518
G1 X128.836 Y145.471 E3.08657
G1 X128.288 Y144.995 E3.09794
G1 X127.64 Y144.275 E3.11313
G1 X127.157 Y143.589 E3.12628
G1 X126.808 Y142.952 E3.13767
G1 X126.531 Y142.281 E3.14904
G1 X126.329 Y141.583 E3.16043
G1 X126.205 Y140.867 E3.17183
G1 X126.16 Y140.1 E3.18387
G1 X126.16 Y99.866 E3.81456
G1 X126.2 Y99.141 E3.82594
G1 X126.319 Y98.424 E3.83733
G1 X126.517 Y97.725 E3.84872
G1 X126.79 Y97.052 E3.8601
G1 X127.135 Y96.413 E3.87149
G1 X127.549 Y95.816 E3.88288
G1 X128.025 Y95.268 E3.89425
G1 X128.745 Y94.62 E3.90944
G1 X129.431 Y94.137 E3.92259
G1 X130.068 Y93.788 E3.93397
G1 X130.739 Y93.511 E3.94535
G1 X131.437 Y93.309 E3.95674
G1 X132.153 Y93.185 E3.96814
G1 X132.92 Y93.14 E3.98018
G1 X138.08 Y93.14 E4.06106
G1 X138.805 Y93.18 E4.07245
G1 X139.522 Y93.299 E4.08384
G1 X140.221 Y93.497 E4.09523
G1 X140.894 Y93.77 E4.10661
G1 X141.533 Y94.115 E4.118
G1 X142.13 Y94.529 E4.12938
G1 X142.678 Y95.005 E4.14076
G1 X143.326 Y95.725 E4.15595
G1 X143.809 Y96.411 E4.1691
G1 X144.158 Y97.048 E4.18048
G1 X144.435 Y97.719 E4.19186
G1 X144.637 Y98.417 E4.20325
G1 X144.761 Y99.133 E4.21464
G1 X144.806 Y99.9 E4.22669
G1 X144.806 Y110.177 E4.38778
G1 X153.114 Y110.177 E4.51802
G1 X153.839 Y110.217 E4.5294
G1 X154.556 Y110.336 E4.54079
G1 X155.255 Y110.534 E4.55218
G1 X155.928 Y110.807 E4.56356
G1 X156.567 Y111.152 E4.57495
G1 X157.164 Y111.566 E4.58634
G1 X157.712 Y112.042 E4.59771
G1 X158.36 Y112.762 E4.6129
G1 X158.843 Y113.448 E4.62605
G1 X159.192 Y114.085 E4.63744
G1 X159.469 Y114.756 E4.64881
G1 X159.671 Y115.454 E4.6602
G1 X159.795 Y116.17 E4.6716
G1 X159.84 Y116.937 E4.68364
G1 X159.84 Y123.097 E4.7802
G1 X159.8 Y123.822 E4.79158
G1 X159.681 Y124.539 E4.80298
G1 X159.483 Y125.238 E4.81436
G1 X159.21 Y125.911 E4.82575
G1 X158.865 Y126.55 E4.83713
G1 X158.451 Y127.147 E4.84852
G1 X157.975 Y127.695 E4.8599
G1 X157.255 Y128.343 E4.87508
G1 X156.309 Y129.009 E4.89322
G1 X157.164 Y129.602 E4.90953
G1 X157.712 Y130.078 E4.92091
G1 X158.36 Y130.798 E4.93609
G1 X158.843 Y131.484 E4.94924
G1 X159.192 Y132.121 E4.96063
G1 X159.469 Y132.792 E4.97201
G1 X159.671 Y133.49 E4.9834
G1 X159.795 Y134.206 E4.99479
G1 X159.84 Y134.973 E5.00683
G1 X159.84 Y140.134 E5.08773
G1 X159.8 Y140.859 E5.09911
G1 X159.681 Y141.576 E5.11051
G1 X159.483 Y142.275 E5.1219
G1 X159.21 Y142.948 E5.13328
G0 F9000 X158.811 Y142.855
G1 F1200 X158.466 Y143.469 E5.14432
G1 X158.055 Y144.04 E5.15535
G1 X157.581 Y144.561 E5.16639
G1 X156.997 Y145.074 E5.17857
G1 X156.339 Y145.534 E5.19116
G1 X155.72 Y145.87 E5.2022
G1 X155.067 Y146.133 E5.21324
G1 X154.388 Y146.32 E5.22428
G1 X153.693 Y146.43 E5.23531
G1 X153.08 Y146.46 E5.24493
G1 X132.886 Y146.46 E5.56148
G1 X132.183 Y146.42 E5.57251
G1 X131.489 Y146.301 E5.58355
G1 X130.814 Y146.103 E5.59458
G1 X130.165 Y145.831 E5.60561
G1 X129.551 Y145.486 E5.61665
G1 X128.98 Y145.075 E5.62768
G1 X128.459 Y144.601 E5.63872
G1 X127.946 Y144.017 E5.6509
G1 X127.486 Y143.359 E5.66349
G1 X127.15 Y142.74 E5.67453
G1 X126.887 Y142.087 E5.68556
G1 X126.7 Y141.408 E5.6966
G1 X126.59 Y140.713 E5.70763
G1 X126.56 Y140.1 E5.71725
G1 X126.56 Y99.866 E6.34794
G1 X126.6 Y99.163 E6.35898
G1 X126.719 Y98.469 E6.37002
G1 X126.917 Y97.794 E6.38104
G1 X127.189 Y97.145 E6.39207
G1 X127.534 Y96.531 E6.40311
G1 X127.945 Y95.96 E6.41414
G1 X128.419 Y95.439 E6.42518
G1 X129.003 Y94.926 E6.43737
G1 X129.661 Y94.466 E6.44995
G1 X130.28 Y94.13 E6.46099
G1 X130.933 Y93.867 E6.47203
G1 X131.612 Y93.68 E6.48307
G1 X132.307 Y93.57 E6.4941
G1 X132.92 Y93.54 E6.50372
G1 X138.08 Y93.54 E6.5846
G1 X138.783 Y93.58 E6.59564
G1 X139.477 Y93.699 E6.60668
G1 X140.152 Y93.897 E6.61771
G1 X140.801 Y94.169 E6.62874
G1 X141.415 Y94.514 E6.63978
G1 X141.986 Y94.925 E6.6508
G1 X142.507 Y95.399 E6.66185
G1 X143.02 Y95.983 E6.67403
G1 X143.48 Y96.641 E6.68662
G1 X143.816 Y97.26 E6.69766
G1 X144.079 Y97.913 E6.70869
G1 X144.266 Y98.592 E6.71973
G1 X144.376 Y99.287 E6.73076
G1 X144.406 Y99.9 E6.74038
G1 X144.406 Y110.577 E6.90775
G1 X153.114 Y110.577 E7.04425
G1 X153.817 Y110.617 E7.05529
G1 X154.511 Y110.736 E7.06633
G1 X155.186 Y110.934 E7.07735
G1 X155.835 Y111.206 E7.08838
G1 X156.449 Y111.551 E7.09942
G1 X157.02 Y111.962 E7.11045
G1 X157.541 Y112.436 E7.12149
G1 X158.054 Y113.02 E7.13368
G1 X158.514 Y113.678 E7.14626
G1 X158.85 Y114.297 E7.1573
G1 X159.113 Y114.95 E7.16834
G1 X159.3 Y115.629 E7.17938
G1 X159.41 Y116.324 E7.19041
G1 X159.44 Y116.937 E7.20003
G1 X159.44 Y123.097 E7.29659
G1 X159.4 Y123.8 E7.30763
G1 X159.281 Y124.494 E7.31866
G1 X159.083 Y125.169 E7.32969
G1 X158.811 Y125.818 E7.34072
G1 X158.466 Y126.432 E7.35176
G1 X158.055 Y127.003 E7.36279
G1 X157.581 Y127.524 E7.37383
G1 X156.997 Y128.037 E7.38602
G1 X156.339 Y128.497 E7.3986
G1 X155.72 Y128.833 E7.40964
G1 X155.281 Y129.01 E7.41706
G1 X155.835 Y129.242 E7.42648
G1 X156.449 Y129.587 E7.43752
G1 X157.02 Y129.998 E7.44855
G1 X157.541 Y130.472 E7.45959
G1 X158.054 Y131.056 E7.47177
G1 X158.514 Y131.714 E7.48436
G1 X158.85 Y132.333 E7.4954
G1 X159.113 Y132.986 E7.50643
G1 X159.3 Y133.665 E7.51747
G1 X159.41 Y134.36 E7.5285
G1 X159.44 Y134.973 E7.53812
G1 X159.44 Y140.134 E7.61902
G1 X159.4 Y140.837 E7.63006
G1 X159.281 Y141.531 E7.6411
G1 X159.083 Y142.206 E7.65213
G1 X158.811 Y142.855 E7.66316
G0 F9000 X158.412 Y142.76
G1 F1200 X158.068 Y143.348 E7.67383
G1 X157.658 Y143.892 E7.68451
G1 X157.187 Y144.383 E7.69518
G1 X156.668 Y144.817 E7.70578
G1 X156.11 Y145.206 E7.71645
G1 X155.509 Y145.527 E7.72713
G1 X154.875 Y145.775 E7.7378
G1 X154.217 Y145.948 E7.74846
G1 X153.413 Y146.06 E7.76119
G1 X132.886 Y146.06 E8.08296
G1 X132.206 Y146.02 E8.09364
G1 X131.536 Y145.901 E8.1043
G1 X130.884 Y145.704 E8.11498
G1 X130.26 Y145.432 E8.12565
G1 X129.672 Y145.088 E8.13633
G1 X129.128 Y144.678 E8.14701
G1 X128.637 Y144.207 E8.15767
G1 X128.203 Y143.688 E8.16828
G1 X127.814 Y143.13 E8.17894
G1 X127.493 Y142.529 E8.18962
G1 X127.245 Y141.895 E8.20029
G1 X127.072 Y141.237 E8.21096
G1 X126.96 Y140.433 E8.22368
G1 X126.96 Y99.866 E8.85959
G1 X127 Y99.186 E8.87027
G1 X127.119 Y98.516 E8.88093
G1 X127.316 Y97.864 E8.89161
G1 X127.588 Y97.24 E8.90228
G1 X127.932 Y96.652 E8.91296
G1 X128.342 Y96.108 E8.92364
G1 X128.813 Y95.617 E8.9343
G1 X129.332 Y95.183 E8.94491
G1 X129.89 Y94.794 E8.95557
G1 X130.491 Y94.473 E8.96625
G1 X131.125 Y94.225 E8.97692
G1 X131.783 Y94.052 E8.98759
G1 X132.587 Y93.94 E9.00031
G1 X138.08 Y93.94 E9.08642
G1 X138.76 Y93.98 E9.09709
G1 X139.43 Y94.099 E9.10776
G1 X140.082 Y94.296 E9.11844
G1 X140.706 Y94.568 E9.12911
G1 X141.294 Y94.912 E9.13979
G1 X141.838 Y95.322 E9.15047
G1 X142.329 Y95.793 E9.16113
G1 X142.763 Y96.312 E9.17174
G1 X143.152 Y96.87 E9.1824
G1 X143.473 Y97.471 E9.19308
G1 X143.721 Y98.105 E9.20375
G1 X143.894 Y98.763 E9.21442
G1 X144.006 Y99.567 E9.22714
G1 X144.006 Y110.977 E9.406
G1 X153.114 Y110.977 E9.54877
G1 X153.794 Y111.017 E9.55945
G1 X154.464 Y111.136 E9.57011
G1 X155.116 Y111.333 E9.58079
G1 X155.74 Y111.605 E9.59146
G1 X156.328 Y111.949 E9.60214
G1 X156.872 Y112.359 E9.61282
G1 X157.363 Y112.83 E9.62348
G1 X157.797 Y113.349 E9.63409
G1 X158.186 Y113.907 E9.64475
G1 X158.507 Y114.508 E9.65543
G1 X158.755 Y115.142 E9.6661
G1 X158.928 Y115.8 E9.67677
G1 X159.04 Y116.604 E9.68949
G1 X159.04 Y123.097 E9.79127
G1 X159 Y123.777 E9.80195
G1 X158.881 Y124.447 E9.81262
G1 X158.684 Y125.099 E9.8233
G1 X158.412 Y125.723 E9.83397
G1 X158.068 Y126.311 E9.84464
G1 X157.658 Y126.855 E9.85532
G1 X157.187 Y127.346 E9.86599
G1 X156.668 Y127.78 E9.87659
G1 X156.11 Y128.169 E9.88726
G1 X155.509 Y128.49 E9.89794
G1 X154.875 Y128.738 E9.90861
G1 X154.217 Y128.911 E9.91927
G1 X153.531 Y129.006 E9.93013
G1 X154.464 Y129.172 E9.94498
G1 X155.116 Y129.369 E9.95566
G1 X155.74 Y129.641 E9.96633
G1 X156.328 Y129.985 E9.97701
G1 X156.872 Y130.395 E9.98769
G1 X157.363 Y130.866 E9.99835
G1 X157.797 Y131.385 E10.00896
G1 X158.186 Y131.943 E10.01962
G1 X158.507 Y132.544 E10.0303
G1 X158.755 Y133.178 E10.04097
G1 X158.928 Y133.836 E10.05164
G1 X159.04 Y134.64 E10.06436
G1 X159.04 Y140.134 E10.15048
G1 X159 Y140.814 E10.16116
G1 X158.881 Y141.484 E10.17183
G1 X158.684 Y142.136 E10.1825
G1 X158.412 Y142.76 E10.19318
G0 F9000 X158.012 Y142.661
G1 F1200 X157.67 Y143.222 E10.20347
G1 X157.262 Y143.737 E10.21377
G1 X156.52 Y144.433 E10.22972
G1 X155.881 Y144.877 E10.24192
G1 X155.3 Y145.183 E10.25221
G1 X154.685 Y145.416 E10.26252
G1 X154.047 Y145.573 E10.27282
G1 X153.08 Y145.66 E10.28804
G1 X132.886 Y145.66 E10.60459
G1 X132.23 Y145.62 E10.61489
G1 X131.584 Y145.501 E10.62519
G1 X130.957 Y145.304 E10.63549
G1 X130.359 Y145.032 E10.64579
G1 X129.798 Y144.69 E10.65609
G1 X129.283 Y144.282 E10.66639
G1 X128.587 Y143.54 E10.68233
G1 X128.143 Y142.901 E10.69453
G1 X127.837 Y142.32 E10.70483
G1 X127.604 Y141.705 E10.71513
G1 X127.447 Y141.067 E10.72543
G1 X127.36 Y140.1 E10.74065
G1 X127.36 Y99.866 E11.37134
G1 X127.4 Y99.21 E11.38164
G1 X127.519 Y98.564 E11.39194
G1 X127.716 Y97.937 E11.40224
G1 X127.988 Y97.339 E11.41254
G1 X128.33 Y96.778 E11.42284
G1 X128.738 Y96.263 E11.43314
G1 X129.48 Y95.567 E11.44908
G1 X130.119 Y95.123 E11.46128
G1 X130.7 Y94.817 E11.47158
G1 X131.315 Y94.584 E11.48188
G1 X131.953 Y94.427 E11.49218
G1 X132.92 Y94.34 E11.5074
G1 X138.08 Y94.34 E11.58829
G1 X138.736 Y94.38 E11.59859
G1 X139.382 Y94.499 E11.60889
G1 X140.009 Y94.696 E11.61919
G1 X140.607 Y94.968 E11.62949
G1 X141.168 Y95.31 E11.63979
G1 X141.683 Y95.718 E11.65009
G1 X142.379 Y96.46 E11.66603
G1 X142.823 Y97.099 E11.67823
G1 X143.129 Y97.68 E11.68852
G1 X143.362 Y98.295 E11.69883
G1 X143.519 Y98.933 E11.70913
G1 X143.606 Y99.9 E11.72435
G1 X143.606 Y111.377 E11.90426
G1 X153.114 Y111.377 E12.0533
G1 X153.77 Y111.417 E12.0636
G1 X154.416 Y111.536 E12.0739
G1 X155.043 Y111.733 E12.0842
G1 X155.641 Y112.005 E12.0945
G1 X156.202 Y112.347 E12.1048
G1 X156.717 Y112.755 E12.1151
G1 X157.413 Y113.497 E12.13105
G1 X157.857 Y114.136 E12.14324
G1 X158.163 Y114.717 E12.15354
G1 X158.396 Y115.332 E12.16385
G1 X158.553 Y115.97 E12.17415
G1 X158.64 Y116.937 E12.18936
G1 X158.64 Y123.097 E12.28593
G1 X158.6 Y123.753 E12.29623
G1 X158.481 Y124.399 E12.30652
G1 X158.284 Y125.026 E12.31683
G1 X158.012 Y125.624 E12.32712
G1 X157.67 Y126.185 E12.33742
G1 X157.262 Y126.7 E12.34772
G1 X156.52 Y127.396 E12.36367
G1 X155.881 Y127.84 E12.37587
G1 X155.3 Y128.146 E12.38616
G1 X154.685 Y128.379 E12.39647
G1 X154.047 Y128.536 E12.40677
G1 X153.08 Y128.623 E12.42199
G1 X143.606 Y128.623 E12.5705
G1 X143.606 Y129.413 E12.58288
G1 X153.114 Y129.413 E12.73192
G1 X153.77 Y129.453 E12.74223
G1 X154.416 Y129.572 E12.75252
G1 X155.043 Y129.769 E12.76283
G1 X155.641 Y130.041 E12.77312
G1 X156.202 Y130.383 E12.78342
G1 X156.717 Y130.791 E12.79372
G1 X157.413 Y131.533 E12.80967
G1 X157.857 Y132.172 E12.82187
G1 X158.163 Y132.753 E12.83216
G1 X158.396 Y133.368 E12.84247
G1 X158.553 Y134.006 E12.85277
G1 X158.64 Y134.973 E12.86799
G1 X158.64 Y140.134 E12.94889
G1 X158.6 Y140.79 E12.95919
G1 X158.481 Y141.436 E12.96949
G1 X158.284 Y142.063 E12.97979
G1 X158.012 Y142.661 E12.99009
G0 F9000 X157.613 Y142.558
G1 F1200 X157.273 Y143.09 E12.99998
G1 X156.867 Y143.575 E13.0099
G1 X156.263 Y144.126 E13.02272
G1 X155.653 Y144.547 E13.03433
G1 X155.092 Y144.837 E13.04423
G1 X154.498 Y145.055 E13.05415
G1 X153.882 Y145.195 E13.06405
G1 X153.08 Y145.26 E13.07667
G1 X132.886 Y145.26 E13.39322
G1 X132.255 Y145.22 E13.40313
G1 X131.634 Y145.101 E13.41304
G1 X131.034 Y144.904 E13.42294
G1 X130.462 Y144.633 E13.43286
G1 X129.93 Y144.293 E13.44276
G1 X129.445 Y143.887 E13.45267
G1 X128.894 Y143.283 E13.46549
G1 X128.473 Y142.673 E13.47711
G1 X128.183 Y142.112 E13.48701
G1 X127.965 Y141.518 E13.49692
G1 X127.825 Y140.902 E13.50683
G1 X127.76 Y140.1 E13.51944
G1 X127.76 Y99.866 E14.15013
G1 X127.8 Y99.235 E14.16004
G1 X127.919 Y98.614 E14.16995
G1 X128.116 Y98.014 E14.17985
G1 X128.387 Y97.442 E14.18977
G1 X128.727 Y96.91 E14.19967
G1 X129.133 Y96.425 E14.20958
G1 X129.737 Y95.874 E14.2224
G1 X130.347 Y95.453 E14.23402
G1 X130.908 Y95.163 E14.24392
G1 X131.502 Y94.945 E14.25383
G1 X132.118 Y94.805 E14.26374
G1 X132.92 Y94.74 E14.27635
G1 X138.08 Y94.74 E14.35723
G1 X138.711 Y94.78 E14.36715
G1 X139.332 Y94.899 E14.37706
G1 X139.932 Y95.096 E14.38696
G1 X140.504 Y95.367 E14.39688
G1 X141.036 Y95.707 E14.40678
G1 X141.521 Y96.113 E14.41669
G1 X142.072 Y96.717 E14.42951
G1 X142.493 Y97.327 E14.44112
G1 X142.783 Y97.888 E14.45102
G1 X143.001 Y98.482 E14.46094
G1 X143.141 Y99.098 E14.47084
G1 X143.206 Y99.9 E14.48346
G1 X143.206 Y111.777 E14.66963
G1 X153.114 Y111.777 E14.82495
G1 X153.745 Y111.817 E14.83486
G1 X154.366 Y111.936 E14.84477
G1 X154.966 Y112.133 E14.85467
G1 X155.538 Y112.404 E14.86459
G1 X156.07 Y112.744 E14.87449
G1 X156.555 Y113.15 E14.8844
G1 X157.106 Y113.754 E14.89722
G1 X157.527 Y114.364 E14.90884
G1 X157.817 Y114.925 E14.91874
G1 X158.035 Y115.519 E14.92865
G1 X158.175 Y116.135 E14.93856
G1 X158.24 Y116.937 E14.95117
G1 X158.24 Y123.097 E15.04773
G1 X158.2 Y123.728 E15.05764
G1 X158.081 Y124.349 E15.06755
G1 X157.884 Y124.949 E15.07745
G1 X157.613 Y125.521 E15.08737
G1 X157.273 Y126.053 E15.09727
G1 X156.867 Y126.538 E15.10719
G1 X156.263 Y127.089 E15.12
G1 X155.653 Y127.51 E15.13162
G1 X155.092 Y127.8 E15.14152
G1 X154.498 Y128.018 E15.15144
G1 X153.882 Y128.158 E15.16134
G1 X153.08 Y128.223 E15.17395
G1 X143.206 Y128.223 E15.32873
G1 X143.206 Y129.813 E15.35366
G1 X153.114 Y129.813 E15.50897
G1 X153.745 Y129.853 E15.51888
G1 X154.366 Y129.972 E15.52879
G1 X154.966 Y130.169 E15.53869
G1 X155.538 Y130.44 E15.54861
G1 X156.07 Y130.78 E15.55851
G1 X156.555 Y131.186 E15.56842
G1 X157.106 Y131.79 E15.58124
G1 X157.527 Y132.4 E15.59286
G1 X157.817 Y132.961 E15.60276
G1 X158.035 Y133.555 E15.61268
G1 X158.175 Y134.171 E15.62258
G1 X158.24 Y134.973 E15.63519
G1 X158.24 Y140.134 E15.71609
G1 X158.2 Y140.765 E15.726
G1 X158.081 Y141.386 E15.73592
G1 X157.884 Y141.986 E15.74582
G1 X157.613 Y142.558 E15.75574
G0 F9000 X157.214 Y142.45
G1 F1200 X156.875 Y142.953 E15.76525
G1 X156.473 Y143.406 E15.77474
G1 X156.004 Y143.821 E15.78456
G1 X155.426 Y144.217 E15.79554
G1 X154.885 Y144.491 E15.80504
G1 X154.313 Y144.692 E15.81455
G1 X153.719 Y144.815 E15.82406
G1 X153.08 Y144.86 E15.8341
G1 X132.886 Y144.86 E16.15065
G1 X132.281 Y144.82 E16.16015
G1 X131.687 Y144.701 E16.16965
G1 X131.113 Y144.505 E16.17916
G1 X130.57 Y144.234 E16.18867
G1 X130.067 Y143.895 E16.19818
G1 X129.614 Y143.493 E16.20767
G1 X129.199 Y143.024 E16.21749
G1 X128.803 Y142.446 E16.22847
G1 X128.529 Y141.905 E16.23798
G1 X128.328 Y141.333 E16.24748
G1 X128.205 Y140.739 E16.25699
G1 X128.16 Y140.1 E16.26703
G1 X128.16 Y99.866 E16.89772
G1 X128.2 Y99.261 E16.90722
G1 X128.319 Y98.667 E16.91672
G1 X128.515 Y98.093 E16.92623
G1 X128.786 Y97.55 E16.93574
G1 X129.125 Y97.047 E16.94525
G1 X129.527 Y96.594 E16.95474
G1 X129.996 Y96.179 E16.96456
G1 X130.574 Y95.783 E16.97554
G1 X131.115 Y95.509 E16.98505
G1 X131.687 Y95.308 E16.99455
G1 X132.281 Y95.185 E17.00406
G1 X132.92 Y95.14 E17.0141
G1 X138.08 Y95.14 E17.09499
G1 X138.685 Y95.18 E17.10449
G1 X139.279 Y95.299 E17.11399
G1 X139.853 Y95.495 E17.1235
G1 X140.396 Y95.766 E17.13301
G1 X140.899 Y96.105 E17.14252
G1 X141.352 Y96.507 E17.15201
G1 X141.767 Y96.976 E17.16183
G1 X142.163 Y97.554 E17.17281
G1 X142.437 Y98.095 E17.18232
G1 X142.638 Y98.667 E17.19182
G1 X142.761 Y99.261 E17.20133
G1 X142.806 Y99.9 E17.21137
G1 X142.806 Y112.177 E17.40382
G1 X153.114 Y112.177 E17.5654
G1 X153.719 Y112.217 E17.57491
G1 X154.313 Y112.336 E17.5844
G1 X154.887 Y112.532 E17.59391
G1 X155.43 Y112.803 E17.60342
G1 X155.933 Y113.142 E17.61293
G1 X156.386 Y113.544 E17.62242
G1 X156.801 Y114.013 E17.63224
G1 X157.197 Y114.591 E17.64322
G1 X157.471 Y115.132 E17.65273
G1 X157.672 Y115.704 E17.66223
G1 X157.795 Y116.298 E17.67174
G1 X157.84 Y116.937 E17.68178
G1 X157.84 Y123.097 E17.77835
G1 X157.8 Y123.702 E17.78785
G1 X157.681 Y124.296 E17.79735
G1 X157.485 Y124.87 E17.80685
G1 X157.214 Y125.413 E17.81637
G1 X156.875 Y125.916 E17.82587
G1 X156.473 Y126.369 E17.83537
G1 X156.004 Y126.784 E17.84519
G1 X155.426 Y127.18 E17.85617
G1 X154.885 Y127.454 E17.86567
G1 X154.313 Y127.655 E17.87518
G1 X153.719 Y127.778 E17.88469
G1 X153.08 Y127.823 E17.89473
G1 X142.806 Y127.823 E18.05578
G1 X142.806 Y130.213 E18.09324
G1 X153.114 Y130.213 E18.25483
G1 X153.719 Y130.253 E18.26433
G1 X154.313 Y130.372 E18.27383
G1 X154.887 Y130.568 E18.28333
G1 X155.43 Y130.839 E18.29285
G1 X155.933 Y131.178 E18.30235
G1 X156.386 Y131.58 E18.31185
G1 X156.801 Y132.049 E18.32167
G1 X157.197 Y132.627 E18.33265
G1 X157.471 Y133.168 E18.34215
G1 X157.672 Y133.74 E18.35166
G1 X157.795 Y134.334 E18.36117
G1 X157.84 Y134.973 E18.37121
G1 X157.84 Y140.134 E18.45211
G1 X157.8 Y140.739 E18.46161
G1 X157.681 Y141.333 E18.47111
G1 X157.485 Y141.907 E18.48062
G1 X157.214 Y142.45 E18.49013
G0 F9000 X156.816 Y142.337
G1 F1200 X156.479 Y142.808 E18.49921
G1 X156.08 Y143.228 E18.50829
G1 X155.678 Y143.56 E18.51646
G1 X155.2 Y143.886 E18.52553
G1 X154.681 Y144.143 E18.53461
G1 X154.131 Y144.326 E18.5437
G1 X153.412 Y144.46 E18.55516
G1 X132.886 Y144.46 E18.87692
G1 X132.308 Y144.42 E18.886
G1 X131.741 Y144.301 E18.89508
G1 X131.196 Y144.105 E18.90416
G1 X130.683 Y143.836 E18.91324
G1 X130.212 Y143.499 E18.92232
G1 X129.792 Y143.1 E18.9314
G1 X129.46 Y142.698 E18.93957
G1 X129.134 Y142.22 E18.94864
G1 X128.877 Y141.701 E18.95772
G1 X128.694 Y141.151 E18.96681
G1 X128.56 Y140.432 E18.97827
G1 X128.56 Y99.866 E19.61416
G1 X128.6 Y99.288 E19.62324
G1 X128.719 Y98.721 E19.63232
G1 X128.915 Y98.176 E19.6414
G1 X129.184 Y97.663 E19.65048
G1 X129.521 Y97.192 E19.65956
G1 X129.92 Y96.772 E19.66864
G1 X130.322 Y96.44 E19.67682
G1 X130.8 Y96.114 E19.68588
G1 X131.319 Y95.857 E19.69496
G1 X131.869 Y95.674 E19.70405
G1 X132.588 Y95.54 E19.71551
G1 X138.08 Y95.54 E19.8016
G1 X138.658 Y95.58 E19.81069
G1 X139.225 Y95.699 E19.81977
G1 X139.77 Y95.895 E19.82885
G1 X140.283 Y96.164 E19.83793
G1 X140.754 Y96.501 E19.847
G1 X141.174 Y96.9 E19.85609
G1 X141.506 Y97.302 E19.86426
G1 X141.832 Y97.78 E19.87333
G1 X142.089 Y98.299 E19.88241
G1 X142.272 Y98.849 E19.89149
G1 X142.406 Y99.568 E19.90296
G1 X142.406 Y112.577 E20.10688
G1 X153.114 Y112.577 E20.27473
G1 X153.692 Y112.617 E20.28381
G1 X154.259 Y112.736 E20.2929
G1 X154.804 Y112.932 E20.30197
G1 X155.317 Y113.201 E20.31105
G1 X155.788 Y113.538 E20.32013
G1 X156.208 Y113.937 E20.32921
G1 X156.54 Y114.339 E20.33739
G1 X156.866 Y114.817 E20.34646
G1 X157.123 Y115.336 E20.35553
G1 X157.306 Y115.886 E20.36462
G1 X157.44 Y116.605 E20.37609
G1 X157.44 Y123.097 E20.47785
G1 X157.4 Y123.675 E20.48693
G1 X157.281 Y124.242 E20.49601
G1 X157.085 Y124.787 E20.50509
G1 X156.816 Y125.3 E20.51417
G1 X156.479 Y125.771 E20.52325
G1 X156.08 Y126.191 E20.53233
G1 X155.678 Y126.523 E20.54051
G1 X155.2 Y126.849 E20.54958
G1 X154.681 Y127.106 E20.55865
G1 X154.131 Y127.289 E20.56774
G1 X153.412 Y127.423 E20.5792
G1 X142.406 Y127.423 E20.75173
G1 X142.406 Y130.613 E20.80173
G1 X153.114 Y130.613 E20.96959
G1 X153.692 Y130.653 E20.97867
G1 X154.259 Y130.772 E20.98775
G1 X154.804 Y130.968 E20.99683
G1 X155.317 Y131.237 E21.00591
G1 X155.788 Y131.574 E21.01499
G1 X156.208 Y131.973 E21.02407
G1 X156.54 Y132.375 E21.03224
G1 X156.866 Y132.853 E21.04131
G1 X157.123 Y133.372 E21.05039
G1 X157.306 Y133.922 E21.05947
G1 X157.44 Y134.641 E21.07094
G1 X157.44 Y140.134 E21.15705
G1 X157.4 Y140.712 E21.16613
G1 X157.281 Y141.279 E21.17521
G1 X157.085 Y141.824 E21.18429
G1 X156.816 Y142.337 E21.19337
G0 F9000 X156.417 Y142.218
G1 F1200 X156.083 Y142.656 E21.202
G1 X155.524 Y143.182 E21.21403
G1 X154.975 Y143.554 E21.22443
G1 X154.478 Y143.793 E21.23307
G1 X153.953 Y143.958 E21.2417
G1 X153.322 Y144.06 E21.25172
G1 X132.886 Y144.06 E21.57206
G1 X132.336 Y144.02 E21.58071
G1 X131.798 Y143.901 E21.58935
G1 X131.283 Y143.705 E21.59798
G1 X130.802 Y143.437 E21.60661
G1 X130.364 Y143.103 E21.61525
G1 X129.838 Y142.544 E21.62728
G1 X129.466 Y141.995 E21.63768
G1 X129.227 Y141.498 E21.64632
G1 X129.062 Y140.973 E21.65495
G1 X128.96 Y140.342 E21.66497
G1 X128.96 Y99.866 E22.29945
G1 X129 Y99.316 E22.30809
G1 X129.119 Y98.778 E22.31673
G1 X129.315 Y98.263 E22.32537
G1 X129.583 Y97.782 E22.334
G1 X129.917 Y97.344 E22.34263
G1 X130.476 Y96.818 E22.35466
G1 X131.025 Y96.446 E22.36506
G1 X131.522 Y96.207 E22.3737
G1 X132.047 Y96.042 E22.38233
G1 X132.678 Y95.94 E22.39235
G1 X138.08 Y95.94 E22.47703
G1 X138.63 Y95.98 E22.48567
G1 X139.168 Y96.099 E22.49431
G1 X139.683 Y96.295 E22.50295
G1 X140.164 Y96.563 E22.51158
G1 X140.602 Y96.897 E22.52021
G1 X141.128 Y97.456 E22.53225
G1 X141.5 Y98.005 E22.54264
G1 X141.739 Y98.502 E22.55129
G1 X141.904 Y99.027 E22.55991
G1 X142.006 Y99.658 E22.56993
G1 X142.006 Y112.977 E22.77871
G1 X153.114 Y112.977 E22.95284
G1 X153.664 Y113.017 E22.96148
G1 X154.202 Y113.136 E22.97012
G1 X154.717 Y113.332 E22.97876
G1 X155.198 Y113.6 E22.98739
G1 X155.636 Y113.934 E22.99602
G1 X156.162 Y114.493 E23.00805
G1 X156.534 Y115.042 E23.01845
G1 X156.773 Y115.539 E23.02709
G1 X156.938 Y116.064 E23.03572
G1 X157.04 Y116.695 E23.04574
G1 X157.04 Y123.097 E23.14609
G1 X157 Y123.647 E23.15474
G1 X156.881 Y124.185 E23.16338
G1 X156.685 Y124.7 E23.17201
G1 X156.417 Y125.181 E23.18064
G1 X156.083 Y125.619 E23.18928
G1 X155.524 Y126.145 E23.20131
G1 X154.975 Y126.517 E23.21171
G1 X154.478 Y126.756 E23.22035
G1 X153.953 Y126.921 E23.22898
G1 X153.322 Y127.023 E23.239
G1 X142.006 Y127.023 E23.41638
G1 X142.006 Y131.013 E23.47893
G1 X153.114 Y131.013 E23.65305
G1 X153.664 Y131.053 E23.66169
G1 X154.202 Y131.172 E23.67033
G1 X154.717 Y131.368 E23.67897
G1 X155.198 Y131.636 E23.6876
G1 X155.636 Y131.97 E23.69623
G1 X156.162 Y132.529 E23.70827
G1 X156.534 Y133.078 E23.71866
G1 X156.773 Y133.575 E23.72731
G1 X156.938 Y134.1 E23.73593
G1 X157.04 Y134.731 E23.74595
G1 X157.04 Y140.134 E23.83065
G1 X157 Y140.684 E23.83929
G1 X156.881 Y141.222 E23.84793
G1 X156.685 Y141.737 E23.85656
G1 X156.417 Y142.218 E23.8652
G0 F9000 X156.02 Y142.092
G1 F1200 X155.688 Y142.494 E23.87337
G1 X155.184 Y142.931 E23.88383
G1 X154.751 Y143.221 E23.89199
G1 X154.278 Y143.442 E23.90018
G1 X153.778 Y143.588 E23.90834
G1 X153.08 Y143.66 E23.91934
G1 X132.886 Y143.66 E24.23589
G1 X132.366 Y143.62 E24.24407
G1 X131.859 Y143.501 E24.25223
G1 X131.376 Y143.306 E24.2604
G1 X130.928 Y143.04 E24.26856
G1 X130.526 Y142.708 E24.27674
G1 X130.089 Y142.204 E24.28719
G1 X129.799 Y141.771 E24.29536
G1 X129.578 Y141.298 E24.30355
G1 X129.432 Y140.798 E24.31171
G1 X129.36 Y140.1 E24.32271
G1 X129.36 Y99.866 E24.9534
G1 X129.4 Y99.346 E24.96157
G1 X129.519 Y98.839 E24.96974
G1 X129.714 Y98.356 E24.9779
G1 X129.98 Y97.908 E24.98607
G1 X130.312 Y97.506 E24.99424
G1 X130.816 Y97.069 E25.0047
G1 X131.249 Y96.779 E25.01287
G1 X131.722 Y96.558 E25.02105
G1 X132.222 Y96.412 E25.02922
G1 X132.92 Y96.34 E25.04022
G1 X138.08 Y96.34 E25.1211
G1 X138.6 Y96.38 E25.12928
G1 X139.107 Y96.499 E25.13744
G1 X139.59 Y96.694 E25.14561
G1 X140.038 Y96.96 E25.15377
G1 X140.44 Y97.292 E25.16195
G1 X140.877 Y97.796 E25.1724
G1 X141.167 Y98.229 E25.18057
G1 X141.388 Y98.702 E25.18875
G1 X141.534 Y99.202 E25.19692
G1 X141.606 Y99.9 E25.20792
G1 X141.606 Y113.377 E25.41918
G1 X153.114 Y113.377 E25.59957
G1 X153.634 Y113.417 E25.60775
G1 X154.141 Y113.536 E25.61591
G1 X154.624 Y113.731 E25.62407
G1 X155.072 Y113.997 E25.63224
G1 X155.474 Y114.329 E25.64041
G1 X155.911 Y114.833 E25.65087
G1 X156.201 Y115.266 E25.65904
G1 X156.422 Y115.739 E25.66722
G1 X156.568 Y116.239 E25.67539
G1 X156.64 Y116.937 E25.68639
G1 X156.64 Y123.097 E25.78295
G1 X156.6 Y123.617 E25.79113
G1 X156.481 Y124.124 E25.79929
G1 X156.286 Y124.607 E25.80745
G1 X156.02 Y125.055 E25.81562
G1 X155.688 Y125.457 E25.82379
G1 X155.184 Y125.894 E25.83425
G1 X154.751 Y126.184 E25.84242
G1 X154.278 Y126.405 E25.8506
G1 X153.778 Y126.551 E25.85877
G1 X153.08 Y126.623 E25.86977
G1 X141.606 Y126.623 E26.04963
G1 X141.606 Y131.413 E26.12471
G1 X153.114 Y131.413 E26.30511
G1 X153.634 Y131.453 E26.31328
G1 X154.141 Y131.572 E26.32145
G1 X154.624 Y131.767 E26.32961
G1 X155.072 Y132.033 E26.33778
G1 X155.474 Y132.365 E26.34595
G1 X155.911 Y132.869 E26.35641
G1 X156.201 Y133.302 E26.36458
G1 X156.422 Y133.775 E26.37276
G1 X156.568 Y134.275 E26.38093
G1 X156.64 Y134.973 E26.39192
G1 X156.64 Y140.134 E26.47283
G1 X156.6 Y140.654 E26.481
G1 X156.481 Y141.161 E26.48916
G1 X156.286 Y141.644 E26.49733
G1 X156.02 Y142.092 E26.5055
G0 F9000 X155.887 Y141.546
G1 F1200 X155.294 Y142.321 E26.52079
G1 X154.528 Y142.887 E26.53572
G1 X154.082 Y143.088 E26.54339
G1 X153.608 Y143.213 E26.55108
G1 X153.08 Y143.26 E26.55939
G1 X132.558 Y143.26 E26.88108
G1 X131.923 Y143.101 E26.89134
G1 X131.474 Y142.907 E26.89901
G1 X130.699 Y142.314 E26.9143
G1 X130.133 Y141.548 E26.92923
G1 X129.932 Y141.102 E26.9369
G1 X129.807 Y140.628 E26.94458
G1 X129.76 Y140.1 E26.95289
G1 X129.76 Y99.538 E27.58872
G1 X129.919 Y98.903 E27.59898
G1 X130.113 Y98.454 E27.60665
G1 X130.706 Y97.679 E27.62195
G1 X131.472 Y97.113 E27.63688
G1 X131.918 Y96.912 E27.64455
G1 X132.392 Y96.787 E27.65223
G1 X132.92 Y96.74 E27.66054
G1 X138.408 Y96.74 E27.74657
G1 X139.043 Y96.899 E27.75683
G1 X139.492 Y97.093 E27.76449
G1 X140.267 Y97.686 E27.77979
G1 X140.833 Y98.452 E27.79472
G1 X141.034 Y98.898 E27.80239
G1 X141.159 Y99.372 E27.81007
G1 X141.206 Y99.9 E27.81838
G1 X141.206 Y113.777 E28.03591
G1 X153.442 Y113.777 E28.22772
G1 X154.077 Y113.936 E28.23798
G1 X154.526 Y114.13 E28.24564
G1 X155.301 Y114.723 E28.26094
G1 X155.867 Y115.489 E28.27587
G1 X156.068 Y115.935 E28.28354
G1 X156.193 Y116.409 E28.29122
G1 X156.24 Y116.937 E28.29953
G1 X156.24 Y123.425 E28.40124
G1 X156.081 Y124.06 E28.4115
G1 X155.887 Y124.509 E28.41916
G1 X155.294 Y125.284 E28.43446
G1 X154.528 Y125.85 E28.44939
G1 X154.082 Y126.051 E28.45706
G1 X153.608 Y126.176 E28.46474
G1 X153.08 Y126.223 E28.47305
G1 X141.206 Y126.223 E28.65918
G1 X141.206 Y131.813 E28.74681
G1 X153.442 Y131.813 E28.93861
G1 X154.077 Y131.972 E28.94887
G1 X154.526 Y132.166 E28.95654
G1 X155.301 Y132.759 E28.97184
G1 X155.867 Y133.525 E28.98677
G1 X156.068 Y133.971 E28.99444
G1 X156.193 Y134.445 E29.00212
G1 X156.24 Y134.973 E29.01043
G1 X156.24 Y140.462 E29.09647
G1 X156.081 Y141.097 E29.10673
G1 X155.887 Y141.546 E29.1144
G0 F9000 X155.682 Y141.028
G1 F1200 X155.225 Y141.813 E29.12864
G1 X154.849 Y142.177 E29.13684
G1 X154.307 Y142.552 E29.14718
G1 X153.888 Y142.731 E29.15432
G1 X153.333 Y142.86 E29.16325
G1 X132.581 Y142.86 E29.48855
G1 X131.992 Y142.702 E29.49811
G1 X131.207 Y142.245 E29.51234
G1 X130.843 Y141.869 E29.52055
G1 X130.468 Y141.327 E29.53088
G1 X130.289 Y140.908 E29.53802
G1 X130.16 Y140.353 E29.54695
G1 X130.16 Y99.561 E30.18639
G1 X130.318 Y98.972 E30.19595
G1 X130.775 Y98.187 E30.21018
G1 X131.151 Y97.823 E30.21839
G1 X131.693 Y97.448 E30.22872
G1 X132.112 Y97.269 E30.23586
G1 X132.667 Y97.14 E30.24479
G1 X138.385 Y97.14 E30.33443
G1 X138.974 Y97.298 E30.34398
G1 X139.759 Y97.755 E30.35822
G1 X140.123 Y98.131 E30.36643
G1 X140.498 Y98.673 E30.37676
G1 X140.677 Y99.092 E30.3839
G1 X140.806 Y99.647 E30.39283
G1 X140.806 Y114.177 E30.6206
G1 X153.419 Y114.177 E30.81831
G1 X154.008 Y114.335 E30.82787
G1 X154.793 Y114.792 E30.84211
G1 X155.157 Y115.168 E30.85031
G1 X155.532 Y115.71 E30.86064
G1 X155.711 Y116.129 E30.86779
G1 X155.84 Y116.684 E30.87672
G1 X155.84 Y123.402 E30.98203
G1 X155.682 Y123.991 E30.99159
G1 X155.225 Y124.776 E31.00582
G1 X154.849 Y125.14 E31.01403
G1 X154.307 Y125.515 E31.02436
G1 X153.888 Y125.694 E31.0315
G1 X153.333 Y125.823 E31.04043
G1 X140.806 Y125.823 E31.2368
G1 X140.806 Y132.213 E31.33697
G1 X153.419 Y132.213 E31.53468
G1 X154.008 Y132.371 E31.54424
G1 X154.793 Y132.828 E31.55848
G1 X155.157 Y133.204 E31.56668
G1 X155.532 Y133.746 E31.57701
G1 X155.711 Y134.165 E31.58416
G1 X155.84 Y134.72 E31.59309
G1 X155.84 Y140.439 E31.68273
G1 X155.682 Y141.028 E31.69229
G0 F9000 X155.282 Y140.953
G1 F1200 X154.83 Y141.654 E31.70537
G1 X154.253 Y142.149 E31.71729
G1 X153.7 Y142.371 E31.72663
G1 X153.08 Y142.46 E31.73645
G1 X132.605 Y142.46 E32.0574
G1 X132.067 Y142.302 E32.06619
G1 X131.366 Y141.85 E32.07926
G1 X130.871 Y141.273 E32.09118
G1 X130.649 Y140.72 E32.10052
G1 X130.56 Y140.1 E32.11034
G1 X130.56 Y99.585 E32.74543
G1 X130.718 Y99.047 E32.75422
G1 X131.17 Y98.346 E32.7673
G1 X131.747 Y97.851 E32.77921
G1 X132.3 Y97.629 E32.78855
G1 X132.92 Y97.54 E32.79837
G1 X138.361 Y97.54 E32.88366
G1 X138.899 Y97.698 E32.89245
G1 X139.6 Y98.15 E32.90553
G1 X140.095 Y98.727 E32.91744
G1 X140.317 Y99.28 E32.92679
G1 X140.406 Y99.9 E32.9366
G1 X140.406 Y114.577 E33.16667
G1 X153.395 Y114.577 E33.37028
G1 X153.933 Y114.735 E33.37907
G1 X154.634 Y115.187 E33.39215
G1 X155.129 Y115.764 E33.40406
G1 X155.351 Y116.317 E33.4134
G1 X155.44 Y116.937 E33.42322
G1 X155.44 Y123.378 E33.52419
G1 X155.282 Y123.916 E33.53298
G1 X154.83 Y124.617 E33.54605
G1 X154.253 Y125.112 E33.55797
G1 X153.7 Y125.334 E33.56731
G1 X153.08 Y125.423 E33.57713
G1 X140.406 Y125.423 E33.7758
G1 X140.406 Y132.613 E33.88851
G1 X153.395 Y132.613 E34.09211
G1 X153.933 Y132.771 E34.1009
G1 X154.634 Y133.223 E34.11398
G1 X155.129 Y133.8 E34.1259
G1 X155.351 Y134.353 E34.13524
G1 X155.44 Y134.973 E34.14506
G1 X155.44 Y140.415 E34.23036
G1 X155.282 Y140.953 E34.23915
G0 F9000 X154.882 Y140.871
G1 F1200 X154.692 Y141.198 E34.24508
G1 X154.354 Y141.548 E34.25271
G1 X153.873 Y141.876 E34.26183
G1 X153.517 Y142.006 E34.26777
G1 X153.08 Y142.06 E34.27468
G1 X132.631 Y142.06 E34.59522
G1 X132.149 Y141.902 E34.60317
G1 X131.822 Y141.712 E34.6091
G1 X131.472 Y141.374 E34.61673
G1 X131.144 Y140.893 E34.62586
G1 X131.014 Y140.537 E34.6318
G1 X130.96 Y140.1 E34.6387
G1 X130.96 Y99.578 E35.2739
G1 X131.308 Y98.802 E35.28723
G1 X131.646 Y98.452 E35.29486
G1 X132.127 Y98.124 E35.30398
G1 X132.483 Y97.994 E35.30993
G1 X132.92 Y97.94 E35.31683
G1 X138.335 Y97.94 E35.40171
G1 X138.817 Y98.098 E35.40966
G1 X139.144 Y98.288 E35.41559
G1 X139.494 Y98.626 E35.42322
G1 X139.822 Y99.107 E35.43234
G1 X139.952 Y99.463 E35.43828
G1 X140.006 Y99.9 E35.44519
G1 X140.006 Y114.977 E35.68152
G1 X153.369 Y114.977 E35.891
G1 X153.851 Y115.135 E35.89895
G1 X154.178 Y115.325 E35.90488
G1 X154.528 Y115.663 E35.9125
G1 X154.856 Y116.144 E35.92163
G1 X154.986 Y116.5 E35.92757
G1 X155.04 Y116.937 E35.93447
G1 X155.04 Y123.352 E36.03503
G1 X154.882 Y123.834 E36.04298
G1 X154.692 Y124.161 E36.04891
G1 X154.354 Y124.511 E36.05654
G1 X153.873 Y124.839 E36.06566
G1 X153.517 Y124.969 E36.0716
G1 X153.08 Y125.023 E36.07851
G1 X140.006 Y125.023 E36.28345
G1 X140.006 Y133.013 E36.40869
G1 X153.369 Y133.013 E36.61817
G1 X153.851 Y133.171 E36.62612
G1 X154.178 Y133.361 E36.63204
G1 X154.528 Y133.699 E36.63967
G1 X154.856 Y134.18 E36.6488
G1 X154.986 Y134.536 E36.65474
G1 X155.04 Y134.973 E36.66164
G1 X155.04 Y140.389 E36.74654
G1 X154.882 Y140.871 E36.75449
G0 F9000 X154.483 Y140.778
G1 F1200 X154.295 Y141.055 E36.75974
G1 X153.661 Y141.534 E36.77219
G1 X153.264 Y141.66 E36.77872
G1 X132.661 Y141.66 E37.10168
G1 X132.242 Y141.503 E37.1087
G1 X131.965 Y141.315 E37.11395
G1 X131.486 Y140.681 E37.1264
G1 X131.36 Y140.284 E37.13293
G1 X131.36 Y99.611 E37.7705
G1 X131.705 Y98.945 E37.78226
G1 X132.339 Y98.466 E37.79471
G1 X132.736 Y98.34 E37.80124
G1 X138.305 Y98.34 E37.88854
G1 X138.724 Y98.497 E37.89555
G1 X139.001 Y98.685 E37.9008
G1 X139.48 Y99.319 E37.91326
G1 X139.606 Y99.716 E37.91978
G1 X139.606 Y115.377 E38.16528
G1 X153.339 Y115.377 E38.38055
G1 X153.758 Y115.534 E38.38756
G1 X154.035 Y115.722 E38.39281
G1 X154.514 Y116.356 E38.40527
G1 X154.64 Y116.753 E38.4118
G1 X154.64 Y123.322 E38.51477
G1 X154.483 Y123.741 E38.52178
G1 X154.295 Y124.018 E38.52703
G1 X153.661 Y124.497 E38.53949
G1 X153.264 Y124.623 E38.54601
G1 X139.606 Y124.623 E38.76011
G1 X139.606 Y133.413 E38.8979
G1 X153.339 Y133.413 E39.11317
G1 X153.758 Y133.57 E39.12018
G1 X154.035 Y133.758 E39.12543
G1 X154.514 Y134.392 E39.13789
G1 X154.64 Y134.789 E39.14442
G1 X154.64 Y140.359 E39.23173
G1 X154.483 Y140.778 E39.23874
G0 F9000 X154.084 Y140.67
G1 F1200 X153.859 Y140.92 E39.24401
G1 X153.455 Y141.187 E39.2516
G1 X153.08 Y141.26 E39.25759
G1 X132.696 Y141.26 E39.57712
G1 X132.35 Y141.104 E39.58307
G1 X132.1 Y140.879 E39.58834
G1 X131.833 Y140.475 E39.59593
G1 X131.76 Y140.1 E39.60192
G1 X131.76 Y99.866 E40.23261
G1 X131.916 Y99.33 E40.24136
G1 X132.141 Y99.08 E40.24663
G1 X132.545 Y98.813 E40.25422
G1 X132.92 Y98.74 E40.26021
G1 X138.27 Y98.74 E40.34408
G1 X138.616 Y98.896 E40.35003
G1 X138.866 Y99.121 E40.3553
G1 X139.133 Y99.525 E40.36289
G1 X139.206 Y99.9 E40.36888
G1 X139.206 Y115.777 E40.61776
G1 X153.304 Y115.777 E40.83875
G1 X153.65 Y115.933 E40.8447
G1 X153.9 Y116.158 E40.84997
G1 X154.167 Y116.562 E40.85756
G1 X154.24 Y116.937 E40.86355
G1 X154.24 Y123.287 E40.96309
G1 X154.084 Y123.633 E40.96904
G1 X153.859 Y123.883 E40.97431
G1 X153.455 Y124.15 E40.9819
G1 X153.08 Y124.223 E40.98789
G1 X139.206 Y124.223 E41.20537
G1 X139.206 Y133.813 E41.3557
G1 X153.304 Y133.813 E41.57669
G1 X153.65 Y133.969 E41.58264
G1 X153.9 Y134.194 E41.58792
G1 X154.167 Y134.598 E41.59551
G1 X154.24 Y134.973 E41.60149
G1 X154.24 Y140.324 E41.68537
G1 X154.084 Y140.67 E41.69132
G0 F9000 X153.84 Y140.295
G1 F1200 X153.611 Y140.605 E41.69737
G1 X153.216 Y140.86 E41.70474
G1 X132.725 Y140.86 E42.02594
G1 X132.415 Y140.631 E42.03198
G1 X132.16 Y140.236 E42.03935
G1 X132.16 Y99.705 E42.67469
G1 X132.389 Y99.395 E42.68074
G1 X132.784 Y99.14 E42.68811
G1 X138.241 Y99.14 E42.77365
G1 X138.551 Y99.369 E42.77969
G1 X138.806 Y99.764 E42.78706
G1 X138.806 Y116.177 E43.04434
G1 X153.275 Y116.177 E43.27115
G1 X153.585 Y116.406 E43.27719
G1 X153.84 Y116.801 E43.28456
G1 X153.84 Y123.258 E43.38578
G1 X153.611 Y123.568 E43.39182
G1 X153.216 Y123.823 E43.39919
G1 X138.806 Y123.823 E43.62507
G1 X138.806 Y134.213 E43.78794
G1 X153.275 Y134.213 E44.01475
G1 X153.585 Y134.442 E44.02079
G1 X153.84 Y134.837 E44.02816
G1 X153.84 Y140.295 E44.11372
G0 F9000 X153.44 Y140.134
G1 F1200 X153.364 Y140.291 E44.11645
G1 X153.08 Y140.46 E44.12163
G1 X132.886 Y140.46 E44.43818
G1 X132.729 Y140.384 E44.44091
G1 X132.56 Y140.1 E44.4461
G1 X132.56 Y99.866 E45.07678
G1 X132.636 Y99.709 E45.07952
G1 X132.92 Y99.54 E45.0847
G1 X138.08 Y99.54 E45.16558
G1 X138.237 Y99.616 E45.16832
G1 X138.406 Y99.9 E45.1735
G1 X138.406 Y116.577 E45.43492
G1 X153.114 Y116.577 E45.66547
G1 X153.271 Y116.653 E45.66821
G1 X153.44 Y116.937 E45.67339
G1 X153.44 Y123.097 E45.76995
G1 X153.364 Y123.254 E45.77268
G1 X153.08 Y123.423 E45.77786
G1 X138.406 Y123.423 E46.00788
G1 X138.406 Y134.613 E46.18329
G1 X153.114 Y134.613 E46.41385
G1 X153.271 Y134.689 E46.41658
G1 X153.44 Y134.973 E46.42176
G1 X153.44 Y140.134 E46.50266
G1 F2700 E40.00266
;MESH:LETRA F.stl
G0 F9000 X152.44 Y139.46
G0 X138.127 Y123.023
;TYPE:WALL-OUTER
G1 F2700 E46.50266
G1 F1200 X153.04 Y123.023 E46.75981
G1 X153.04 Y116.977 E46.86406
G1 X138.126 Y116.977 E47.12122
G1 X138.008 Y116.812 E47.12472
G1 X138.006 Y99.94 E47.41564
G1 X132.96 Y99.94 E47.50265
G1 X132.96 Y140.06 E48.19444
G1 X153.04 Y140.06 E48.54068
G1 X153.04 Y135.058 E48.62693
G1 X153.016 Y135.013 E48.62781
G1 X138.163 Y135.013 E48.88392
G1 X138.008 Y134.848 E48.88782
G1 X138.006 Y123.182 E49.08898
G1 X138.127 Y123.023 E49.09242
G0 F9000 X138.327 Y123.023
G1 F2700 E42.59242
G0 F9000 X138.327 Y122.723
G0 X152.468 Y122.451
G0 X152.468 Y117.549
G0 X137.732 Y117.379
G0 X137.702 Y117.104
;TYPE:WALL-INNER
G1 F2700 E49.09242
G1 F1200 X137.606 Y116.897 E49.09582
G1 X137.606 Y100.34 E49.34238
G1 X133.36 Y100.34 E49.40561
G1 X133.36 Y139.66 E49.99116
G1 X152.64 Y139.66 E50.27827
G1 X152.64 Y135.413 E50.34151
G1 X138.206 Y135.413 E50.55646
G1 X137.898 Y135.329 E50.56121
G1 X137.69 Y135.121 E50.56559
G1 X137.606 Y134.813 E50.57035
G1 X137.606 Y123.103 E50.74473
G1 X137.702 Y122.896 E50.74813
G1 X137.917 Y122.696 E50.7525
G1 X138.153 Y122.625 E50.75617
G1 X152.64 Y122.623 E50.97191
G1 X152.64 Y117.377 E51.05003
G1 X138.153 Y117.375 E51.26576
G1 X137.917 Y117.304 E51.26943
G1 X137.702 Y117.104 E51.27381
G1 F2700 E44.77381
G0 F9000 X152.468 Y117.549
G0 X152.468 Y122.451
G0 X137.611 Y122.734
G1 F2700 E51.27381
G0 F9000 X137.376 Y122.752
;TYPE:SKIN
G1 F1200 X137.746 Y122.379 E51.28085
G1 X138.118 Y122.265 E51.28606
G1 X152.28 Y122.263 E51.47587
G1 X152.28 Y117.737 E51.53653
G1 X138.118 Y117.735 E51.72634
G1 X137.746 Y117.621 E51.73155
G1 X137.43 Y117.336 E51.73725
G1 X137.248 Y116.966 E51.74278
G1 X137.246 Y100.7 E51.96079
G1 X133.72 Y100.7 E52.00804
G1 X133.72 Y139.3 E52.52538
G1 X152.28 Y139.3 E52.77413
G1 X152.28 Y137.537 E52.79776
G1 X152.28 Y135.774 E52.82139
G1 X138.049 Y135.773 E53.01212
G1 X137.526 Y135.493 E53.02007
G1 X137.248 Y135.003 E53.02762
G1 X137.246 Y123.201 E53.1858
G1 X137.376 Y122.752 E53.19206
G1 F2700 E46.69206
G0 F9000 X137.61 Y122.86
G0 X138.742 Y122.436
G0 X152.468 Y122.451
G0 X152.468 Y117.549
G1 F2700 E53.19206
G0 F9000 X152.032 Y117.936
G1 F1200 X152.079 Y118.065 E53.1939
G0 F9000 X151.606 Y117.937
G1 F1200 X152.079 Y119.235 E53.21242
G0 F9000 X152.54 Y119.235
G0 X152.54 Y120.405
G0 X152.079 Y120.405
G1 F1200 X151.18 Y117.937 E53.24762
G0 F9000 X150.755 Y117.936
G1 F1200 X152.079 Y121.575 E53.29952
G0 F9000 X151.831 Y122.062
G1 F1200 X150.329 Y117.937 E53.35836
G0 F9000 X149.903 Y117.936
G1 F1200 X151.405 Y122.062 E53.41721
G0 F9000 X150.979 Y122.062
G1 F1200 X149.478 Y117.936 E53.47605
G0 F9000 X149.052 Y117.937
G1 F1200 X150.554 Y122.062 E53.53489
G0 F9000 X150.128 Y122.062
G1 F1200 X148.626 Y117.936 E53.59374
G0 F9000 X148.2 Y117.936
G1 F1200 X149.702 Y122.062 E53.65259
G0 F9000 X149.277 Y122.063
G1 F1200 X147.775 Y117.936 E53.71145
G0 F9000 X147.349 Y117.936
G1 F1200 X148.851 Y122.062 E53.7703
G0 F9000 X148.426 Y122.063
G1 F1200 X146.923 Y117.936 E53.82916
G0 F9000 X146.498 Y117.936
G1 F1200 X148 Y122.062 E53.88801
G0 F9000 X147.574 Y122.063
G1 F1200 X146.072 Y117.936 E53.94687
G0 F9000 X145.646 Y117.935
G1 F1200 X147.148 Y122.062 E54.00573
G0 F9000 X146.723 Y122.063
G1 F1200 X145.22 Y117.935 E54.06461
G0 F9000 X144.795 Y117.935
G1 F1200 X146.297 Y122.063 E54.12349
G0 F9000 X145.872 Y122.063
G1 F1200 X144.369 Y117.935 E54.18237
G0 F9000 X143.943 Y117.935
G1 F1200 X145.446 Y122.064 E54.24126
G0 F9000 X145.02 Y122.063
G1 F1200 X143.518 Y117.935 E54.30013
G0 F9000 X143.092 Y117.935
G1 F1200 X144.595 Y122.064 E54.35902
G0 F9000 X144.169 Y122.064
G1 F1200 X142.666 Y117.934 E54.41793
G0 F9000 X142.241 Y117.935
G1 F1200 X143.744 Y122.064 E54.47682
G0 F9000 X143.318 Y122.064
G1 F1200 X141.815 Y117.935 E54.53571
G0 F9000 X141.389 Y117.934
G1 F1200 X142.892 Y122.064 E54.59461
G0 F9000 X142.467 Y122.064
G1 F1200 X140.964 Y117.935 E54.6535
G0 F9000 X140.538 Y117.934
G1 F1200 X142.041 Y122.064 E54.71241
G0 F9000 X141.615 Y122.064
G1 F1200 X140.112 Y117.934 E54.77131
G0 F9000 X139.687 Y117.935
G1 F1200 X141.19 Y122.065 E54.83022
G0 F9000 X140.764 Y122.064
G1 F1200 X139.261 Y117.934 E54.88912
G0 F9000 X138.835 Y117.934
G1 F1200 X140.339 Y122.065 E54.94804
G0 F9000 X139.913 Y122.064
G1 F1200 X138.409 Y117.933 E55.00696
G0 F9000 X137.969 Y117.894
G1 F1200 X139.487 Y122.065 E55.06645
G0 F9000 X139.061 Y122.065
G1 F1200 X137.441 Y117.613 E55.12995
G0 F9000 X137.736 Y117.298
G0 X137.05 Y116.537
G1 F1200 X133.919 Y107.935 E55.25263
G0 F9000 X133.46 Y107.935
G0 X133.46 Y106.766
G0 X133.919 Y106.766
G1 F1200 X137.049 Y115.367 E55.37531
G0 F9000 X137.506 Y115.367
G0 X137.506 Y114.196
G0 X137.049 Y114.196
G1 F1200 X133.919 Y105.597 E55.49795
G0 F9000 X133.46 Y105.597
G0 X133.46 Y104.428
G0 X133.919 Y104.428
G1 F1200 X137.049 Y113.026 E55.62058
G0 F9000 X137.506 Y113.026
G0 X137.506 Y111.855
G0 X137.048 Y111.855
G1 F1200 X133.919 Y103.258 E55.7432
G0 F9000 X133.46 Y103.258
G0 X133.46 Y102.089
G0 X133.919 Y102.089
G1 F1200 X137.048 Y110.685 E55.8658
G0 F9000 X137.506 Y110.685
G0 X137.506 Y109.514
G0 X137.048 Y109.514
G1 F1200 X133.919 Y100.919 E55.98839
G0 F9000 X134.338 Y100.9
G1 F1200 X137.047 Y108.344 E56.09456
G0 F9000 X137.506 Y108.344
G0 X137.506 Y107.173
G0 X137.047 Y107.173
G1 F1200 X134.763 Y100.899 E56.18405
G0 F9000 X135.189 Y100.9
G1 F1200 X137.047 Y106.003 E56.25683
G0 F9000 X137.506 Y106.003
G0 X137.506 Y104.833
G0 X137.046 Y104.833
G1 F1200 X135.615 Y100.899 E56.31294
G0 F9000 X136.04 Y100.899
G1 F1200 X137.046 Y103.662 E56.35235
G0 F9000 X137.506 Y103.662
G0 X137.506 Y102.492
G0 X137.046 Y102.492
G1 F1200 X136.466 Y100.899 E56.37507
G0 F9000 X136.892 Y100.899
G1 F1200 X137.045 Y101.321 E56.38109
G0 F9000 X137.506 Y101.321
G0 X137.434 Y100.512
G0 X133.532 Y100.512
G0 X133.46 Y109.105
G0 X133.919 Y109.105
G1 F1200 X138.636 Y122.065 E56.56593
G0 F9000 X138.21 Y122.065
G1 F1200 X133.919 Y110.274 E56.7341
G0 F9000 X133.46 Y110.274
G0 X133.46 Y111.444
G0 X133.919 Y111.444
G1 F1200 X137.816 Y122.152 E56.88682
G0 F9000 X137.467 Y122.363
G1 F1200 X133.919 Y112.613 E57.02588
G0 F9000 X133.46 Y112.613
G0 X133.46 Y113.783
G0 X133.919 Y113.783
G1 F1200 X137.175 Y122.728 E57.15346
G0 F9000 X137.046 Y123.543
G1 F1200 X133.919 Y114.952 E57.27599
G0 F9000 X133.46 Y114.952
G0 X133.46 Y116.122
G0 X133.919 Y116.122
G1 F1200 X137.046 Y124.714 E57.39854
G0 F9000 X137.506 Y124.714
G0 X137.506 Y125.885
G0 X137.047 Y125.885
G1 F1200 X133.919 Y117.292 E57.5211
G0 F9000 X133.46 Y117.292
G0 X133.46 Y118.461
G0 X133.919 Y118.461
G1 F1200 X137.047 Y127.055 E57.64367
G0 F9000 X137.506 Y127.055
G0 X137.506 Y128.227
G0 X137.048 Y128.227
G1 F1200 X133.919 Y119.631 E57.76627
G0 F9000 X133.46 Y119.631
G0 X133.461 Y120.798
G0 X133.919 Y120.8
G1 F1200 X137.048 Y129.397 E57.88889
G0 F9000 X137.506 Y129.397
G0 X137.506 Y130.568
G0 X137.048 Y130.568
G1 F1200 X133.919 Y121.97 E58.01152
G0 F9000 X133.46 Y121.97
G0 X133.46 Y123.139
G0 X133.919 Y123.139
G1 F1200 X137.049 Y131.739 E58.13418
G0 F9000 X137.506 Y131.739
G0 X137.506 Y132.91
G0 X137.049 Y132.91
G1 F1200 X133.919 Y124.309 E58.25685
G0 F9000 X133.46 Y124.309
G0 X133.46 Y125.478
G0 X133.919 Y125.478
G1 F1200 X137.05 Y134.08 E58.37954
G0 F9000 X137.506 Y134.08
G0 X137.855 Y135.418
G0 X137.682 Y135.817
G1 F1200 X138.876 Y139.099 E58.42634
G0 F9000 X138.451 Y139.1
G1 F1200 X133.919 Y126.647 E58.60395
G0 F9000 X133.46 Y126.647
G0 X133.46 Y127.816
G0 X133.919 Y127.816
G1 F1200 X138.025 Y139.099 E58.76488
G0 F9000 X137.599 Y139.099
G1 F1200 X133.919 Y128.986 E58.90911
G0 F9000 X133.46 Y128.986
G0 X133.46 Y130.155
G0 X133.919 Y130.155
G1 F1200 X137.174 Y139.099 E59.03667
G0 F9000 X136.748 Y139.099
G1 F1200 X133.919 Y131.325 E59.14755
G0 F9000 X133.46 Y131.325
G0 X133.46 Y132.494
G0 X133.919 Y132.494
G1 F1200 X136.323 Y139.1 E59.24177
G0 F9000 X135.897 Y139.099
G1 F1200 X133.919 Y133.664 E59.31928
G0 F9000 X133.46 Y133.664
G0 X133.46 Y134.834
G0 X133.919 Y134.834
G1 F1200 X135.471 Y139.1 E59.38013
G0 F9000 X135.045 Y139.099
G1 F1200 X133.919 Y136.003 E59.42428
G0 F9000 X133.46 Y136.003
G0 X133.46 Y137.173
G0 X133.919 Y137.173
G1 F1200 X134.62 Y139.099 E59.45175
G0 F9000 X134.194 Y139.1
G1 F1200 X133.919 Y138.342 E59.46256
G1 F2700 E52.96256
G0 F9000 X133.46 Y138.342
G0 X133.532 Y139.488
G0 X152.468 Y139.488
G0 X152.468 Y135.585
G0 X138.212 Y135.514
G1 F2700 E59.46256
G0 F9000 X138.164 Y135.972
G1 F1200 X139.302 Y139.099 E59.50715
G0 F9000 X139.728 Y139.099
G1 F1200 X138.59 Y135.973 E59.55174
G0 F9000 X139.015 Y135.972
G1 F1200 X140.154 Y139.099 E59.59634
G0 F9000 X140.579 Y139.1
G1 F1200 X139.441 Y135.972 E59.64095
G0 F9000 X139.867 Y135.973
G1 F1200 X141.005 Y139.099 E59.68554
G0 F9000 X141.431 Y139.1
G1 F1200 X140.292 Y135.972 E59.73016
G0 F9000 X140.718 Y135.973
G1 F1200 X141.856 Y139.099 E59.77474
G0 F9000 X142.282 Y139.099
G1 F1200 X141.144 Y135.973 E59.81933
G0 F9000 X141.569 Y135.972
G1 F1200 X142.707 Y139.099 E59.86393
G0 F9000 X143.133 Y139.099
G1 F1200 X141.995 Y135.973 E59.90851
G0 F9000 X142.421 Y135.972
G1 F1200 X143.559 Y139.1 E59.95313
G0 F9000 X143.984 Y139.099
G1 F1200 X142.847 Y135.973 E59.99771
G0 F9000 X143.272 Y135.973
G1 F1200 X144.41 Y139.099 E60.04229
G0 F9000 X144.836 Y139.099
G1 F1200 X143.698 Y135.973 E60.08688
G0 F9000 X144.124 Y135.973
G1 F1200 X145.262 Y139.099 E60.13147
G0 F9000 X145.687 Y139.1
G1 F1200 X144.549 Y135.973 E60.17606
G0 F9000 X144.975 Y135.973
G1 F1200 X146.113 Y139.099 E60.22065
G0 F9000 X146.539 Y139.099
G1 F1200 X145.401 Y135.973 E60.26524
G0 F9000 X145.827 Y135.974
G1 F1200 X146.964 Y139.099 E60.30981
G0 F9000 X147.39 Y139.099
G1 F1200 X146.252 Y135.973 E60.35439
G0 F9000 X146.678 Y135.973
G1 F1200 X147.815 Y139.099 E60.39897
G0 F9000 X148.241 Y139.099
G1 F1200 X147.103 Y135.973 E60.44356
G0 F9000 X147.529 Y135.973
G1 F1200 X148.667 Y139.1 E60.48816
G0 F9000 X149.092 Y139.099
G1 F1200 X147.955 Y135.974 E60.53273
G0 F9000 X148.38 Y135.973
G1 F1200 X149.518 Y139.099 E60.57731
G0 F9000 X149.944 Y139.099
G1 F1200 X148.806 Y135.973 E60.6219
G0 F9000 X149.232 Y135.974
G1 F1200 X150.37 Y139.099 E60.66647
G0 F9000 X150.795 Y139.1
G1 F1200 X149.657 Y135.973 E60.71107
G0 F9000 X150.083 Y135.974
G1 F1200 X151.221 Y139.099 E60.75564
G0 F9000 X151.647 Y139.099
G1 F1200 X150.509 Y135.973 E60.80023
G0 F9000 X150.935 Y135.973
G1 F1200 X152.072 Y139.099 E60.84481
G0 F9000 X152.072 Y139.56
G0 X152.54 Y137.948
G0 X152.079 Y137.948
G1 F1200 X151.36 Y135.974 E60.87297
G0 F9000 X151.786 Y135.973
G1 F1200 X152.079 Y136.778 E60.88445
M204 S1500
G1 F2700 E54.38445
;MESH:NONMESH
G0 F600 X152.079 Y136.778 Z0.5
G0 F9000 X152.54 Y136.778
G0 X152.468 Y135.585
G0 X137.778 Y135.241
G0 X137.778 Y122.795
G1 F2700 E60.88445
G0 F9000 X138.208 Y123.103
;TIME_ELAPSED:213.754788
;LAYER:1
;TYPE:WALL-OUTER
;MESH:LETRA F.stl
G1 F1200 X152.995 Y123.103 E61.11624
G1 X153.12 Y123.032 E61.1185
G1 X153.12 Y117.019 E61.21275
G1 X153.047 Y116.897 E61.21498
G1 X138.268 Y116.897 E61.44665
G1 X138.088 Y116.789 E61.44994
G1 X138.086 Y99.982 E61.7134
G1 X138.013 Y99.86 E61.71563
G1 X132.965 Y99.86 E61.79476
G1 X132.88 Y100.009 E61.79745
G1 X132.88 Y140.018 E62.42461
G1 X132.953 Y140.14 E62.42683
G1 X152.995 Y140.14 E62.741
G1 X153.12 Y140.069 E62.74326
G1 X153.12 Y135.056 E62.82184
G1 X153.047 Y134.933 E62.82408
G1 X138.243 Y134.933 E63.05614
G1 X138.088 Y134.768 E63.05969
G1 X138.086 Y123.263 E63.24003
G1 X138.208 Y123.103 E63.24319
G0 F9000 X138.408 Y123.103
G0 X138.408 Y122.403
G0 X137.386 Y117.023
G0 X137.781 Y117.023
;TYPE:WALL-INNER
G1 F1800 X137.686 Y116.697 E63.24851
G1 X137.686 Y100.26 E63.50617
G1 X133.28 Y100.26 E63.57523
G1 X133.28 Y139.74 E64.1941
G1 X152.72 Y139.74 E64.49883
G1 X152.72 Y135.334 E64.5679
G1 X138.286 Y135.333 E64.79416
G1 X137.978 Y135.249 E64.79916
G1 X137.77 Y135.041 E64.80377
G1 X137.686 Y134.733 E64.80878
G1 X137.686 Y123.183 E64.98983
G1 X137.781 Y122.977 E64.99338
G1 X137.995 Y122.778 E64.99797
G1 X138.233 Y122.705 E65.00187
G1 X152.72 Y122.703 E65.22896
G1 X152.72 Y117.297 E65.3137
G1 X138.233 Y117.295 E65.54079
G1 X137.995 Y117.222 E65.54469
G1 X137.781 Y117.023 E65.54927
M204 S1000
G0 F9000 X137.386 Y117.023
G0 X137.386 Y122.784
G0 X137.478 Y122.784
;TYPE:SKIN
G1 F1800 X137.841 Y122.453 E65.55659
G1 X138.197 Y122.345 E65.56213
G1 X152.36 Y122.343 E65.77304
G1 X152.36 Y117.657 E65.84282
G1 X138.197 Y117.655 E66.05373
G1 X137.841 Y117.547 E66.05927
G1 X137.476 Y117.213 E66.06664
G1 X137.328 Y116.734 E66.07411
G1 X137.326 Y100.62 E66.31407
G1 X133.64 Y100.62 E66.36896
G1 X133.641 Y139.379 E66.94615
G1 X152.36 Y139.38 E67.22491
G1 X152.36 Y137.537 E67.25235
G1 X152.36 Y135.694 E67.2798
G1 X138.129 Y135.694 E67.49172
G1 X137.606 Y135.413 E67.50056
G1 X137.328 Y134.923 E67.50895
G1 X137.326 Y123.281 E67.68232
G1 X137.478 Y122.784 E67.69006
G1 F2700 E61.19006
G0 F9000 X137.386 Y122.784
G0 X137.458 Y135.561
G0 X152.159 Y138.805
G1 F2700 E67.69006
G1 F1800 X151.129 Y139.179 E67.70638
G0 F9000 X149.96 Y139.179
G1 F1800 X152.158 Y138.379 E67.74121
G0 F9000 X152.159 Y137.953
G1 F1800 X148.791 Y139.179 E67.79459
G0 F9000 X147.621 Y139.179
G1 F1800 X152.158 Y137.528 E67.86648
G0 F9000 X152.158 Y137.102
G1 F1800 X146.452 Y139.179 E67.95691
G0 F9000 X145.282 Y139.179
G1 F1800 X152.159 Y136.676 E68.06589
G0 F9000 X152.158 Y136.251
G1 F1800 X144.113 Y139.179 E68.19339
G0 F9000 X142.943 Y139.179
G1 F1800 X151.973 Y135.893 E68.33648
G0 F9000 X150.803 Y135.893
G1 F1800 X141.773 Y139.179 E68.47958
G0 F9000 X140.605 Y139.179
G1 F1800 X149.633 Y135.893 E68.62265
G0 F9000 X148.464 Y135.893
G1 F1800 X139.435 Y139.179 E68.76574
G0 F9000 X138.266 Y139.179
G1 F1800 X147.294 Y135.893 E68.90881
G0 F9000 X146.125 Y135.893
G1 F1800 X137.096 Y139.179 E69.05189
G0 F9000 X135.927 Y139.179
G1 F1800 X144.955 Y135.893 E69.19496
G0 F9000 X143.786 Y135.893
G1 F1800 X134.757 Y139.179 E69.33805
G0 F9000 X133.84 Y139.087
G1 F1800 X142.616 Y135.893 E69.47713
G0 F9000 X141.447 Y135.893
G1 F1800 X133.84 Y138.661 E69.59767
G0 F9000 X133.84 Y138.235
G1 F1800 X140.277 Y135.893 E69.69968
G0 F9000 X139.108 Y135.893
G1 F1800 X133.841 Y137.81 E69.78315
G0 F9000 X133.84 Y137.384
G1 F1800 X138.019 Y135.863 E69.84937
G0 F9000 X137.552 Y135.607
G1 F1800 X133.841 Y136.958 E69.90818
G0 F9000 X133.84 Y136.533
G1 F1800 X137.293 Y135.276 E69.96291
G0 F9000 X137.129 Y134.91
G1 F1800 X133.84 Y136.107 E70.01503
G0 F9000 X133.84 Y135.682
G1 F1800 X137.129 Y134.485 E70.06715
G0 F9000 X137.129 Y134.059
G1 F1800 X133.84 Y135.256 E70.11927
G0 F9000 X133.841 Y134.83
G1 F1800 X137.129 Y133.633 E70.17138
G0 F9000 X137.128 Y133.208
G1 F1800 X133.84 Y134.405 E70.22349
G0 F9000 X133.84 Y133.979
G1 F1800 X137.128 Y132.782 E70.27559
G0 F9000 X137.128 Y132.356
G1 F1800 X133.84 Y133.553 E70.3277
G0 F9000 X133.84 Y133.127
G1 F1800 X137.128 Y131.931 E70.3798
G0 F9000 X137.128 Y131.505
G1 F1800 X133.841 Y132.702 E70.4319
G0 F9000 X133.84 Y132.276
G1 F1800 X137.127 Y131.08 E70.48399
G0 F9000 X137.128 Y130.654
G1 F1800 X133.84 Y131.85 E70.53609
G0 F9000 X133.84 Y131.425
G1 F1800 X137.127 Y130.228 E70.58818
G0 F9000 X137.127 Y129.803
G1 F1800 X133.84 Y130.999 E70.64027
G0 F9000 X133.84 Y130.574
G1 F1800 X137.127 Y129.377 E70.69236
G0 F9000 X137.127 Y128.951
G1 F1800 X133.84 Y130.148 E70.74446
G0 F9000 X133.841 Y129.722
G1 F1800 X137.127 Y128.526 E70.79653
G0 F9000 X137.126 Y128.1
G1 F1800 X133.84 Y129.296 E70.84861
G0 F9000 X133.84 Y128.871
G1 F1800 X137.126 Y127.675 E70.90068
G0 F9000 X137.126 Y127.249
G1 F1800 X133.84 Y128.445 E70.95276
G0 F9000 X133.84 Y128.019
G1 F1800 X137.126 Y126.823 E71.00483
G0 F9000 X137.126 Y126.398
G1 F1800 X133.84 Y127.594 E71.0569
G0 F9000 X133.84 Y127.168
G1 F1800 X137.125 Y125.972 E71.10897
G0 F9000 X137.126 Y125.547
G1 F1800 X133.84 Y126.742 E71.16103
G0 F9000 X133.84 Y126.317
G1 F1800 X137.125 Y125.121 E71.2131
G0 F9000 X137.125 Y124.695
G1 F1800 X133.84 Y125.891 E71.26516
G0 F9000 X133.84 Y125.466
G1 F1800 X137.125 Y124.27 E71.31722
G0 F9000 X137.125 Y123.844
G1 F1800 X133.84 Y125.04 E71.36928
G0 F9000 X133.84 Y124.614
G1 F1800 X137.125 Y123.419 E71.42133
G0 F9000 X137.217 Y122.959
G1 F1800 X133.84 Y124.188 E71.47485
G0 F9000 X133.84 Y123.763
G1 F1800 X137.633 Y122.382 E71.53496
G0 F9000 X138.283 Y122.146
G1 F1800 X150.07 Y117.856 E71.72175
G0 F9000 X151.239 Y117.856
G1 F1800 X139.454 Y122.145 E71.90851
G0 F9000 X140.624 Y122.145
G1 F1800 X152.159 Y117.947 E72.09131
G0 F9000 X152.158 Y118.372
G1 F1800 X141.794 Y122.145 E72.25556
G0 F9000 X142.964 Y122.145
G1 F1800 X152.158 Y118.798 E72.40126
G0 F9000 X152.159 Y119.224
G1 F1800 X144.135 Y122.144 E72.52842
G0 F9000 X145.304 Y122.144
G1 F1800 X152.158 Y119.649 E72.63704
G0 F9000 X152.159 Y120.075
G1 F1800 X146.475 Y122.144 E72.72712
G0 F9000 X147.645 Y122.143
G1 F1800 X152.158 Y120.501 E72.79863
G0 F9000 X152.158 Y120.927
G1 F1800 X148.815 Y122.143 E72.85161
G0 F9000 X149.985 Y122.143
G1 F1800 X152.159 Y121.352 E72.88606
G0 F9000 X152.158 Y121.778
G1 F1800 X151.156 Y122.143 E72.90194
G0 F9000 X148.901 Y117.855
G1 F1800 X133.84 Y123.337 E73.14062
G0 F9000 X133.84 Y122.911
G1 F1800 X147.733 Y117.855 E73.36078
G0 F9000 X146.563 Y117.855
G1 F1800 X133.84 Y122.486 E73.56241
G0 F9000 X133.84 Y122.06
G1 F1800 X145.394 Y117.855 E73.74551
G0 F9000 X144.226 Y117.854
G1 F1800 X133.84 Y121.634 E73.9101
G0 F9000 X133.84 Y121.209
G1 F1800 X143.056 Y117.854 E74.05615
G0 F9000 X141.888 Y117.854
G1 F1800 X133.84 Y120.783 E74.18369
G0 F9000 X133.84 Y120.357
G1 F1800 X140.719 Y117.854 E74.2927
G0 F9000 X139.55 Y117.854
G1 F1800 X133.84 Y119.932 E74.38319
G0 F9000 X133.84 Y119.506
G1 F1800 X138.381 Y117.853 E74.45515
G0 F9000 X137.7 Y117.675
G1 F1800 X133.84 Y119.08 E74.51632
G0 F9000 X133.84 Y118.655
G1 F1800 X137.364 Y117.372 E74.57217
G0 F9000 X137.205 Y117.004
G1 F1800 X133.84 Y118.229 E74.6255
G0 F9000 X133.84 Y117.803
G1 F1800 X137.13 Y116.606 E74.67764
G0 F9000 X137.129 Y116.18
G1 F1800 X133.84 Y117.378 E74.72976
G0 F9000 X133.84 Y116.952
G1 F1800 X137.13 Y115.755 E74.7819
G0 F9000 X137.129 Y115.329
G1 F1800 X133.84 Y116.526 E74.83402
G0 F9000 X133.84 Y116.101
G1 F1800 X137.13 Y114.903 E74.88616
G0 F9000 X137.129 Y114.478
G1 F1800 X133.84 Y115.675 E74.93828
G0 F9000 X133.84 Y115.249
G1 F1800 X137.129 Y114.052 E74.9904
G0 F9000 X137.129 Y113.627
G1 F1800 X133.84 Y114.824 E75.04252
G0 F9000 X133.839 Y114.398
G1 F1800 X137.128 Y113.201 E75.09465
G0 F9000 X137.129 Y112.775
G1 F1800 X133.84 Y113.972 E75.14677
G0 F9000 X133.84 Y113.547
G1 F1800 X137.128 Y112.35 E75.19888
G0 F9000 X137.129 Y111.924
G1 F1800 X133.84 Y113.121 E75.251
G0 F9000 X133.84 Y112.695
G1 F1800 X137.128 Y111.499 E75.3031
G0 F9000 X137.128 Y111.073
G1 F1800 X133.84 Y112.27 E75.35521
G0 F9000 X133.84 Y111.844
G1 F1800 X137.128 Y110.647 E75.40732
G0 F9000 X137.128 Y110.221
G1 F1800 X133.84 Y111.418 E75.45942
G0 F9000 X133.84 Y110.993
G1 F1800 X137.128 Y109.796 E75.51153
G0 F9000 X137.127 Y109.371
G1 F1800 X133.84 Y110.567 E75.56362
G0 F9000 X133.84 Y110.141
G1 F1800 X137.128 Y108.945 E75.61572
G0 F9000 X137.127 Y108.519
G1 F1800 X133.84 Y109.716 E75.66782
G0 F9000 X133.839 Y109.29
G1 F1800 X137.127 Y108.093 E75.71992
G0 F9000 X137.127 Y107.668
G1 F1800 X133.84 Y108.864 E75.77201
G0 F9000 X133.84 Y108.439
G1 F1800 X137.127 Y107.242 E75.8241
G0 F9000 X137.127 Y106.817
G1 F1800 X133.84 Y108.013 E75.87619
G0 F9000 X133.84 Y107.587
G1 F1800 X137.127 Y106.391 E75.92828
G0 F9000 X137.126 Y105.965
G1 F1800 X133.839 Y107.162 E75.98038
G0 F9000 X133.84 Y106.736
G1 F1800 X137.126 Y105.54 E76.03245
G0 F9000 X137.126 Y105.114
G1 F1800 X133.84 Y106.31 E76.08452
G0 F9000 X133.84 Y105.885
G1 F1800 X137.126 Y104.689 E76.1366
G0 F9000 X137.126 Y104.263
G1 F1800 X133.84 Y105.459 E76.18867
G0 F9000 X133.84 Y105.033
G1 F1800 X137.126 Y103.837 E76.24075
G0 F9000 X137.126 Y103.412
G1 F1800 X133.84 Y104.608 E76.29282
G0 F9000 X133.839 Y104.182
G1 F1800 X137.125 Y102.986 E76.3449
G0 F9000 X137.126 Y102.56
G1 F1800 X133.84 Y103.756 E76.39697
G0 F9000 X133.84 Y103.33
G1 F1800 X137.125 Y102.135 E76.44903
G0 F9000 X137.126 Y101.709
G1 F1800 X133.84 Y102.905 E76.5011
G0 F9000 X133.84 Y102.479
G1 F1800 X137.125 Y101.284 E76.55316
G0 F9000 X137.125 Y100.858
G1 F1800 X133.839 Y102.054 E76.60523
G0 F9000 X133.84 Y101.628
G1 F1800 X136.061 Y100.819 E76.64043
G0 F9000 X134.893 Y100.819
G1 F1800 X133.839 Y101.202 E76.65713
M204 S1500
G0 F9000 X133.88 Y101.202
G1 F2700 E70.15713
;MESH:NONMESH
G0 F600 X133.88 Y101.202 Z0.75
G0 F9000 X138.208 Y122.403
G1 F2700 E76.65713
G0 F9000 X138.208 Y123.103
;TIME_ELAPSED:258.240268
;LAYER:2
;TYPE:WALL-OUTER
;MESH:LETRA F.stl
G1 F1200 X152.995 Y123.103 E76.88893
G1 X153.12 Y123.032 E76.89118
G1 X153.12 Y117.019 E76.98544
G1 X153.047 Y116.897 E76.98766
G1 X138.268 Y116.897 E77.21933
G1 X138.088 Y116.789 E77.22262
G1 X138.086 Y99.982 E77.48608
G1 X138.013 Y99.86 E77.48831
G1 X132.965 Y99.86 E77.56744
G1 X132.88 Y100.009 E77.57013
G1 X132.88 Y140.018 E78.19729
G1 X132.953 Y140.14 E78.19952
G1 X152.995 Y140.14 E78.51368
G1 X153.12 Y140.069 E78.51594
G1 X153.12 Y135.056 E78.59452
G1 X153.047 Y134.933 E78.59676
G1 X138.243 Y134.933 E78.82882
G1 X138.088 Y134.768 E78.83237
G1 X138.086 Y123.263 E79.01271
G1 X138.208 Y123.103 E79.01587
G0 F9000 X138.408 Y123.103
G0 X138.408 Y122.403
G0 X137.386 Y117.023
G0 X137.781 Y117.023
;TYPE:WALL-INNER
G1 F1800 X137.686 Y116.697 E79.02119
G1 X137.686 Y100.26 E79.27885
G1 X133.28 Y100.26 E79.34791
G1 X133.28 Y139.74 E79.96678
G1 X152.72 Y139.74 E80.27151
G1 X152.72 Y135.334 E80.34058
G1 X138.286 Y135.333 E80.56684
G1 X137.978 Y135.249 E80.57184
G1 X137.77 Y135.041 E80.57645
G1 X137.686 Y134.733 E80.58146
G1 X137.686 Y123.183 E80.76251
G1 X137.781 Y122.977 E80.76607
G1 X137.995 Y122.778 E80.77065
G1 X138.233 Y122.705 E80.77455
G1 X152.72 Y122.703 E81.00164
G1 X152.72 Y117.297 E81.08638
G1 X138.233 Y117.295 E81.31347
G1 X137.995 Y117.222 E81.31737
G1 X137.781 Y117.023 E81.32195
M204 S1000
G0 F9000 X137.386 Y117.023
G0 X137.386 Y122.784
G0 X137.478 Y122.784
;TYPE:SKIN
G1 F1800 X137.841 Y122.453 E81.32927
G1 X138.197 Y122.345 E81.33481
G1 X152.36 Y122.343 E81.54572
G1 X152.36 Y117.657 E81.6155
G1 X138.197 Y117.655 E81.82641
G1 X137.841 Y117.547 E81.83195
G1 X137.476 Y117.213 E81.83932
G1 X137.328 Y116.734 E81.84679
G1 X137.326 Y100.62 E82.08675
G1 X133.64 Y100.62 E82.14164
G1 X133.641 Y139.379 E82.71883
G1 X152.36 Y139.38 E82.99759
G1 X152.36 Y137.537 E83.02503
G1 X152.36 Y135.694 E83.05248
G1 X138.129 Y135.694 E83.2644
G1 X137.606 Y135.413 E83.27324
G1 X137.328 Y134.923 E83.28163
G1 X137.326 Y123.281 E83.455
G1 X137.478 Y122.784 E83.46274
G1 F2700 E76.96274
G0 F9000 X137.386 Y122.784
G0 X152.003 Y117.857
G1 F2700 E83.46274
G1 F1800 X152.159 Y118.286 E83.46954
G0 F9000 X151.577 Y117.856
G1 F1800 X152.159 Y119.456 E83.49489
G0 F9000 X152.159 Y120.625
G1 F1800 X151.151 Y117.857 E83.53876
G0 F9000 X150.726 Y117.856
G1 F1800 X152.159 Y121.796 E83.6012
G0 F9000 X151.86 Y122.142
G1 F1800 X150.3 Y117.856 E83.66912
G0 F9000 X149.874 Y117.857
G1 F1800 X151.434 Y122.142 E83.73703
G0 F9000 X151.008 Y122.142
G1 F1800 X149.448 Y117.856 E83.80495
G0 F9000 X149.023 Y117.856
G1 F1800 X150.583 Y122.143 E83.87288
G0 F9000 X150.157 Y122.142
G1 F1800 X148.597 Y117.856 E83.94081
G0 F9000 X148.171 Y117.856
G1 F1800 X149.732 Y122.143 E84.00875
G0 F9000 X149.306 Y122.142
G1 F1800 X147.746 Y117.856 E84.07667
G0 F9000 X147.32 Y117.856
G1 F1800 X148.88 Y122.143 E84.14461
G0 F9000 X148.455 Y122.143
G1 F1800 X146.894 Y117.856 E84.21255
G0 F9000 X146.468 Y117.855
G1 F1800 X148.029 Y122.143 E84.2805
G0 F9000 X147.603 Y122.143
G1 F1800 X146.043 Y117.855 E84.34845
G0 F9000 X145.617 Y117.855
G1 F1800 X147.178 Y122.143 E84.41641
G0 F9000 X146.752 Y122.143
G1 F1800 X145.191 Y117.855 E84.48436
G0 F9000 X144.766 Y117.855
G1 F1800 X146.327 Y122.143 E84.55232
G0 F9000 X145.901 Y122.143
G1 F1800 X144.34 Y117.855 E84.62027
G0 F9000 X143.914 Y117.855
G1 F1800 X145.475 Y122.144 E84.68824
G0 F9000 X145.049 Y122.143
G1 F1800 X143.488 Y117.854 E84.75621
G0 F9000 X143.063 Y117.855
G1 F1800 X144.624 Y122.144 E84.82418
G0 F9000 X144.198 Y122.143
G1 F1800 X142.637 Y117.855 E84.89214
G0 F9000 X142.211 Y117.854
G1 F1800 X143.773 Y122.144 E84.96012
G0 F9000 X143.347 Y122.144
G1 F1800 X141.786 Y117.855 E85.02809
G0 F9000 X141.36 Y117.854
G1 F1800 X142.921 Y122.144 E85.09608
G0 F9000 X142.496 Y122.144
G1 F1800 X140.934 Y117.854 E85.16406
G0 F9000 X140.509 Y117.855
G1 F1800 X142.07 Y122.144 E85.23203
G0 F9000 X141.644 Y122.144
G1 F1800 X140.083 Y117.854 E85.30002
G0 F9000 X139.657 Y117.854
G1 F1800 X141.219 Y122.144 E85.36801
G0 F9000 X140.793 Y122.144
G1 F1800 X139.232 Y117.854 E85.43599
G0 F9000 X138.806 Y117.854
G1 F1800 X140.368 Y122.145 E85.50399
G0 F9000 X139.942 Y122.144
G1 F1800 X138.38 Y117.854 E85.57198
G0 F9000 X137.928 Y117.78
G1 F1800 X139.516 Y122.145 E85.64115
G0 F9000 X139.09 Y122.144
G1 F1800 X137.349 Y117.359 E85.71698
G0 F9000 X137.13 Y116.759
G1 F1800 X133.839 Y107.716 E85.86028
G0 F9000 X133.839 Y106.547
G1 F1800 X137.13 Y115.589 E86.00357
G0 F9000 X137.13 Y114.418
G1 F1800 X133.839 Y105.377 E86.14685
G0 F9000 X133.839 Y104.208
G1 F1800 X137.129 Y113.248 E86.29011
G0 F9000 X137.129 Y112.077
G1 F1800 X133.839 Y103.038 E86.43336
G0 F9000 X133.839 Y101.869
G1 F1800 X137.129 Y110.907 E86.57659
G0 F9000 X137.128 Y109.736
G1 F1800 X133.883 Y100.819 E86.7179
G0 F9000 X134.309 Y100.82
G1 F1800 X137.128 Y108.566 E86.84065
G0 F9000 X137.128 Y107.395
G1 F1800 X134.734 Y100.82 E86.94485
G0 F9000 X135.16 Y100.82
G1 F1800 X137.127 Y106.225 E87.0305
G0 F9000 X137.127 Y105.054
G1 F1800 X135.586 Y100.82 E87.0976
G0 F9000 X136.011 Y100.819
G1 F1800 X137.127 Y103.884 E87.14618
G0 F9000 X137.126 Y102.713
G1 F1800 X136.437 Y100.82 E87.17618
G0 F9000 X136.863 Y100.82
G1 F1800 X137.126 Y101.543 E87.18763
G0 F9000 X133.839 Y108.886
G1 F1800 X138.665 Y122.145 E87.39775
G0 F9000 X138.239 Y122.145
G1 F1800 X133.839 Y110.055 E87.58935
G0 F9000 X133.839 Y111.225
G1 F1800 X137.849 Y122.241 E87.76392
G0 F9000 X137.514 Y122.491
G1 F1800 X133.839 Y112.394 E87.92394
G0 F9000 X133.839 Y113.564
G1 F1800 X137.237 Y122.899 E88.07187
G0 F9000 X137.126 Y123.763
G1 F1800 X133.839 Y114.734 E88.21496
G0 F9000 X133.839 Y115.903
G1 F1800 X137.126 Y124.933 E88.35807
G0 F9000 X137.126 Y126.104
G1 F1800 X133.839 Y117.074 E88.50117
G0 F9000 X133.839 Y118.243
G1 F1800 X137.127 Y127.274 E88.64429
G0 F9000 X137.127 Y128.446
G1 F1800 X133.839 Y119.413 E88.78744
G0 F9000 X133.839 Y120.582
G1 F1800 X137.128 Y129.616 E88.93061
G0 F9000 X137.128 Y130.787
G1 F1800 X133.839 Y121.752 E89.0738
G0 F9000 X133.839 Y122.921
G1 F1800 X137.129 Y131.958 E89.21702
G0 F9000 X137.129 Y133.129
G1 F1800 X133.839 Y124.091 E89.36025
G0 F9000 X133.839 Y125.26
G1 F1800 X137.129 Y134.299 E89.50349
G0 F9000 X137.458 Y135.561
G0 X137.622 Y135.651
G1 F1800 X138.905 Y139.178 E89.55938
G0 F9000 X138.48 Y139.179
G1 F1800 X133.839 Y126.43 E89.76142
G0 F9000 X133.84 Y127.599
G1 F1800 X138.054 Y139.178 E89.94492
G0 F9000 X137.628 Y139.178
G1 F1800 X133.84 Y128.769 E90.10987
G0 F9000 X133.84 Y129.938
G1 F1800 X137.203 Y139.178 E90.2563
G0 F9000 X136.777 Y139.178
G1 F1800 X133.84 Y131.108 E90.38419
G0 F9000 X133.84 Y132.277
G1 F1800 X136.351 Y139.179 E90.49356
G0 F9000 X135.925 Y139.178
G1 F1800 X133.84 Y133.447 E90.58438
G0 F9000 X133.84 Y134.616
G1 F1800 X135.5 Y139.178 E90.65667
G0 F9000 X135.074 Y139.178
G1 F1800 X133.84 Y135.786 E90.71042
G0 F9000 X133.84 Y136.956
G1 F1800 X134.648 Y139.178 E90.74563
G0 F9000 X134.223 Y139.178
G1 F1800 X133.84 Y138.125 E90.76232
G0 F9000 X138.135 Y135.893
G1 F1800 X139.331 Y139.178 E90.81438
G0 F9000 X139.756 Y139.178
G1 F1800 X138.561 Y135.894 E90.86642
G0 F9000 X138.987 Y135.893
G1 F1800 X140.182 Y139.178 E90.91848
G0 F9000 X140.608 Y139.179
G1 F1800 X139.412 Y135.893 E90.97055
G0 F9000 X139.838 Y135.893
G1 F1800 X141.034 Y139.178 E91.02261
G0 F9000 X141.459 Y139.178
G1 F1800 X140.264 Y135.893 E91.07467
G0 F9000 X140.689 Y135.894
G1 F1800 X141.885 Y139.178 E91.12671
G0 F9000 X142.311 Y139.178
G1 F1800 X141.115 Y135.893 E91.17877
G0 F9000 X141.541 Y135.894
G1 F1800 X142.736 Y139.179 E91.23083
G0 F9000 X143.162 Y139.178
G1 F1800 X141.966 Y135.893 E91.28289
G0 F9000 X142.392 Y135.893
G1 F1800 X143.588 Y139.179 E91.33496
G0 F9000 X144.013 Y139.178
G1 F1800 X142.818 Y135.894 E91.38701
G0 F9000 X143.243 Y135.893
G1 F1800 X144.439 Y139.178 E91.43907
G0 F9000 X144.865 Y139.179
G1 F1800 X143.669 Y135.894 E91.49113
G0 F9000 X144.095 Y135.893
G1 F1800 X145.29 Y139.178 E91.54318
G0 F9000 X145.716 Y139.179
G1 F1800 X144.52 Y135.893 E91.59526
G0 F9000 X144.946 Y135.893
G1 F1800 X146.142 Y139.178 E91.64732
G0 F9000 X146.567 Y139.178
G1 F1800 X145.372 Y135.893 E91.69937
G0 F9000 X145.797 Y135.894
G1 F1800 X146.993 Y139.179 E91.75143
G0 F9000 X147.419 Y139.178
G1 F1800 X146.223 Y135.893 E91.80349
G0 F9000 X146.649 Y135.893
G1 F1800 X147.844 Y139.179 E91.85556
G0 F9000 X148.27 Y139.178
G1 F1800 X147.074 Y135.893 E91.90762
G0 F9000 X147.5 Y135.893
G1 F1800 X148.696 Y139.178 E91.95968
G0 F9000 X149.122 Y139.179
G1 F1800 X147.926 Y135.894 E92.01175
G0 F9000 X148.351 Y135.893
G1 F1800 X149.547 Y139.178 E92.06381
G0 F9000 X149.973 Y139.179
G1 F1800 X148.777 Y135.894 E92.11587
G0 F9000 X149.203 Y135.893
G1 F1800 X150.398 Y139.178 E92.16792
G0 F9000 X150.824 Y139.179
G1 F1800 X149.628 Y135.893 E92.22
G0 F9000 X150.054 Y135.894
G1 F1800 X151.25 Y139.179 E92.27206
G0 F9000 X151.675 Y139.178
G1 F1800 X150.48 Y135.893 E92.32411
G0 F9000 X150.906 Y135.894
G1 F1800 X152.101 Y139.179 E92.37617
G0 F9000 X152.159 Y138.168
G1 F1800 X151.331 Y135.893 E92.41222
G0 F9000 X151.757 Y135.893
G1 F1800 X152.159 Y136.998 E92.42973
M204 S1500
G0 F9000 X152.12 Y136.998
G1 F2700 E85.92973
;MESH:NONMESH
G0 F600 X152.12 Y136.998 Z1
G0 F9000 X137.458 Y135.561
G0 X137.458 Y122.475
G1 F2700 E92.42973
G0 F9000 X138.208 Y123.103
;TIME_ELAPSED:302.570386
;LAYER:3
;TYPE:WALL-OUTER
;MESH:LETRA F.stl
G1 F1200 X152.995 Y123.103 E92.66152
G1 X153.12 Y123.032 E92.66378
G1 X153.12 Y117.019 E92.75803
G1 X153.047 Y116.897 E92.76026
G1 X138.268 Y116.897 E92.99193
G1 X138.088 Y116.789 E92.99522
G1 X138.086 Y99.982 E93.25868
G1 X138.013 Y99.86 E93.26091
G1 X132.965 Y99.86 E93.34004
G1 X132.88 Y100.009 E93.34273
G1 X132.88 Y140.018 E93.96989
G1 X132.953 Y140.14 E93.97211
G1 X152.995 Y140.14 E94.28628
G1 X153.12 Y140.069 E94.28853
G1 X153.12 Y135.005 E94.36792
G1 X153.047 Y134.933 E94.36952
G1 X138.243 Y134.933 E94.60158
G1 X138.088 Y134.768 E94.60513
G1 X138.086 Y123.263 E94.78548
G1 X138.208 Y123.103 E94.78863
G0 F9000 X138.408 Y123.103
G0 X138.408 Y122.403
G0 X137.386 Y117.023
G0 X137.781 Y117.023
;TYPE:WALL-INNER
G1 F1800 X137.686 Y116.697 E94.79395
G1 X137.686 Y100.26 E95.05161
G1 X133.28 Y100.26 E95.12068
G1 X133.28 Y139.74 E95.73955
G1 X152.72 Y139.74 E96.04428
G1 X152.72 Y135.334 E96.11334
G1 X138.286 Y135.333 E96.3396
G1 X137.978 Y135.249 E96.34461
G1 X137.77 Y135.041 E96.34922
G1 X137.686 Y134.733 E96.35422
G1 X137.686 Y123.183 E96.53527
G1 X137.781 Y122.977 E96.53883
G1 X137.995 Y122.778 E96.54341
G1 X138.233 Y122.705 E96.54731
G1 X152.72 Y122.703 E96.7744
G1 X152.72 Y117.297 E96.85914
G1 X138.233 Y117.295 E97.08623
G1 X137.995 Y117.222 E97.09014
G1 X137.781 Y117.023 E97.09472
M204 S1000
G0 F9000 X137.386 Y117.023
G0 X137.386 Y122.784
G0 X137.478 Y122.784
;TYPE:SKIN
G1 F1800 X137.841 Y122.453 E97.10203
G1 X138.197 Y122.345 E97.10757
G1 X152.36 Y122.343 E97.31848
G1 X152.36 Y117.657 E97.38827
G1 X138.197 Y117.655 E97.59918
G1 X137.841 Y117.547 E97.60472
G1 X137.476 Y117.213 E97.61209
G1 X137.328 Y116.734 E97.61955
G1 X137.326 Y100.62 E97.85952
G1 X133.64 Y100.62 E97.91441
G1 X133.641 Y139.379 E98.49159
G1 X152.36 Y139.38 E98.77035
G1 X152.36 Y137.537 E98.7978
G1 X152.36 Y135.694 E98.82524
G1 X138.129 Y135.694 E99.03717
G1 X137.606 Y135.413 E99.04601
G1 X137.328 Y134.923 E99.0544
G1 X137.326 Y123.281 E99.22777
G1 X137.478 Y122.784 E99.23551
G1 F2700 E92.73551
G0 F9000 X137.386 Y122.784
G0 X137.458 Y135.561
G0 X152.159 Y138.805
G1 F2700 E99.23551
G1 F1800 X151.129 Y139.179 E99.25182
G0 F9000 X149.96 Y139.179
G1 F1800 X152.158 Y138.379 E99.28666
G0 F9000 X152.159 Y137.953
G1 F1800 X148.791 Y139.179 E99.34003
G0 F9000 X147.621 Y139.179
G1 F1800 X152.158 Y137.528 E99.41193
G0 F9000 X152.158 Y137.102
G1 F1800 X146.452 Y139.179 E99.50236
G0 F9000 X145.282 Y139.179
G1 F1800 X152.159 Y136.676 E99.61134
G0 F9000 X152.158 Y136.251
G1 F1800 X144.113 Y139.179 E99.73883
G0 F9000 X142.943 Y139.179
G1 F1800 X151.973 Y135.893 E99.88193
G0 F9000 X150.803 Y135.893
G1 F1800 X141.773 Y139.179 E100.02503
G0 F9000 X140.605 Y139.179
G1 F1800 X149.633 Y135.893 E100.1681
G0 F9000 X148.464 Y135.893
G1 F1800 X139.435 Y139.179 E100.31118
G0 F9000 X138.266 Y139.179
G1 F1800 X147.294 Y135.893 E100.45425
G0 F9000 X146.125 Y135.893
G1 F1800 X137.096 Y139.179 E100.59734
G0 F9000 X135.927 Y139.179
G1 F1800 X144.955 Y135.893 E100.74041
G0 F9000 X143.786 Y135.893
G1 F1800 X134.757 Y139.179 E100.88349
G0 F9000 X133.84 Y139.087
G1 F1800 X142.616 Y135.893 E101.02257
G0 F9000 X141.447 Y135.893
G1 F1800 X133.84 Y138.661 E101.14312
G0 F9000 X133.84 Y138.235
G1 F1800 X140.277 Y135.893 E101.24512
G0 F9000 X139.108 Y135.893
G1 F1800 X133.841 Y137.81 E101.32859
G0 F9000 X133.84 Y137.384
G1 F1800 X138.019 Y135.863 E101.39482
G0 F9000 X137.552 Y135.607
G1 F1800 X133.841 Y136.958 E101.45363
G0 F9000 X133.84 Y136.533
G1 F1800 X137.293 Y135.276 E101.50835
G0 F9000 X137.129 Y134.91
G1 F1800 X133.84 Y136.107 E101.56047
G0 F9000 X133.84 Y135.682
G1 F1800 X137.129 Y134.485 E101.61259
G0 F9000 X137.129 Y134.059
G1 F1800 X133.84 Y135.256 E101.66471
G0 F9000 X133.841 Y134.83
G1 F1800 X137.129 Y133.633 E101.71682
G0 F9000 X137.128 Y133.208
G1 F1800 X133.84 Y134.405 E101.76893
G0 F9000 X133.84 Y133.979
G1 F1800 X137.128 Y132.782 E101.82104
G0 F9000 X137.128 Y132.356
G1 F1800 X133.84 Y133.553 E101.87315
G0 F9000 X133.84 Y133.127
G1 F1800 X137.128 Y131.931 E101.92525
G0 F9000 X137.128 Y131.505
G1 F1800 X133.841 Y132.702 E101.97734
G0 F9000 X133.84 Y132.276
G1 F1800 X137.127 Y131.08 E102.02943
G0 F9000 X137.128 Y130.654
G1 F1800 X133.84 Y131.85 E102.08153
G0 F9000 X133.84 Y131.425
G1 F1800 X137.127 Y130.228 E102.13363
G0 F9000 X137.127 Y129.803
G1 F1800 X133.84 Y130.999 E102.18571
G0 F9000 X133.84 Y130.574
G1 F1800 X137.127 Y129.377 E102.23781
G0 F9000 X137.127 Y128.951
G1 F1800 X133.84 Y130.148 E102.2899
G0 F9000 X133.841 Y129.722
G1 F1800 X137.127 Y128.526 E102.34198
G0 F9000 X137.126 Y128.1
G1 F1800 X133.84 Y129.296 E102.39405
G0 F9000 X133.84 Y128.871
G1 F1800 X137.126 Y127.675 E102.44613
G0 F9000 X137.126 Y127.249
G1 F1800 X133.84 Y128.445 E102.4982
G0 F9000 X133.84 Y128.019
G1 F1800 X137.126 Y126.823 E102.55027
G0 F9000 X137.126 Y126.398
G1 F1800 X133.84 Y127.594 E102.60235
G0 F9000 X133.84 Y127.168
G1 F1800 X137.125 Y125.972 E102.65441
G0 F9000 X137.126 Y125.547
G1 F1800 X133.84 Y126.742 E102.70648
G0 F9000 X133.84 Y126.317
G1 F1800 X137.125 Y125.121 E102.75854
G0 F9000 X137.125 Y124.695
G1 F1800 X133.84 Y125.891 E102.8106
G0 F9000 X133.84 Y125.466
G1 F1800 X137.125 Y124.27 E102.86266
G0 F9000 X137.125 Y123.844
G1 F1800 X133.84 Y125.04 E102.91472
G0 F9000 X133.84 Y124.614
G1 F1800 X137.125 Y123.419 E102.96678
G0 F9000 X137.217 Y122.959
G1 F1800 X133.84 Y124.188 E103.02029
G0 F9000 X133.84 Y123.763
G1 F1800 X137.633 Y122.382 E103.0804
G0 F9000 X138.283 Y122.146
G1 F1800 X150.07 Y117.856 E103.2672
G0 F9000 X151.239 Y117.856
G1 F1800 X139.454 Y122.145 E103.45396
G0 F9000 X140.624 Y122.145
G1 F1800 X152.159 Y117.947 E103.63675
G0 F9000 X152.158 Y118.372
G1 F1800 X141.794 Y122.145 E103.801
G0 F9000 X142.964 Y122.145
G1 F1800 X152.158 Y118.798 E103.94671
G0 F9000 X152.159 Y119.224
G1 F1800 X144.135 Y122.144 E104.07386
G0 F9000 X145.304 Y122.144
G1 F1800 X152.158 Y119.649 E104.18248
G0 F9000 X152.159 Y120.075
G1 F1800 X146.475 Y122.144 E104.27256
G0 F9000 X147.645 Y122.143
G1 F1800 X152.158 Y120.501 E104.34408
G0 F9000 X152.158 Y120.927
G1 F1800 X148.815 Y122.143 E104.39705
G0 F9000 X149.985 Y122.143
G1 F1800 X152.159 Y121.352 E104.4315
G0 F9000 X152.158 Y121.778
G1 F1800 X151.156 Y122.143 E104.44738
G0 F9000 X148.901 Y117.855
G1 F1800 X133.84 Y123.337 E104.68606
G0 F9000 X133.84 Y122.911
G1 F1800 X147.733 Y117.855 E104.90623
G0 F9000 X146.563 Y117.855
G1 F1800 X133.84 Y122.486 E105.10785
G0 F9000 X133.84 Y122.06
G1 F1800 X145.394 Y117.855 E105.29095
G0 F9000 X144.226 Y117.854
G1 F1800 X133.84 Y121.634 E105.45554
G0 F9000 X133.84 Y121.209
G1 F1800 X143.056 Y117.854 E105.6016
G0 F9000 X141.888 Y117.854
G1 F1800 X133.84 Y120.783 E105.72914
G0 F9000 X133.84 Y120.357
G1 F1800 X140.719 Y117.854 E105.83815
G0 F9000 X139.55 Y117.854
G1 F1800 X133.84 Y119.932 E105.92863
G0 F9000 X133.84 Y119.506
G1 F1800 X138.381 Y117.853 E106.0006
G0 F9000 X137.7 Y117.675
G1 F1800 X133.84 Y119.08 E106.06177
G0 F9000 X133.84 Y118.655
G1 F1800 X137.364 Y117.372 E106.11762
G0 F9000 X137.205 Y117.004
G1 F1800 X133.84 Y118.229 E106.17094
G0 F9000 X133.84 Y117.803
G1 F1800 X137.13 Y116.606 E106.22308
G0 F9000 X137.129 Y116.18
G1 F1800 X133.84 Y117.378 E106.27521
G0 F9000 X133.84 Y116.952
G1 F1800 X137.13 Y115.755 E106.32734
G0 F9000 X137.129 Y115.329
G1 F1800 X133.84 Y116.526 E106.37946
G0 F9000 X133.84 Y116.101
G1 F1800 X137.13 Y114.903 E106.4316
G0 F9000 X137.129 Y114.478
G1 F1800 X133.84 Y115.675 E106.48373
G0 F9000 X133.84 Y115.249
G1 F1800 X137.129 Y114.052 E106.53585
G0 F9000 X137.129 Y113.627
G1 F1800 X133.84 Y114.824 E106.58797
G0 F9000 X133.839 Y114.398
G1 F1800 X137.128 Y113.201 E106.64009
G0 F9000 X137.129 Y112.775
G1 F1800 X133.84 Y113.972 E106.69221
G0 F9000 X133.84 Y113.547
G1 F1800 X137.128 Y112.35 E106.74432
G0 F9000 X137.129 Y111.924
G1 F1800 X133.84 Y113.121 E106.79644
G0 F9000 X133.84 Y112.695
G1 F1800 X137.128 Y111.499 E106.84854
G0 F9000 X137.128 Y111.073
G1 F1800 X133.84 Y112.27 E106.90065
G0 F9000 X133.84 Y111.844
G1 F1800 X137.128 Y110.647 E106.95276
G0 F9000 X137.128 Y110.221
G1 F1800 X133.84 Y111.418 E107.00487
G0 F9000 X133.84 Y110.993
G1 F1800 X137.128 Y109.796 E107.05697
G0 F9000 X137.127 Y109.371
G1 F1800 X133.84 Y110.567 E107.10906
G0 F9000 X133.84 Y110.141
G1 F1800 X137.128 Y108.945 E107.16117
G0 F9000 X137.127 Y108.519
G1 F1800 X133.84 Y109.716 E107.21326
G0 F9000 X133.839 Y109.29
G1 F1800 X137.127 Y108.093 E107.26537
G0 F9000 X137.127 Y107.668
G1 F1800 X133.84 Y108.864 E107.31746
G0 F9000 X133.84 Y108.439
G1 F1800 X137.127 Y107.242 E107.36955
G0 F9000 X137.127 Y106.817
G1 F1800 X133.84 Y108.013 E107.42164
G0 F9000 X133.84 Y107.587
G1 F1800 X137.127 Y106.391 E107.47373
G0 F9000 X137.126 Y105.965
G1 F1800 X133.839 Y107.162 E107.52582
G0 F9000 X133.84 Y106.736
G1 F1800 X137.126 Y105.54 E107.57789
G0 F9000 X137.126 Y105.114
G1 F1800 X133.84 Y106.31 E107.62997
G0 F9000 X133.84 Y105.885
G1 F1800 X137.126 Y104.689 E107.68204
G0 F9000 X137.126 Y104.263
G1 F1800 X133.84 Y105.459 E107.73412
G0 F9000 X133.84 Y105.033
G1 F1800 X137.126 Y103.837 E107.78619
G0 F9000 X137.126 Y103.412
G1 F1800 X133.84 Y104.608 E107.83827
G0 F9000 X133.839 Y104.182
G1 F1800 X137.125 Y102.986 E107.89034
G0 F9000 X137.126 Y102.56
G1 F1800 X133.84 Y103.756 E107.94242
G0 F9000 X133.84 Y103.33
G1 F1800 X137.125 Y102.135 E107.99447
G0 F9000 X137.126 Y101.709
G1 F1800 X133.84 Y102.905 E108.04655
G0 F9000 X133.84 Y102.479
G1 F1800 X137.125 Y101.284 E108.0986
G0 F9000 X137.125 Y100.858
G1 F1800 X133.839 Y102.054 E108.15068
G0 F9000 X133.84 Y101.628
G1 F1800 X136.061 Y100.819 E108.18588
G0 F9000 X134.893 Y100.819
G1 F1800 X133.839 Y101.202 E108.20258
M204 S1500
G0 F9000 X133.88 Y101.202
G1 F2700 E101.70258
;MESH:NONMESH
G0 F600 X133.88 Y101.202 Z1.25
G0 F9000 X138.208 Y122.403
G1 F2700 E108.20258
G0 F9000 X138.208 Y123.103
;TIME_ELAPSED:347.056392
;LAYER:4
;TYPE:WALL-OUTER
;MESH:LETRA F.stl
G1 F1200 X152.995 Y123.103 E108.43437
G1 X153.12 Y123.032 E108.43662
G1 X153.12 Y117.019 E108.53088
G1 X153.047 Y116.897 E108.53311
G1 X138.268 Y116.897 E108.76478
G1 X138.088 Y116.789 E108.76807
G1 X138.086 Y99.982 E109.03152
G1 X138.013 Y99.86 E109.03375
G1 X132.965 Y99.86 E109.11288
G1 X132.88 Y100.009 E109.11557
G1 X132.88 Y140.018 E109.74273
G1 X132.953 Y140.14 E109.74496
G1 X152.995 Y140.14 E110.05913
G1 X153.12 Y140.069 E110.06138
G1 X153.12 Y135.056 E110.13996
G1 X153.047 Y134.933 E110.1422
G1 X138.243 Y134.933 E110.37426
G1 X138.088 Y134.768 E110.37781
G1 X138.086 Y123.263 E110.55816
G1 X138.208 Y123.103 E110.56131
G0 F9000 X138.408 Y123.103
G0 X138.408 Y122.403
G0 X137.386 Y117.023
G0 X137.781 Y117.023
;TYPE:WALL-INNER
G1 F1800 X137.686 Y116.697 E110.56664
G1 X137.686 Y100.26 E110.82429
G1 X133.28 Y100.26 E110.89336
G1 X133.28 Y139.74 E111.51223
G1 X152.72 Y139.74 E111.81696
G1 X152.72 Y135.334 E111.88602
G1 X138.286 Y135.333 E112.11228
G1 X137.978 Y135.249 E112.11729
G1 X137.77 Y135.041 E112.1219
G1 X137.686 Y134.733 E112.1269
G1 X137.686 Y123.183 E112.30795
G1 X137.781 Y122.977 E112.31151
G1 X137.995 Y122.778 E112.31609
G1 X138.233 Y122.705 E112.31999
G1 X152.72 Y122.703 E112.54708
G1 X152.72 Y117.297 E112.63183
G1 X138.233 Y117.295 E112.85892
G1 X137.995 Y117.222 E112.86282
G1 X137.781 Y117.023 E112.8674
M204 S1000
G0 F9000 X137.386 Y117.023
G0 X137.386 Y122.784
G0 X137.478 Y122.784
;TYPE:SKIN
G1 F1800 X137.841 Y122.453 E112.87471
G1 X138.197 Y122.345 E112.88025
G1 X152.36 Y122.343 E113.09117
G1 X152.36 Y117.657 E113.16095
G1 X138.197 Y117.655 E113.37186
G1 X137.841 Y117.547 E113.3774
G1 X137.476 Y117.213 E113.38477
G1 X137.328 Y116.734 E113.39223
G1 X137.326 Y100.62 E113.6322
G1 X133.64 Y100.62 E113.68709
G1 X133.641 Y139.379 E114.26428
G1 X152.36 Y139.38 E114.54303
G1 X152.36 Y137.537 E114.57048
G1 X152.36 Y135.694 E114.59792
G1 X138.129 Y135.694 E114.80985
G1 X137.606 Y135.413 E114.81869
G1 X137.328 Y134.923 E114.82708
G1 X137.326 Y123.281 E115.00045
G1 X137.478 Y122.784 E115.00819
G1 F2700 E108.50819
G0 F9000 X137.386 Y122.784
G0 X152.003 Y117.857
G1 F2700 E115.00819
G1 F1800 X152.159 Y118.286 E115.01498
G0 F9000 X151.577 Y117.856
G1 F1800 X152.159 Y119.456 E115.04034
G0 F9000 X152.159 Y120.625
G1 F1800 X151.151 Y117.857 E115.08421
G0 F9000 X150.726 Y117.856
G1 F1800 X152.159 Y121.796 E115.14664
G0 F9000 X151.86 Y122.142
G1 F1800 X150.3 Y117.856 E115.21456
G0 F9000 X149.874 Y117.857
G1 F1800 X151.434 Y122.142 E115.28247
G0 F9000 X151.008 Y122.142
G1 F1800 X149.448 Y117.856 E115.35039
G0 F9000 X149.023 Y117.856
G1 F1800 X150.583 Y122.143 E115.41833
G0 F9000 X150.157 Y122.142
G1 F1800 X148.597 Y117.856 E115.48625
G0 F9000 X148.171 Y117.856
G1 F1800 X149.732 Y122.143 E115.55419
G0 F9000 X149.306 Y122.142
G1 F1800 X147.746 Y117.856 E115.62211
G0 F9000 X147.32 Y117.856
G1 F1800 X148.88 Y122.143 E115.69005
G0 F9000 X148.455 Y122.143
G1 F1800 X146.894 Y117.856 E115.75799
G0 F9000 X146.468 Y117.855
G1 F1800 X148.029 Y122.143 E115.82595
G0 F9000 X147.603 Y122.143
G1 F1800 X146.043 Y117.855 E115.8939
G0 F9000 X145.617 Y117.855
G1 F1800 X147.178 Y122.143 E115.96185
G0 F9000 X146.752 Y122.143
G1 F1800 X145.191 Y117.855 E116.02981
G0 F9000 X144.766 Y117.855
G1 F1800 X146.327 Y122.143 E116.09776
G0 F9000 X145.901 Y122.143
G1 F1800 X144.34 Y117.855 E116.16572
G0 F9000 X143.914 Y117.855
G1 F1800 X145.475 Y122.144 E116.23369
G0 F9000 X145.049 Y122.143
G1 F1800 X143.488 Y117.854 E116.30166
G0 F9000 X143.063 Y117.855
G1 F1800 X144.624 Y122.144 E116.36963
G0 F9000 X144.198 Y122.143
G1 F1800 X142.637 Y117.855 E116.43758
G0 F9000 X142.211 Y117.854
G1 F1800 X143.773 Y122.144 E116.50557
G0 F9000 X143.347 Y122.144
G1 F1800 X141.786 Y117.855 E116.57354
G0 F9000 X141.36 Y117.854
G1 F1800 X142.921 Y122.144 E116.64152
G0 F9000 X142.496 Y122.144
G1 F1800 X140.934 Y117.854 E116.70951
G0 F9000 X140.509 Y117.855
G1 F1800 X142.07 Y122.144 E116.77748
G0 F9000 X141.644 Y122.144
G1 F1800 X140.083 Y117.854 E116.84546
G0 F9000 X139.657 Y117.854
G1 F1800 X141.219 Y122.144 E116.91345
G0 F9000 X140.793 Y122.144
G1 F1800 X139.232 Y117.854 E116.98143
G0 F9000 X138.806 Y117.854
G1 F1800 X140.368 Y122.145 E117.04944
G0 F9000 X139.942 Y122.144
G1 F1800 X138.38 Y117.854 E117.11742
G0 F9000 X137.928 Y117.78
G1 F1800 X139.516 Y122.145 E117.18659
G0 F9000 X139.09 Y122.144
G1 F1800 X137.349 Y117.359 E117.26242
G0 F9000 X137.13 Y116.759
G1 F1800 X133.839 Y107.716 E117.40573
G0 F9000 X133.839 Y106.547
G1 F1800 X137.13 Y115.589 E117.54902
G0 F9000 X137.13 Y114.418
G1 F1800 X133.839 Y105.377 E117.6923
G0 F9000 X133.839 Y104.208
G1 F1800 X137.129 Y113.248 E117.83556
G0 F9000 X137.129 Y112.077
G1 F1800 X133.839 Y103.038 E117.9788
G0 F9000 X133.839 Y101.869
G1 F1800 X137.129 Y110.907 E118.12203
G0 F9000 X137.128 Y109.736
G1 F1800 X133.883 Y100.819 E118.26334
G0 F9000 X134.309 Y100.82
G1 F1800 X137.128 Y108.566 E118.38609
G0 F9000 X137.128 Y107.395
G1 F1800 X134.734 Y100.82 E118.49029
G0 F9000 X135.16 Y100.82
G1 F1800 X137.127 Y106.225 E118.57595
G0 F9000 X137.127 Y105.054
G1 F1800 X135.586 Y100.82 E118.64305
G0 F9000 X136.011 Y100.819
G1 F1800 X137.127 Y103.884 E118.69162
G0 F9000 X137.126 Y102.713
G1 F1800 X136.437 Y100.82 E118.72162
G0 F9000 X136.863 Y100.82
G1 F1800 X137.126 Y101.543 E118.73308
G0 F9000 X133.839 Y108.886
G1 F1800 X138.665 Y122.145 E118.9432
G0 F9000 X138.239 Y122.145
G1 F1800 X133.839 Y110.055 E119.13479
G0 F9000 X133.839 Y111.225
G1 F1800 X137.849 Y122.241 E119.30937
G0 F9000 X137.514 Y122.491
G1 F1800 X133.839 Y112.394 E119.46938
G0 F9000 X133.839 Y113.564
G1 F1800 X137.237 Y122.899 E119.61732
G0 F9000 X137.126 Y123.763
G1 F1800 X133.839 Y114.734 E119.76041
G0 F9000 X133.839 Y115.903
G1 F1800 X137.126 Y124.933 E119.90351
G0 F9000 X137.126 Y126.104
G1 F1800 X133.839 Y117.074 E120.04661
G0 F9000 X133.839 Y118.243
G1 F1800 X137.127 Y127.274 E120.18974
G0 F9000 X137.127 Y128.446
G1 F1800 X133.839 Y119.413 E120.33289
G0 F9000 X133.839 Y120.582
G1 F1800 X137.128 Y129.616 E120.47606
G0 F9000 X137.128 Y130.787
G1 F1800 X133.839 Y121.752 E120.61924
G0 F9000 X133.839 Y122.921
G1 F1800 X137.129 Y131.958 E120.76246
G0 F9000 X137.129 Y133.129
G1 F1800 X133.839 Y124.091 E120.90569
G0 F9000 X133.839 Y125.26
G1 F1800 X137.129 Y134.299 E121.04894
G0 F9000 X137.458 Y135.561
G0 X137.622 Y135.651
G1 F1800 X138.905 Y139.178 E121.10483
G0 F9000 X138.48 Y139.179
G1 F1800 X133.839 Y126.43 E121.30687
G0 F9000 X133.84 Y127.599
G1 F1800 X138.054 Y139.178 E121.49036
G0 F9000 X137.628 Y139.178
G1 F1800 X133.84 Y128.769 E121.65532
G0 F9000 X133.84 Y129.938
G1 F1800 X137.203 Y139.178 E121.80175
G0 F9000 X136.777 Y139.178
G1 F1800 X133.84 Y131.108 E121.92963
G0 F9000 X133.84 Y132.277
G1 F1800 X136.351 Y139.179 E122.03901
G0 F9000 X135.925 Y139.178
G1 F1800 X133.84 Y133.447 E122.12982
G0 F9000 X133.84 Y134.616
G1 F1800 X135.5 Y139.178 E122.20212
G0 F9000 X135.074 Y139.178
G1 F1800 X133.84 Y135.786 E122.25587
G0 F9000 X133.84 Y136.956
G1 F1800 X134.648 Y139.178 E122.29108
G0 F9000 X134.223 Y139.178
G1 F1800 X133.84 Y138.125 E122.30776
G0 F9000 X138.135 Y135.893
G1 F1800 X139.331 Y139.178 E122.35982
G0 F9000 X139.756 Y139.178
G1 F1800 X138.561 Y135.894 E122.41187
G0 F9000 X138.987 Y135.893
G1 F1800 X140.182 Y139.178 E122.46392
G0 F9000 X140.608 Y139.179
G1 F1800 X139.412 Y135.893 E122.516
G0 F9000 X139.838 Y135.893
G1 F1800 X141.034 Y139.178 E122.56806
G0 F9000 X141.459 Y139.178
G1 F1800 X140.264 Y135.893 E122.62011
G0 F9000 X140.689 Y135.894
G1 F1800 X141.885 Y139.178 E122.67216
G0 F9000 X142.311 Y139.178
G1 F1800 X141.115 Y135.893 E122.72422
G0 F9000 X141.541 Y135.894
G1 F1800 X142.736 Y139.179 E122.77627
G0 F9000 X143.162 Y139.178
G1 F1800 X141.966 Y135.893 E122.82833
G0 F9000 X142.392 Y135.893
G1 F1800 X143.588 Y139.179 E122.88041
G0 F9000 X144.013 Y139.178
G1 F1800 X142.818 Y135.894 E122.93245
G0 F9000 X143.243 Y135.893
G1 F1800 X144.439 Y139.178 E122.98451
G0 F9000 X144.865 Y139.179
G1 F1800 X143.669 Y135.894 E123.03657
G0 F9000 X144.095 Y135.893
G1 F1800 X145.29 Y139.178 E123.08863
G0 F9000 X145.716 Y139.179
G1 F1800 X144.52 Y135.893 E123.1407
G0 F9000 X144.946 Y135.893
G1 F1800 X146.142 Y139.178 E123.19276
G0 F9000 X146.567 Y139.178
G1 F1800 X145.372 Y135.893 E123.24482
G0 F9000 X145.797 Y135.894
G1 F1800 X146.993 Y139.179 E123.29688
G0 F9000 X147.419 Y139.178
G1 F1800 X146.223 Y135.893 E123.34894
G0 F9000 X146.649 Y135.893
G1 F1800 X147.844 Y139.179 E123.40101
G0 F9000 X148.27 Y139.178
G1 F1800 X147.074 Y135.893 E123.45307
G0 F9000 X147.5 Y135.893
G1 F1800 X148.696 Y139.178 E123.50513
G0 F9000 X149.122 Y139.179
G1 F1800 X147.926 Y135.894 E123.55719
G0 F9000 X148.351 Y135.893
G1 F1800 X149.547 Y139.178 E123.60925
G0 F9000 X149.973 Y139.179
G1 F1800 X148.777 Y135.894 E123.66131
G0 F9000 X149.203 Y135.893
G1 F1800 X150.398 Y139.178 E123.71337
G0 F9000 X150.824 Y139.179
G1 F1800 X149.628 Y135.893 E123.76544
G0 F9000 X150.054 Y135.894
G1 F1800 X151.25 Y139.179 E123.8175
G0 F9000 X151.675 Y139.178
G1 F1800 X150.48 Y135.893 E123.86956
G0 F9000 X150.906 Y135.894
G1 F1800 X152.101 Y139.179 E123.92161
G0 F9000 X152.159 Y138.168
G1 F1800 X151.331 Y135.893 E123.95766
G0 F9000 X151.757 Y135.893
G1 F1800 X152.159 Y136.998 E123.97518
M204 S1500
G0 F9000 X152.12 Y136.998
G1 F2700 E117.47518
;MESH:NONMESH
G0 F600 X152.12 Y136.998 Z1.5
G0 F9000 X137.458 Y135.561
G0 X137.458 Y122.475
G1 F2700 E123.97518
G0 F9000 X138.208 Y123.103
;TIME_ELAPSED:391.386510
;LAYER:5
;TYPE:WALL-OUTER
;MESH:LETRA F.stl
G1 F1200 X152.995 Y123.103 E124.20697
G1 X153.12 Y123.032 E124.20922
G1 X153.12 Y117.019 E124.30348
G1 X153.047 Y116.897 E124.30571
G1 X138.268 Y116.897 E124.53737
G1 X138.088 Y116.789 E124.54067
G1 X138.086 Y99.982 E124.80412
G1 X138.013 Y99.86 E124.80635
G1 X132.965 Y99.86 E124.88548
G1 X132.88 Y100.009 E124.88817
G1 X132.88 Y140.018 E125.51533
G1 X132.953 Y140.14 E125.51756
G1 X152.995 Y140.14 E125.83173
G1 X153.12 Y140.069 E125.83398
G1 X153.12 Y135.056 E125.91256
G1 X153.047 Y134.933 E125.9148
G1 X138.243 Y134.933 E126.14686
G1 X138.088 Y134.768 E126.15041
G1 X138.086 Y123.263 E126.33076
G1 X138.208 Y123.103 E126.33391
G0 F9000 X138.408 Y123.103
G0 X138.408 Y122.403
G0 X137.386 Y117.023
G0 X137.781 Y117.023
;TYPE:WALL-INNER
G1 F1800 X137.686 Y116.697 E126.33923
G1 X137.686 Y100.26 E126.59689
G1 X133.28 Y100.26 E126.66596
G1 X133.28 Y139.74 E127.28482
G1 X152.72 Y139.74 E127.58956
G1 X152.72 Y135.334 E127.65862
G1 X138.286 Y135.333 E127.88488
G1 X137.978 Y135.249 E127.88989
G1 X137.77 Y135.041 E127.8945
G1 X137.686 Y134.733 E127.8995
G1 X137.686 Y123.183 E128.08055
G1 X137.781 Y122.977 E128.08411
G1 X137.995 Y122.778 E128.08869
G1 X138.233 Y122.705 E128.09259
G1 X152.72 Y122.703 E128.31968
G1 X152.72 Y117.297 E128.40442
G1 X138.233 Y117.295 E128.63151
G1 X137.995 Y117.222 E128.63542
G1 X137.781 Y117.023 E128.64
M204 S1000
G0 F9000 X137.386 Y117.023
G0 X137.386 Y122.784
G0 X137.478 Y122.784
;TYPE:SKIN
G1 F1800 X137.841 Y122.453 E128.64731
G1 X138.197 Y122.345 E128.65285
G1 X152.36 Y122.343 E128.86376
G1 X152.36 Y117.657 E128.93355
G1 X138.197 Y117.655 E129.14446
G1 X137.841 Y117.547 E129.15
G1 X137.476 Y117.213 E129.15737
G1 X137.328 Y116.734 E129.16483
G1 X137.326 Y100.62 E129.4048
G1 X133.64 Y100.62 E129.45969
G1 X133.641 Y139.379 E130.03687
G1 X152.36 Y139.38 E130.31563
G1 X152.36 Y137.537 E130.34308
G1 X152.36 Y135.694 E130.37052
G1 X138.129 Y135.694 E130.58245
G1 X137.606 Y135.413 E130.59129
G1 X137.328 Y134.923 E130.59968
G1 X137.326 Y123.281 E130.77305
G1 X137.478 Y122.784 E130.78079
G1 F2700 E124.28079
G0 F9000 X137.386 Y122.784
G0 X137.458 Y135.561
G0 X152.159 Y138.805
G1 F2700 E130.78079
G1 F1800 X151.129 Y139.179 E130.7971
G0 F9000 X149.96 Y139.179
G1 F1800 X152.158 Y138.379 E130.83194
G0 F9000 X152.159 Y137.953
G1 F1800 X148.791 Y139.179 E130.88531
G0 F9000 X147.621 Y139.179
G1 F1800 X152.158 Y137.528 E130.95721
G0 F9000 X152.158 Y137.102
G1 F1800 X146.452 Y139.179 E131.04764
G0 F9000 X145.282 Y139.179
G1 F1800 X152.159 Y136.676 E131.15662
G0 F9000 X152.158 Y136.251
G1 F1800 X144.113 Y139.179 E131.28411
G0 F9000 X142.943 Y139.179
G1 F1800 X151.973 Y135.893 E131.42721
G0 F9000 X150.803 Y135.893
G1 F1800 X141.773 Y139.179 E131.57031
G0 F9000 X140.605 Y139.179
G1 F1800 X149.633 Y135.893 E131.71338
G0 F9000 X148.464 Y135.893
G1 F1800 X139.435 Y139.179 E131.85646
G0 F9000 X138.266 Y139.179
G1 F1800 X147.294 Y135.893 E131.99953
G0 F9000 X146.125 Y135.893
G1 F1800 X137.096 Y139.179 E132.14262
G0 F9000 X135.927 Y139.179
G1 F1800 X144.955 Y135.893 E132.28569
G0 F9000 X143.786 Y135.893
G1 F1800 X134.757 Y139.179 E132.42877
G0 F9000 X133.84 Y139.087
G1 F1800 X142.616 Y135.893 E132.56785
G0 F9000 X141.447 Y135.893
G1 F1800 X133.84 Y138.661 E132.6884
G0 F9000 X133.84 Y138.235
G1 F1800 X140.277 Y135.893 E132.7904
G0 F9000 X139.108 Y135.893
G1 F1800 X133.841 Y137.81 E132.87387
G0 F9000 X133.84 Y137.384
G1 F1800 X138.019 Y135.863 E132.9401
G0 F9000 X137.552 Y135.607
G1 F1800 X133.841 Y136.958 E132.99891
G0 F9000 X133.84 Y136.533
G1 F1800 X137.293 Y135.276 E133.05363
G0 F9000 X137.129 Y134.91
G1 F1800 X133.84 Y136.107 E133.10575
G0 F9000 X133.84 Y135.682
G1 F1800 X137.129 Y134.485 E133.15787
G0 F9000 X137.129 Y134.059
G1 F1800 X133.84 Y135.256 E133.20999
G0 F9000 X133.841 Y134.83
G1 F1800 X137.129 Y133.633 E133.2621
G0 F9000 X137.128 Y133.208
G1 F1800 X133.84 Y134.405 E133.31421
G0 F9000 X133.84 Y133.979
G1 F1800 X137.128 Y132.782 E133.36632
G0 F9000 X137.128 Y132.356
G1 F1800 X133.84 Y133.553 E133.41843
G0 F9000 X133.84 Y133.127
G1 F1800 X137.128 Y131.931 E133.47053
G0 F9000 X137.128 Y131.505
G1 F1800 X133.841 Y132.702 E133.52262
G0 F9000 X133.84 Y132.276
G1 F1800 X137.127 Y131.08 E133.57471
G0 F9000 X137.128 Y130.654
G1 F1800 X133.84 Y131.85 E133.62681
G0 F9000 X133.84 Y131.425
G1 F1800 X137.127 Y130.228 E133.67891
G0 F9000 X137.127 Y129.803
G1 F1800 X133.84 Y130.999 E133.73099
G0 F9000 X133.84 Y130.574
G1 F1800 X137.127 Y129.377 E133.78309
G0 F9000 X137.127 Y128.951
G1 F1800 X133.84 Y130.148 E133.83518
G0 F9000 X133.841 Y129.722
G1 F1800 X137.127 Y128.526 E133.88726
G0 F9000 X137.126 Y128.1
G1 F1800 X133.84 Y129.296 E133.93933
G0 F9000 X133.84 Y128.871
G1 F1800 X137.126 Y127.675 E133.99141
G0 F9000 X137.126 Y127.249
G1 F1800 X133.84 Y128.445 E134.04348
G0 F9000 X133.84 Y128.019
G1 F1800 X137.126 Y126.823 E134.09555
G0 F9000 X137.126 Y126.398
G1 F1800 X133.84 Y127.594 E134.14763
G0 F9000 X133.84 Y127.168
G1 F1800 X137.125 Y125.972 E134.19969
G0 F9000 X137.126 Y125.547
G1 F1800 X133.84 Y126.742 E134.25176
G0 F9000 X133.84 Y126.317
G1 F1800 X137.125 Y125.121 E134.30382
G0 F9000 X137.125 Y124.695
G1 F1800 X133.84 Y125.891 E134.35588
G0 F9000 X133.84 Y125.466
G1 F1800 X137.125 Y124.27 E134.40794
G0 F9000 X137.125 Y123.844
G1 F1800 X133.84 Y125.04 E134.46
G0 F9000 X133.84 Y124.614
G1 F1800 X137.125 Y123.419 E134.51206
G0 F9000 X137.217 Y122.959
G1 F1800 X133.84 Y124.188 E134.56557
G0 F9000 X133.84 Y123.763
G1 F1800 X137.633 Y122.382 E134.62568
G0 F9000 X138.283 Y122.146
G1 F1800 X150.07 Y117.856 E134.81248
G0 F9000 X151.239 Y117.856
G1 F1800 X139.454 Y122.145 E134.99924
G0 F9000 X140.624 Y122.145
G1 F1800 X152.159 Y117.947 E135.18203
G0 F9000 X152.158 Y118.372
G1 F1800 X141.794 Y122.145 E135.34628
G0 F9000 X142.964 Y122.145
G1 F1800 X152.158 Y118.798 E135.49199
G0 F9000 X152.159 Y119.224
G1 F1800 X144.135 Y122.144 E135.61914
G0 F9000 X145.304 Y122.144
G1 F1800 X152.158 Y119.649 E135.72776
G0 F9000 X152.159 Y120.075
G1 F1800 X146.475 Y122.144 E135.81784
G0 F9000 X147.645 Y122.143
G1 F1800 X152.158 Y120.501 E135.88936
G0 F9000 X152.158 Y120.927
G1 F1800 X148.815 Y122.143 E135.94233
G0 F9000 X149.985 Y122.143
G1 F1800 X152.159 Y121.352 E135.97678
G0 F9000 X152.158 Y121.778
G1 F1800 X151.156 Y122.143 E135.99266
G0 F9000 X148.901 Y117.855
G1 F1800 X133.84 Y123.337 E136.23134
G0 F9000 X133.84 Y122.911
G1 F1800 X147.733 Y117.855 E136.45151
G0 F9000 X146.563 Y117.855
G1 F1800 X133.84 Y122.486 E136.65313
G0 F9000 X133.84 Y122.06
G1 F1800 X145.394 Y117.855 E136.83623
G0 F9000 X144.226 Y117.854
G1 F1800 X133.84 Y121.634 E137.00082
G0 F9000 X133.84 Y121.209
G1 F1800 X143.056 Y117.854 E137.14688
G0 F9000 X141.888 Y117.854
G1 F1800 X133.84 Y120.783 E137.27441
G0 F9000 X133.84 Y120.357
G1 F1800 X140.719 Y117.854 E137.38343
G0 F9000 X139.55 Y117.854
G1 F1800 X133.84 Y119.932 E137.47391
G0 F9000 X133.84 Y119.506
G1 F1800 X138.381 Y117.853 E137.54588
G0 F9000 X137.7 Y117.675
G1 F1800 X133.84 Y119.08 E137.60705
G0 F9000 X133.84 Y118.655
G1 F1800 X137.364 Y117.372 E137.6629
G0 F9000 X137.205 Y117.004
G1 F1800 X133.84 Y118.229 E137.71622
G0 F9000 X133.84 Y117.803
G1 F1800 X137.13 Y116.606 E137.76836
G0 F9000 X137.129 Y116.18
G1 F1800 X133.84 Y117.378 E137.82049
G0 F9000 X133.84 Y116.952
G1 F1800 X137.13 Y115.755 E137.87262
G0 F9000 X137.129 Y115.329
G1 F1800 X133.84 Y116.526 E137.92474
G0 F9000 X133.84 Y116.101
G1 F1800 X137.13 Y114.903 E137.97688
G0 F9000 X137.129 Y114.478
G1 F1800 X133.84 Y115.675 E138.02901
G0 F9000 X133.84 Y115.249
G1 F1800 X137.129 Y114.052 E138.08113
G0 F9000 X137.129 Y113.627
G1 F1800 X133.84 Y114.824 E138.13325
G0 F9000 X133.839 Y114.398
G1 F1800 X137.128 Y113.201 E138.18537
G0 F9000 X137.129 Y112.775
G1 F1800 X133.84 Y113.972 E138.23749
G0 F9000 X133.84 Y113.547
G1 F1800 X137.128 Y112.35 E138.2896
G0 F9000 X137.129 Y111.924
G1 F1800 X133.84 Y113.121 E138.34172
G0 F9000 X133.84 Y112.695
G1 F1800 X137.128 Y111.499 E138.39382
G0 F9000 X137.128 Y111.073
G1 F1800 X133.84 Y112.27 E138.44593
G0 F9000 X133.84 Y111.844
G1 F1800 X137.128 Y110.647 E138.49804
G0 F9000 X137.128 Y110.221
G1 F1800 X133.84 Y111.418 E138.55015
G0 F9000 X133.84 Y110.993
G1 F1800 X137.128 Y109.796 E138.60225
G0 F9000 X137.127 Y109.371
G1 F1800 X133.84 Y110.567 E138.65434
G0 F9000 X133.84 Y110.141
G1 F1800 X137.128 Y108.945 E138.70645
G0 F9000 X137.127 Y108.519
G1 F1800 X133.84 Y109.716 E138.75854
G0 F9000 X133.839 Y109.29
G1 F1800 X137.127 Y108.093 E138.81065
G0 F9000 X137.127 Y107.668
G1 F1800 X133.84 Y108.864 E138.86274
G0 F9000 X133.84 Y108.439
G1 F1800 X137.127 Y107.242 E138.91483
G0 F9000 X137.127 Y106.817
G1 F1800 X133.84 Y108.013 E138.96692
G0 F9000 X133.84 Y107.587
G1 F1800 X137.127 Y106.391 E139.01901
G0 F9000 X137.126 Y105.965
G1 F1800 X133.839 Y107.162 E139.0711
G0 F9000 X133.84 Y106.736
G1 F1800 X137.126 Y105.54 E139.12317
G0 F9000 X137.126 Y105.114
G1 F1800 X133.84 Y106.31 E139.17525
G0 F9000 X133.84 Y105.885
G1 F1800 X137.126 Y104.689 E139.22732
G0 F9000 X137.126 Y104.263
G1 F1800 X133.84 Y105.459 E139.2794
G0 F9000 X133.84 Y105.033
G1 F1800 X137.126 Y103.837 E139.33147
G0 F9000 X137.126 Y103.412
G1 F1800 X133.84 Y104.608 E139.38355
G0 F9000 X133.839 Y104.182
G1 F1800 X137.125 Y102.986 E139.43562
G0 F9000 X137.126 Y102.56
G1 F1800 X133.84 Y103.756 E139.4877
G0 F9000 X133.84 Y103.33
G1 F1800 X137.125 Y102.135 E139.53975
G0 F9000 X137.126 Y101.709
G1 F1800 X133.84 Y102.905 E139.59183
G0 F9000 X133.84 Y102.479
G1 F1800 X137.125 Y101.284 E139.64388
G0 F9000 X137.125 Y100.858
G1 F1800 X133.839 Y102.054 E139.69596
G0 F9000 X133.84 Y101.628
G1 F1800 X136.061 Y100.819 E139.73116
G0 F9000 X134.893 Y100.819
G1 F1800 X133.839 Y101.202 E139.74786
M204 S1500
G0 F9000 X133.88 Y101.202
G1 F2700 E133.24786
;MESH:NONMESH
G0 F600 X133.88 Y101.202 Z1.75
G0 F9000 X138.208 Y122.403
G1 F2700 E139.74786
G0 F9000 X138.208 Y123.103
;TIME_ELAPSED:435.871991
;LAYER:6
;TYPE:WALL-OUTER
;MESH:LETRA F.stl
G1 F1200 X152.995 Y123.103 E139.97965
G1 X153.12 Y123.032 E139.9819
G1 X153.12 Y117.019 E140.07616
G1 X153.047 Y116.897 E140.07839
G1 X138.268 Y116.897 E140.31006
G1 X138.088 Y116.789 E140.31335
G1 X138.086 Y99.982 E140.5768
G1 X138.013 Y99.86 E140.57903
G1 X132.965 Y99.86 E140.65816
G1 X132.88 Y100.009 E140.66085
G1 X132.88 Y140.018 E141.28801
G1 X132.953 Y140.14 E141.29024
G1 X152.995 Y140.14 E141.60441
G1 X153.12 Y140.069 E141.60666
G1 X153.12 Y135.056 E141.68524
G1 X153.047 Y134.933 E141.68748
G1 X138.243 Y134.933 E141.91954
G1 X138.088 Y134.768 E141.92309
G1 X138.086 Y123.263 E142.10344
G1 X138.208 Y123.103 E142.10659
G0 F9000 X138.408 Y123.103
G0 X138.408 Y122.403
G0 X137.386 Y117.023
G0 X137.781 Y117.023
;TYPE:WALL-INNER
G1 F1800 X137.686 Y116.697 E142.11192
G1 X137.686 Y100.26 E142.36957
G1 X133.28 Y100.26 E142.43864
G1 X133.28 Y139.74 E143.05751
G1 X152.72 Y139.74 E143.36224
G1 X152.72 Y135.334 E143.4313
G1 X138.286 Y135.333 E143.65756
G1 X137.978 Y135.249 E143.66257
G1 X137.77 Y135.041 E143.66718
G1 X137.686 Y134.733 E143.67218
G1 X137.686 Y123.183 E143.85323
G1 X137.781 Y122.977 E143.85679
G1 X137.995 Y122.778 E143.86137
G1 X138.233 Y122.705 E143.86527
G1 X152.72 Y122.703 E144.09236
G1 X152.72 Y117.297 E144.17711
G1 X138.233 Y117.295 E144.4042
G1 X137.995 Y117.222 E144.4081
G1 X137.781 Y117.023 E144.41268
M204 S1000
G0 F9000 X137.386 Y117.023
G0 X137.386 Y122.784
G0 X137.478 Y122.784
;TYPE:SKIN
G1 F1800 X137.841 Y122.453 E144.41999
G1 X138.197 Y122.345 E144.42553
G1 X152.36 Y122.343 E144.63645
G1 X152.36 Y117.657 E144.70623
G1 X138.197 Y117.655 E144.91714
G1 X137.841 Y117.547 E144.92268
G1 X137.476 Y117.213 E144.93005
G1 X137.328 Y116.734 E144.93751
G1 X137.326 Y100.62 E145.17748
G1 X133.64 Y100.62 E145.23237
G1 X133.641 Y139.379 E145.80956
G1 X152.36 Y139.38 E146.08831
G1 X152.36 Y137.537 E146.11576
G1 X152.36 Y135.694 E146.1432
G1 X138.129 Y135.694 E146.35513
G1 X137.606 Y135.413 E146.36397
G1 X137.328 Y134.923 E146.37236
G1 X137.326 Y123.281 E146.54573
G1 X137.478 Y122.784 E146.55347
G1 F2700 E140.05347
G0 F9000 X137.386 Y122.784
G0 X152.003 Y117.857
G1 F2700 E146.55347
G1 F1800 X152.159 Y118.286 E146.56026
G0 F9000 X151.577 Y117.856
G1 F1800 X152.159 Y119.456 E146.58562
G0 F9000 X152.159 Y120.625
G1 F1800 X151.151 Y117.857 E146.62949
G0 F9000 X150.726 Y117.856
G1 F1800 X152.159 Y121.796 E146.69192
G0 F9000 X151.86 Y122.142
G1 F1800 X150.3 Y117.856 E146.75984
G0 F9000 X149.874 Y117.857
G1 F1800 X151.434 Y122.142 E146.82775
G0 F9000 X151.008 Y122.142
G1 F1800 X149.448 Y117.856 E146.89567
G0 F9000 X149.023 Y117.856
G1 F1800 X150.583 Y122.143 E146.96361
G0 F9000 X150.157 Y122.142
G1 F1800 X148.597 Y117.856 E147.03153
