;FLAVOR:Marlin
;TIME:600
;Filament used: 0.35288m
;Layer height: 0.2
;MINX:107.701
;MINY:97.7
;MINZ:0.2
;MAXX:127.3
;MAXY:137.3
;MAXZ:2
;Generated with Cura_SteamEngine 5.2.2
M140 S50
M105
M190 S50
M104 S200
M105
M109 S200
M82 ;absolute extrusion mode
; Ender 3 Custom Start G-code
G92 E0 ; Reset Extruder
G28 ; Home all axes
G1 Z2.0 F3000 ; Move Z Axis up little to prevent scratching of Heat Bed
G1 X0.1 Y20 Z0.3 F5000.0 ; Move to start position
G1 X0.1 Y200.0 Z0.3 F1500.0 E15 ; Draw the first line
G1 X0.4 Y200.0 Z0.3 F5000.0 ; Move to side a little
G1 X0.4 Y20 Z0.3 F1500.0 E30 ; Draw the second line
G92 E0 ; Reset Extruder
G1 Z2.0 F3000 ; Move Z Axis up little to prevent scratching of Heat Bed
G1 X5 Y20 Z0.3 F5000.0 ; Move over to prevent blob squish
G92 E0
G92 E0
G1 F2700 E-5
;LAYER_COUNT:10
;LAYER:0
M107
;MESH:LETRA H.stl
G0 F6000 X111.897 Y136.9 Z0.2
;TYPE:WALL-INNER
G1 F2700 E0
G1 F1200 X111.897 Y120.498 E0.54553
G1 X111.932 Y120.294 E0.55242
G1 X112.027 Y120.123 E0.55892
G1 X112.156 Y120.004 E0.56476
G1 X112.444 Y119.9 E0.57494
G1 X122.577 Y119.898 E0.91197
G1 X122.843 Y120.004 E0.92149
G1 X122.972 Y120.123 E0.92733
G1 X123.067 Y120.294 E0.93384
G1 X123.102 Y120.498 E0.94072
G1 X123.102 Y136.9 E1.48625
G1 X126.9 Y136.9 E1.61258
G1 X126.9 Y98.1 E2.90307
G1 X123.102 Y98.1 E3.02939
G1 X123.102 Y113.577 E3.54416
G1 X122.972 Y113.878 E3.55506
G1 X122.708 Y114.067 E3.56586
G1 X122.502 Y114.104 E3.57282
G1 X112.497 Y114.104 E3.90559
G1 X112.291 Y114.067 E3.91255
G1 X112.027 Y113.878 E3.92335
G1 X111.897 Y113.577 E3.93426
G1 X111.897 Y98.101 E4.44899
G1 X108.101 Y98.101 E4.57525
G1 X108.101 Y136.9 E5.86571
G1 X111.897 Y136.9 E5.99196
G0 F6000 X112.297 Y137.3
;TYPE:WALL-OUTER
G1 F1200 X112.297 Y120.444 E6.55259
G1 X112.383 Y120.333 E6.55726
G1 X112.479 Y120.298 E6.56066
G1 X122.538 Y120.301 E6.89523
G1 X122.616 Y120.333 E6.89803
G1 X122.702 Y120.444 E6.9027
G1 X122.702 Y137.3 E7.46333
G1 X127.3 Y137.3 E7.61626
G1 X127.3 Y97.7 E8.93337
G1 X122.702 Y97.7 E9.0863
G1 X122.7 Y113.538 E9.61307
G1 X122.659 Y113.628 E9.61636
G1 X122.553 Y113.704 E9.6207
G1 X112.497 Y113.704 E9.95516
G1 X112.34 Y113.628 E9.96096
G1 X112.299 Y113.538 E9.96425
G1 X112.297 Y97.701 E10.49099
G1 X107.701 Y97.701 E10.64386
G1 X107.701 Y137.3 E11.96092
G1 X112.297 Y137.3 E12.11379
G0 F6000 X112.027 Y137.03
G0 X111.797 Y136.54
G0 X111.537 Y136.54
;TYPE:SKIN
G1 F1200 X111.539 Y120.466 E12.64841
G1 X111.59 Y120.17 E12.6584
G1 X111.729 Y119.923 E12.66783
G1 X111.926 Y119.727 E12.67707
G1 X112.173 Y119.594 E12.6864
G1 X112.414 Y119.54 E12.69462
G1 X122.629 Y119.539 E13.03437
G1 X123.012 Y119.688 E13.04804
G1 X123.232 Y119.875 E13.05764
G1 X123.409 Y120.169 E13.06905
G1 X123.46 Y120.465 E13.07904
G1 X123.462 Y136.54 E13.6137
G1 X126.54 Y136.54 E13.71608
G1 X126.54 Y99.999 E14.93143
G1 X126.54 Y98.46 E14.98262
G1 X123.462 Y98.46 E15.085
G1 X123.46 Y113.732 E15.59294
G1 X123.254 Y114.106 E15.60715
G1 X123.028 Y114.306 E15.61718
G1 X122.825 Y114.407 E15.62473
G1 X122.506 Y114.464 E15.6355
G1 X112.36 Y114.463 E15.97296
G1 X111.95 Y114.298 E15.98766
G1 X111.729 Y114.077 E15.99806
G1 X111.539 Y113.735 E16.01107
G1 X111.537 Y98.461 E16.51908
G1 X108.461 Y98.461 E16.62139
G1 X108.461 Y136.54 E17.8879
G1 X111.537 Y136.54 E17.99021
G0 F6000 X111.797 Y136.54
G0 X109.186 Y136.8
G0 X109.186 Y136.339
G1 F1200 X108.66 Y135.813 E18.01495
G0 F6000 X108.66 Y135.247
G1 F1200 X109.752 Y136.339 E18.06632
G0 F6000 X110.317 Y136.339
G1 F1200 X108.66 Y134.681 E18.14428
G0 F6000 X108.66 Y134.116
G1 F1200 X110.883 Y136.339 E18.24884
G0 F6000 X111.338 Y136.228
G1 F1200 X108.66 Y133.55 E18.37481
G0 F6000 X108.66 Y132.984
G1 F1200 X111.338 Y135.662 E18.50077
G0 F6000 X111.338 Y135.096
G1 F1200 X108.66 Y132.419 E18.62672
G0 F6000 X108.66 Y131.853
G1 F1200 X111.338 Y134.531 E18.75268
G0 F6000 X111.338 Y133.965
G1 F1200 X108.66 Y131.287 E18.87865
G0 F6000 X108.66 Y130.722
G1 F1200 X111.338 Y133.4 E19.00461
G0 F6000 X111.338 Y132.834
G1 F1200 X108.66 Y130.156 E19.13058
G0 F6000 X108.66 Y129.59
G1 F1200 X111.338 Y132.269 E19.25656
G0 F6000 X111.338 Y131.703
G1 F1200 X108.66 Y129.025 E19.38253
G0 F6000 X108.66 Y128.459
G1 F1200 X111.338 Y131.137 E19.50849
G0 F6000 X111.339 Y130.572
G1 F1200 X108.66 Y127.893 E19.63451
G0 F6000 X108.66 Y127.328
G1 F1200 X111.339 Y130.007 E19.76052
G0 F6000 X111.339 Y129.441
G1 F1200 X108.66 Y126.762 E19.88653
G0 F6000 X108.66 Y126.196
G1 F1200 X111.339 Y128.875 E20.01254
G0 F6000 X111.34 Y128.31
G1 F1200 X108.66 Y125.63 E20.1386
G0 F6000 X108.66 Y125.065
G1 F1200 X111.34 Y127.745 E20.26466
G0 F6000 X111.34 Y127.179
G1 F1200 X108.66 Y124.499 E20.39072
G0 F6000 X108.66 Y123.933
G1 F1200 X111.34 Y126.613 E20.51678
G0 F6000 X111.34 Y126.048
G1 F1200 X108.66 Y123.368 E20.64284
G0 F6000 X108.66 Y122.802
G1 F1200 X111.341 Y125.483 E20.76894
G0 F6000 X111.341 Y124.917
G1 F1200 X108.66 Y122.236 E20.89505
G0 F6000 X108.66 Y121.671
G1 F1200 X111.341 Y124.351 E21.02113
G0 F6000 X111.341 Y123.786
G1 F1200 X108.66 Y121.105 E21.14724
G0 F6000 X108.66 Y120.539
G1 F1200 X111.341 Y123.22 E21.27334
G0 F6000 X111.341 Y122.655
G1 F1200 X108.66 Y119.974 E21.39945
G0 F6000 X108.66 Y119.408
G1 F1200 X111.341 Y122.089 E21.52556
G0 F6000 X111.341 Y121.524
G1 F1200 X108.66 Y118.842 E21.65168
G0 F6000 X108.66 Y118.277
G1 F1200 X111.341 Y120.958 E21.77779
G0 F6000 X111.347 Y120.398
G1 F1200 X108.66 Y117.711 E21.90418
G0 F6000 X108.66 Y117.145
G1 F1200 X111.481 Y119.966 E22.03687
G0 F6000 X111.727 Y119.646
G1 F1200 X108.66 Y116.579 E22.18113
G0 F6000 X108.66 Y116.014
G1 F1200 X112.068 Y119.422 E22.34143
G0 F6000 X112.552 Y119.34
G1 F1200 X108.66 Y115.448 E22.5245
G0 F6000 X108.66 Y114.882
G1 F1200 X113.117 Y119.34 E22.73417
G0 F6000 X113.683 Y119.34
G1 F1200 X108.66 Y114.317 E22.97044
G0 F6000 X108.66 Y113.751
G1 F1200 X114.249 Y119.34 E23.23333
G0 F6000 X114.814 Y119.339
G1 F1200 X108.66 Y113.185 E23.52279
G0 F6000 X108.66 Y112.62
G1 F1200 X115.38 Y119.339 E23.83886
G0 F6000 X115.945 Y119.339
G1 F1200 X108.66 Y112.054 E24.18152
G0 F6000 X108.66 Y111.488
G1 F1200 X116.51 Y119.339 E24.55078
G0 F6000 X117.076 Y119.339
G1 F1200 X112.4 Y114.663 E24.77073
G0 F6000 X112.965 Y114.663
G1 F1200 X117.642 Y119.339 E24.9907
G0 F6000 X118.207 Y119.339
G1 F1200 X113.531 Y114.663 E25.21064
G0 F6000 X114.097 Y114.663
G1 F1200 X118.772 Y119.338 E25.43054
G0 F6000 X119.338 Y119.338
G1 F1200 X114.663 Y114.663 E25.65044
G0 F6000 X115.228 Y114.663
G1 F1200 X119.904 Y119.338 E25.87036
G0 F6000 X120.469 Y119.338
G1 F1200 X115.794 Y114.663 E26.09025
G0 F6000 X116.36 Y114.663
G1 F1200 X121.034 Y119.337 E26.31011
G0 F6000 X121.6 Y119.337
G1 F1200 X116.925 Y114.663 E26.52998
G0 F6000 X117.492 Y114.663
G1 F1200 X122.166 Y119.337 E26.74983
G0 F6000 X122.772 Y119.378
G1 F1200 X118.057 Y114.663 E26.97161
G0 F6000 X118.623 Y114.663
G1 F1200 X126.339 Y122.379 E27.33455
G0 F6000 X126.339 Y122.945
G1 F1200 X123.62 Y120.226 E27.46244
G0 F6000 X123.656 Y120.828
G1 F1200 X126.339 Y123.511 E27.58864
G0 F6000 X126.339 Y124.076
G1 F1200 X123.656 Y121.393 E27.71484
G0 F6000 X123.656 Y121.959
G1 F1200 X126.339 Y124.642 E27.84104
G0 F6000 X126.339 Y125.208
G1 F1200 X123.657 Y122.526 E27.96719
G0 F6000 X123.657 Y123.091
G1 F1200 X126.339 Y125.773 E28.09335
G0 F6000 X126.339 Y126.339
G1 F1200 X123.657 Y123.657 E28.2195
G0 F6000 X123.657 Y124.223
G1 F1200 X126.339 Y126.905 E28.34565
G0 F6000 X126.339 Y127.47
G1 F1200 X123.658 Y124.789 E28.47176
G0 F6000 X123.658 Y125.355
G1 F1200 X126.339 Y128.036 E28.59786
G0 F6000 X126.339 Y128.602
G1 F1200 X123.658 Y125.92 E28.72399
G0 F6000 X123.658 Y126.487
G1 F1200 X126.339 Y129.167 E28.85008
G0 F6000 X126.339 Y129.733
G1 F1200 X123.658 Y127.052 E28.97618
G0 F6000 X123.658 Y127.618
G1 F1200 X126.339 Y130.299 E29.10229
G0 F6000 X126.339 Y130.864
G1 F1200 X123.658 Y128.184 E29.22837
G0 F6000 X123.659 Y128.75
G1 F1200 X126.339 Y131.43 E29.35443
G0 F6000 X126.339 Y131.996
G1 F1200 X123.659 Y129.316 E29.48049
G0 F6000 X123.659 Y129.882
G1 F1200 X126.339 Y132.562 E29.60655
G0 F6000 X126.339 Y133.127
G1 F1200 X123.66 Y130.448 E29.73256
G0 F6000 X123.66 Y131.014
G1 F1200 X126.339 Y133.693 E29.85857
G0 F6000 X126.339 Y134.259
G1 F1200 X123.66 Y131.579 E29.98461
G0 F6000 X123.66 Y132.145
G1 F1200 X126.339 Y134.824 E30.11062
G0 F6000 X126.339 Y135.39
G1 F1200 X123.66 Y132.711 E30.23663
G0 F6000 X123.66 Y133.277
G1 F1200 X126.339 Y135.956 E30.36264
G0 F6000 X126.157 Y136.339
G1 F1200 X123.66 Y133.843 E30.48007
G0 F6000 X123.661 Y134.409
G1 F1200 X125.591 Y136.339 E30.57085
G0 F6000 X125.025 Y136.339
G1 F1200 X123.661 Y134.975 E30.63501
G0 F6000 X123.661 Y135.541
G1 F1200 X124.459 Y136.339 E30.67255
G0 F6000 X123.894 Y136.339
G1 F1200 X123.661 Y136.106 E30.68351
G0 F6000 X123.202 Y136.106
G0 X123.274 Y136.728
G0 X126.728 Y136.728
G0 X126.8 Y121.813
G0 X126.339 Y121.813
G1 F1200 X119.189 Y114.663 E31.01982
G0 F6000 X119.754 Y114.663
G1 F1200 X126.339 Y121.248 E31.32956
G0 F6000 X126.339 Y120.682
G1 F1200 X120.32 Y114.663 E31.61267
G0 F6000 X120.886 Y114.663
G1 F1200 X126.339 Y120.116 E31.86917
G0 F6000 X126.339 Y119.551
G1 F1200 X121.451 Y114.663 E32.09908
G0 F6000 X122.017 Y114.663
G1 F1200 X126.339 Y118.985 E32.30238
G0 F6000 X126.339 Y118.419
G1 F1200 X122.573 Y114.653 E32.47952
G0 F6000 X123.016 Y114.531
G1 F1200 X126.339 Y117.854 E32.63582
G0 F6000 X126.339 Y117.288
G1 F1200 X123.343 Y114.292 E32.77674
G0 F6000 X123.566 Y113.949
G1 F1200 X126.339 Y116.722 E32.90718
G0 F6000 X126.339 Y116.157
G1 F1200 X123.656 Y113.473 E33.0334
G0 F6000 X123.656 Y112.907
G1 F1200 X126.339 Y115.591 E33.15962
G0 F6000 X126.339 Y115.025
G1 F1200 X123.656 Y112.342 E33.28582
G0 F6000 X123.656 Y111.777
G1 F1200 X126.339 Y114.46 E33.41202
G0 F6000 X126.339 Y113.894
G1 F1200 X123.656 Y111.211 E33.53822
G0 F6000 X123.656 Y110.645
G1 F1200 X126.339 Y113.328 E33.66442
G0 F6000 X126.339 Y112.763
G1 F1200 X123.656 Y110.08 E33.79062
G0 F6000 X123.657 Y109.515
G1 F1200 X126.339 Y112.197 E33.91678
G0 F6000 X126.339 Y111.631
G1 F1200 X123.657 Y108.949 E34.04293
G0 F6000 X123.657 Y108.383
G1 F1200 X126.339 Y111.065 E34.16908
G0 F6000 X126.339 Y110.5
G1 F1200 X123.658 Y107.818 E34.29521
G0 F6000 X123.658 Y107.253
G1 F1200 X126.339 Y109.934 E34.42132
G0 F6000 X126.339 Y109.368
G1 F1200 X123.658 Y106.687 E34.54742
G0 F6000 X123.658 Y106.122
G1 F1200 X126.339 Y108.803 E34.67353
G0 F6000 X126.339 Y108.237
G1 F1200 X123.658 Y105.556 E34.79964
G0 F6000 X123.658 Y104.991
G1 F1200 X126.339 Y107.671 E34.92572
G0 F6000 X126.339 Y107.106
G1 F1200 X123.658 Y104.425 E35.05183
G0 F6000 X123.659 Y103.86
G1 F1200 X126.339 Y106.54 E35.17788
G0 F6000 X126.339 Y105.974
G1 F1200 X123.659 Y103.294 E35.30394
G0 F6000 X123.659 Y102.729
G1 F1200 X126.339 Y105.409 E35.43
G0 F6000 X126.339 Y104.843
G1 F1200 X123.66 Y102.164 E35.55601
G0 F6000 X123.66 Y101.598
G1 F1200 X126.339 Y104.277 E35.68203
G0 F6000 X126.339 Y103.712
G1 F1200 X123.66 Y101.032 E35.80806
G0 F6000 X123.66 Y100.467
G1 F1200 X126.339 Y103.146 E35.93407
G0 F6000 X126.339 Y102.58
G1 F1200 X123.66 Y99.902 E36.06006
G0 F6000 X123.66 Y99.336
G1 F1200 X126.339 Y102.015 E36.18607
G0 F6000 X126.339 Y101.449
G1 F1200 X123.66 Y98.77 E36.31209
G0 F6000 X124.116 Y98.66
G1 F1200 X126.339 Y100.883 E36.41665
G0 F6000 X126.339 Y100.317
G1 F1200 X124.682 Y98.66 E36.49459
G0 F6000 X125.247 Y98.66
G1 F1200 X126.339 Y99.752 E36.54595
G0 F6000 X126.339 Y99.186
G1 F1200 X125.813 Y98.66 E36.57069
G1 F2700 E31.57069
G0 F6000 X125.813 Y98.2
G0 X122.94 Y98.199
G0 X122.93 Y113.931
G0 X112.069 Y113.931
G0 X112.056 Y98.2
G0 X111.337 Y98.201
G1 F2700 E36.57069
G0 F6000 X111.337 Y98.892
G1 F1200 X111.106 Y98.661 E36.58156
G0 F6000 X110.54 Y98.661
G1 F1200 X111.337 Y99.458 E36.61905
G0 F6000 X111.337 Y100.023
G1 F1200 X109.974 Y98.661 E36.68314
G0 F6000 X109.409 Y98.661
G1 F1200 X111.337 Y100.589 E36.77382
G0 F6000 X111.338 Y101.155
G1 F1200 X108.843 Y98.661 E36.89116
G0 F6000 X108.66 Y99.043
G1 F1200 X111.338 Y101.721 E37.01712
G0 F6000 X111.338 Y102.287
G1 F1200 X108.66 Y99.609 E37.14309
G0 F6000 X108.66 Y100.175
G1 F1200 X111.338 Y102.852 E37.26903
G0 F6000 X111.338 Y103.419
G1 F1200 X108.66 Y100.74 E37.39502
G0 F6000 X108.66 Y101.306
G1 F1200 X111.338 Y103.985 E37.52101
G0 F6000 X111.338 Y104.55
G1 F1200 X108.66 Y101.872 E37.64697
G0 F6000 X108.66 Y102.437
G1 F1200 X111.338 Y105.116 E37.77296
G0 F6000 X111.339 Y105.682
G1 F1200 X108.66 Y103.003 E37.89897
G0 F6000 X108.66 Y103.569
G1 F1200 X111.339 Y106.248 E38.02498
G0 F6000 X111.339 Y106.814
G1 F1200 X108.66 Y104.134 E38.15102
G0 F6000 X108.66 Y104.7
G1 F1200 X111.34 Y107.38 E38.27708
G0 F6000 X111.34 Y107.946
G1 F1200 X108.66 Y105.266 E38.40314
G0 F6000 X108.66 Y105.831
G1 F1200 X111.34 Y108.511 E38.5292
G0 F6000 X111.34 Y109.077
G1 F1200 X108.66 Y106.397 E38.65525
G0 F6000 X108.66 Y106.963
G1 F1200 X111.341 Y109.643 E38.78134
G0 F6000 X111.341 Y110.209
G1 F1200 X108.66 Y107.529 E38.90742
G0 F6000 X108.66 Y108.094
G1 F1200 X111.341 Y110.775 E39.03353
G0 F6000 X111.341 Y111.341
G1 F1200 X108.66 Y108.66 E39.15963
G0 F6000 X108.66 Y109.226
G1 F1200 X111.341 Y111.907 E39.28574
G0 F6000 X111.341 Y112.473
G1 F1200 X108.66 Y109.791 E39.41187
G0 F6000 X108.66 Y110.357
G1 F1200 X111.341 Y113.038 E39.53797
G0 F6000 X111.341 Y113.604
G1 F1200 X108.66 Y110.923 E39.66408
;MESH:NONMESH
G0 F300 X108.66 Y110.923 Z0.4
G0 F6000 X108.201 Y110.923
G0 X108.273 Y136.728
G0 X111.897 Y136.9
;TIME_ELAPSED:78.204183
;LAYER:1
M106 S85
;TYPE:WALL-INNER
;MESH:LETRA H.stl
G1 F1350 X111.897 Y120.498 E40.20961
G1 X111.932 Y120.294 E40.2165
G1 X112.027 Y120.123 E40.223
G1 X112.156 Y120.004 E40.22884
G1 X112.444 Y119.9 E40.23902
G1 X122.577 Y119.898 E40.57605
G1 X122.843 Y120.004 E40.58557
G1 X122.972 Y120.123 E40.59141
G1 X123.067 Y120.294 E40.59792
G1 X123.102 Y120.498 E40.6048
G1 X123.102 Y136.9 E41.15033
G1 X126.9 Y136.9 E41.27665
G1 X126.9 Y99.999 E42.50399
G1 X126.9 Y98.1 E42.56715
G1 X123.102 Y98.1 E42.69347
G1 X123.102 Y113.577 E43.20824
G1 X122.972 Y113.878 E43.21914
G1 X122.708 Y114.067 E43.22994
G1 X122.502 Y114.104 E43.2369
G1 X112.497 Y114.104 E43.56967
G1 X112.291 Y114.067 E43.57663
G1 X112.027 Y113.878 E43.58743
G1 X111.897 Y113.577 E43.59834
G1 X111.897 Y98.101 E44.11307
G1 X108.101 Y98.101 E44.23932
G1 X108.101 Y136.9 E45.52978
G1 X111.897 Y136.9 E45.65604
G0 F7500 X112.297 Y137.3
;TYPE:WALL-OUTER
G1 F1350 X112.297 Y120.444 E46.21667
G1 X112.383 Y120.333 E46.22134
G1 X112.479 Y120.298 E46.22474
G1 X122.538 Y120.301 E46.55931
G1 X122.616 Y120.333 E46.56211
G1 X122.702 Y120.444 E46.56678
G1 X122.702 Y137.3 E47.12741
G1 X127.3 Y137.3 E47.28034
G1 X127.3 Y99.999 E48.52098
G1 X127.3 Y97.7 E48.59744
G1 X122.702 Y97.7 E48.75037
G1 X122.7 Y113.538 E49.27715
G1 X122.659 Y113.628 E49.28044
G1 X122.553 Y113.704 E49.28478
G1 X112.479 Y113.703 E49.61984
G1 X112.383 Y113.668 E49.62324
G1 X112.299 Y113.538 E49.62838
G1 X112.297 Y97.701 E50.15513
G1 X107.701 Y97.701 E50.30799
G1 X107.701 Y137.3 E51.62506
G1 X112.297 Y137.3 E51.77792
G0 F7500 X112.027 Y137.03
G0 X111.797 Y136.54
G0 X111.537 Y136.54
;TYPE:SKIN
G1 F1350 X111.539 Y120.466 E52.31254
G1 X111.59 Y120.17 E52.32253
G1 X111.729 Y119.923 E52.33196
G1 X111.926 Y119.727 E52.3412
G1 X112.173 Y119.594 E52.35053
G1 X112.414 Y119.54 E52.35875
G1 X122.629 Y119.539 E52.6985
G1 X123.012 Y119.688 E52.71217
G1 X123.232 Y119.875 E52.72177
G1 X123.409 Y120.169 E52.73319
G1 X123.46 Y120.465 E52.74318
G1 X123.462 Y136.54 E53.27783
G1 X126.54 Y136.54 E53.38021
G1 X126.54 Y99.999 E54.59557
G1 X126.54 Y98.46 E54.64675
G1 X123.462 Y98.46 E54.74913
G1 X123.46 Y113.732 E55.25708
G1 X123.254 Y114.106 E55.27128
G1 X123.028 Y114.306 E55.28132
G1 X122.825 Y114.407 E55.28886
G1 X122.506 Y114.464 E55.29964
G1 X112.36 Y114.463 E55.63709
G1 X111.95 Y114.298 E55.65179
G1 X111.729 Y114.077 E55.66219
G1 X111.539 Y113.735 E55.6752
G1 X111.537 Y98.461 E56.18322
G1 X108.461 Y98.461 E56.28552
G1 X108.461 Y136.54 E57.55204
G1 X111.537 Y136.54 E57.65435
G1 F2700 E52.65435
G0 F7500 X111.797 Y136.54
G0 X112.069 Y120.07
G0 X122.93 Y120.07
G0 X122.941 Y136.742
G0 X126.138 Y136.8
G1 F2700 E57.65435
G0 F7500 X126.138 Y136.339
G1 F1350 X126.339 Y136.138 E57.6638
