;FLAVOR:Marlin
;TIME:520
;Filament used: 0.324226m
;Layer height: 0.2
;MINX:107.7
;MINY:97.7
;MINZ:0.2
;MAXX:127.3
;MAXY:137.3
;MAXZ:2
;Generated with Cura_SteamEngine 5.2.2
M140 S50
M105
M190 S50
M104 S200
M105
M109 S200
M82 ;absolute extrusion mode
; Ender 3 Custom Start G-code
G92 E0 ; Reset Extruder
G28 ; Home all axes
G1 Z2.0 F3000 ; Move Z Axis up little to prevent scratching of Heat Bed
G1 X0.1 Y20 Z0.3 F5000.0 ; Move to start position
G1 X0.1 Y200.0 Z0.3 F1500.0 E15 ; Draw the first line
G1 X0.4 Y200.0 Z0.3 F5000.0 ; Move to side a little
G1 X0.4 Y20 Z0.3 F1500.0 E30 ; Draw the second line
G92 E0 ; Reset Extruder
G1 Z2.0 F3000 ; Move Z Axis up little to prevent scratching of Heat Bed
G1 X5 Y20 Z0.3 F5000.0 ; Move over to prevent blob squish
G92 E0
G92 E0
G1 F2700 E-5
;LAYER_COUNT:10
;LAYER:0
M107
;MESH:LETRA J.stl
G0 F6000 X114.102 Y136.9 Z0.2
;TYPE:WALL-INNER
G1 F2700 E0
G1 F1200 X126.9 Y136.9 E0.42566
G1 X126.9 Y101.334 E1.60859
G1 X126.9 Y98.1 E1.71616
G1 X108.1 Y98.1 E2.34145
G1 X108.101 Y107.898 E2.66733
G1 X112.897 Y107.898 E2.82685
G1 X112.897 Y103.386 E2.97692
G1 X112.981 Y103.19 E2.98401
G1 X113.189 Y102.982 E2.99379
G1 X113.385 Y102.898 E3.00088
G1 X120.609 Y102.898 E3.24115
G1 X120.798 Y102.975 E3.24794
G1 X120.998 Y103.159 E3.25698
G1 X121.102 Y103.403 E3.2658
G1 X121.102 Y130.581 E4.16975
G1 X121.053 Y130.742 E4.17534
G1 X120.927 Y130.928 E4.18282
G1 X120.741 Y131.054 E4.19029
G1 X120.58 Y131.103 E4.19589
G1 X114.102 Y131.104 E4.41135
G1 X114.102 Y136.9 E4.60412
G0 F6000 X113.702 Y137.3
;TYPE:WALL-OUTER
G1 F1200 X127.3 Y137.3 E5.05639
G1 X127.3 Y101.334 E6.25263
G1 X127.3 Y97.7 E6.37349
G1 X107.7 Y97.7 E7.02539
G1 X107.701 Y108.298 E7.37788
G1 X113.297 Y108.298 E7.56401
G1 X113.297 Y103.455 E7.72509
G1 X113.355 Y103.356 E7.7289
G1 X113.462 Y103.3 E7.73292
G1 X120.539 Y103.298 E7.9683
G1 X120.668 Y103.385 E7.97348
G1 X120.698 Y103.457 E7.97607
G1 X120.7 Y130.538 E8.87679
G1 X120.644 Y130.645 E8.88081
G1 X120.537 Y130.701 E8.88482
G1 X113.702 Y130.704 E9.11216
G1 X113.702 Y137.3 E9.33154
G0 F6000 X113.972 Y137.03
G0 X114.202 Y136.54
G0 X114.462 Y136.54
;TYPE:SKIN
G1 F1200 X126.54 Y136.54 E9.73325
G1 X126.54 Y101.333 E10.90424
G1 X126.54 Y98.46 E10.9998
G1 X108.461 Y98.46 E11.60111
G1 X108.461 Y107.538 E11.90305
G1 X112.537 Y107.538 E12.03861
G1 X112.538 Y103.478 E12.17365
G1 X112.566 Y103.264 E12.18083
G1 X112.672 Y102.996 E12.19041
G1 X112.994 Y102.674 E12.20556
G1 X113.319 Y102.54 E12.21725
G1 X120.522 Y102.539 E12.45683
G1 X120.78 Y102.579 E12.46551
G1 X121.01 Y102.686 E12.47395
G1 X121.297 Y102.956 E12.48705
G1 X121.462 Y103.334 E12.50077
G1 X121.46 Y130.648 E13.40924
G1 X121.302 Y131.043 E13.42339
G1 X121.042 Y131.303 E13.43562
G1 X120.656 Y131.461 E13.44949
G1 X114.462 Y131.464 E13.6555
G1 X114.462 Y136.54 E13.82433
G0 F6000 X114.843 Y136.339
G1 F1200 X114.661 Y136.157 E13.83289
G0 F6000 X114.661 Y135.591
G1 F1200 X115.409 Y136.339 E13.86808
G0 F6000 X115.974 Y136.339
G1 F1200 X114.661 Y135.026 E13.92983
G0 F6000 X114.661 Y134.46
G1 F1200 X116.54 Y136.339 E14.01822
G0 F6000 X117.106 Y136.339
G1 F1200 X114.661 Y133.894 E14.13322
G0 F6000 X114.661 Y133.329
G1 F1200 X117.671 Y136.339 E14.2748
G0 F6000 X118.237 Y136.339
G1 F1200 X114.661 Y132.763 E14.44301
G0 F6000 X114.661 Y132.197
G1 F1200 X118.803 Y136.339 E14.63783
G0 F6000 X119.368 Y136.339
G1 F1200 X114.692 Y131.663 E14.85778
G0 F6000 X115.258 Y131.663
G1 F1200 X119.934 Y136.339 E15.07772
G0 F6000 X120.5 Y136.339
G1 F1200 X115.823 Y131.662 E15.29772
G0 F6000 X116.388 Y131.661
G1 F1200 X121.065 Y136.339 E15.51773
G0 F6000 X121.631 Y136.339
G1 F1200 X116.953 Y131.661 E15.73777
G0 F6000 X117.519 Y131.661
G1 F1200 X122.197 Y136.339 E15.95781
G0 F6000 X122.762 Y136.339
G1 F1200 X118.084 Y131.66 E16.17787
G0 F6000 X118.648 Y131.659
G1 F1200 X123.328 Y136.339 E16.398
G0 F6000 X123.894 Y136.339
G1 F1200 X119.213 Y131.659 E16.61816
G0 F6000 X119.779 Y131.659
G1 F1200 X124.459 Y136.339 E16.83829
G0 F6000 X125.025 Y136.339
G1 F1200 X120.344 Y131.658 E17.05847
G0 F6000 X120.852 Y131.6
G1 F1200 X125.591 Y136.339 E17.28138
G0 F6000 X126.157 Y136.339
G1 F1200 X121.222 Y131.404 E17.51351
G0 F6000 X121.49 Y131.107
G1 F1200 X126.339 Y135.956 E17.74159
G0 F6000 X126.339 Y135.39
G1 F1200 X121.655 Y130.706 E17.96191
G0 F6000 X121.657 Y130.142
G1 F1200 X126.339 Y134.824 E18.18214
G0 F6000 X126.339 Y134.259
G1 F1200 X121.657 Y129.576 E18.40239
G0 F6000 X121.657 Y129.01
G1 F1200 X126.339 Y133.693 E18.62264
G0 F6000 X126.339 Y133.127
G1 F1200 X121.657 Y128.445 E18.84287
G0 F6000 X121.657 Y127.879
G1 F1200 X126.339 Y132.562 E19.06312
G0 F6000 X126.339 Y131.996
G1 F1200 X121.657 Y127.313 E19.28337
G0 F6000 X121.657 Y126.748
G1 F1200 X126.339 Y131.43 E19.50359
G0 F6000 X126.339 Y130.864
G1 F1200 X121.657 Y126.182 E19.72382
G0 F6000 X121.657 Y125.617
G1 F1200 X126.339 Y130.299 E19.94405
G0 F6000 X126.339 Y129.733
G1 F1200 X121.657 Y125.051 E20.16427
G0 F6000 X121.657 Y124.486
G1 F1200 X126.339 Y129.167 E20.38448
G0 F6000 X126.339 Y128.602
G1 F1200 X121.657 Y123.92 E20.60471
G0 F6000 X121.657 Y123.354
G1 F1200 X126.339 Y128.036 E20.82493
G0 F6000 X126.339 Y127.47
G1 F1200 X121.657 Y122.789 E21.04514
G0 F6000 X121.657 Y122.223
G1 F1200 X126.339 Y126.905 E21.26536
G0 F6000 X126.339 Y126.339
G1 F1200 X121.657 Y121.657 E21.48559
G0 F6000 X121.658 Y121.092
G1 F1200 X126.339 Y125.773 E21.70577
G0 F6000 X126.339 Y125.208
G1 F1200 X121.658 Y120.527 E21.92595
G0 F6000 X121.658 Y119.961
G1 F1200 X126.339 Y124.642 E22.14613
G0 F6000 X126.339 Y124.076
G1 F1200 X121.658 Y119.395 E22.36631
G0 F6000 X121.658 Y118.83
G1 F1200 X126.339 Y123.511 E22.58649
G0 F6000 X126.339 Y122.945
G1 F1200 X121.658 Y118.264 E22.80667
G0 F6000 X121.658 Y117.698
G1 F1200 X126.339 Y122.379 E23.02685
G0 F6000 X126.339 Y121.813
G1 F1200 X121.658 Y117.132 E23.24703
G0 F6000 X121.659 Y116.567
G1 F1200 X126.339 Y121.248 E23.46718
G0 F6000 X126.339 Y120.682
G1 F1200 X121.659 Y116.002 E23.68732
G0 F6000 X121.659 Y115.436
G1 F1200 X126.339 Y120.116 E23.90745
G0 F6000 X126.339 Y119.551
G1 F1200 X121.659 Y114.87 E24.12761
G0 F6000 X121.659 Y114.305
G1 F1200 X126.339 Y118.985 E24.34774
G0 F6000 X126.339 Y118.419
G1 F1200 X121.659 Y113.739 E24.56787
G0 F6000 X121.659 Y113.173
G1 F1200 X126.339 Y117.854 E24.78803
G0 F6000 X126.339 Y117.288
G1 F1200 X121.659 Y112.608 E25.00816
G0 F6000 X121.659 Y112.043
G1 F1200 X126.339 Y116.722 E25.22827
G0 F6000 X126.339 Y116.157
G1 F1200 X121.659 Y111.477 E25.4484
G0 F6000 X121.659 Y110.911
G1 F1200 X126.339 Y115.591 E25.66854
G0 F6000 X126.339 Y115.025
G1 F1200 X121.659 Y110.346 E25.88865
G0 F6000 X121.659 Y109.78
G1 F1200 X126.339 Y114.46 E26.10878
G0 F6000 X126.339 Y113.894
G1 F1200 X121.659 Y109.214 E26.32891
G0 F6000 X121.659 Y108.649
G1 F1200 X126.339 Y113.328 E26.54902
G0 F6000 X126.339 Y112.763
G1 F1200 X121.659 Y108.083 E26.76915
G0 F6000 X121.66 Y107.518
G1 F1200 X126.339 Y112.197 E26.98924
G0 F6000 X126.339 Y111.631
G1 F1200 X121.66 Y106.952 E27.20933
G0 F6000 X121.66 Y106.387
G1 F1200 X126.339 Y111.065 E27.42939
G0 F6000 X126.339 Y110.5
G1 F1200 X121.66 Y105.821 E27.64947
G0 F6000 X121.66 Y105.255
G1 F1200 X126.339 Y109.934 E27.86956
G0 F6000 X126.339 Y109.368
G1 F1200 X121.66 Y104.689 E28.08965
G0 F6000 X121.66 Y104.124
G1 F1200 X126.339 Y108.803 E28.30973
G0 F6000 X126.339 Y108.237
G1 F1200 X121.66 Y103.558 E28.52982
G0 F6000 X121.202 Y103.558
G0 X120.958 Y103.119
G0 X120.44 Y102.798
G0 X120.44 Y102.338
G1 F1200 X116.762 Y98.66 E28.70282
G0 F6000 X116.196 Y98.66
G1 F1200 X119.874 Y102.338 E28.87582
G0 F6000 X119.308 Y102.338
G1 F1200 X115.631 Y98.66 E29.0488
G0 F6000 X115.065 Y98.66
G1 F1200 X118.743 Y102.338 E29.2218
G0 F6000 X118.178 Y102.338
G1 F1200 X114.499 Y98.66 E29.39483
G0 F6000 X113.933 Y98.66
G1 F1200 X117.613 Y102.339 E29.5679
G0 F6000 X117.047 Y102.339
G1 F1200 X113.368 Y98.66 E29.74095
G0 F6000 X112.802 Y98.66
G1 F1200 X116.482 Y102.34 E29.91404
G0 F6000 X115.916 Y102.34
G1 F1200 X112.236 Y98.66 E30.08714
G0 F6000 X111.671 Y98.66
G1 F1200 X115.351 Y102.34 E30.26024
G0 F6000 X114.786 Y102.34
G1 F1200 X111.105 Y98.66 E30.43335
G0 F6000 X110.539 Y98.66
G1 F1200 X114.221 Y102.341 E30.60652
G0 F6000 X113.655 Y102.341
G1 F1200 X109.974 Y98.66 E30.77966
G0 F6000 X109.408 Y98.66
G1 F1200 X113.14 Y102.392 E30.95521
G0 F6000 X112.783 Y102.601
G1 F1200 X108.842 Y98.66 E31.14058
G0 F6000 X108.66 Y99.043
G1 F1200 X112.519 Y102.902 E31.32209
G0 F6000 X112.364 Y103.313
G1 F1200 X108.66 Y99.609 E31.49632
G0 F6000 X108.66 Y100.175
G1 F1200 X112.338 Y103.853 E31.66932
G0 F6000 X112.338 Y104.419
G1 F1200 X108.66 Y100.74 E31.84235
G0 F6000 X108.66 Y101.306
G1 F1200 X112.338 Y104.984 E32.01535
G0 F6000 X112.337 Y105.549
G1 F1200 X108.66 Y101.872 E32.1883
G0 F6000 X108.66 Y102.437
G1 F1200 X112.337 Y106.114 E32.36126
G0 F6000 X112.336 Y106.679
G1 F1200 X108.66 Y103.003 E32.53417
G0 F6000 X108.66 Y103.569
G1 F1200 X112.336 Y107.245 E32.70707
G0 F6000 X111.863 Y107.338
G1 F1200 X108.66 Y104.134 E32.85776
G0 F6000 X108.66 Y104.7
G1 F1200 X111.297 Y107.338 E32.98182
G0 F6000 X110.732 Y107.338
G1 F1200 X108.66 Y105.266 E33.07928
G0 F6000 X108.66 Y105.831
G1 F1200 X110.166 Y107.338 E33.15014
G0 F6000 X109.6 Y107.338
G1 F1200 X108.66 Y106.397 E33.19438
G0 F6000 X108.66 Y106.963
G1 F1200 X109.035 Y107.338 E33.21201
G0 F6000 X108.201 Y107.338
G0 X108.272 Y98.272
G0 X117.328 Y98.2
G0 X117.328 Y98.66
G1 F1200 X126.339 Y107.671 E33.63586
G0 F6000 X126.339 Y107.106
G1 F1200 X117.893 Y98.66 E34.03314
G0 F6000 X118.459 Y98.66
G1 F1200 X126.339 Y106.54 E34.40379
G0 F6000 X126.339 Y105.974
G1 F1200 X119.025 Y98.66 E34.74782
G0 F6000 X119.59 Y98.66
G1 F1200 X126.339 Y105.409 E35.06527
G0 F6000 X126.339 Y104.843
G1 F1200 X120.156 Y98.66 E35.3561
G0 F6000 X120.722 Y98.66
G1 F1200 X126.339 Y104.277 E35.62031
G0 F6000 X126.339 Y103.712
G1 F1200 X121.287 Y98.66 E35.85794
G0 F6000 X121.853 Y98.66
G1 F1200 X126.339 Y103.146 E36.06894
G0 F6000 X126.339 Y102.58
G1 F1200 X122.419 Y98.66 E36.25333
G0 F6000 X122.984 Y98.66
G1 F1200 X126.339 Y102.015 E36.41114
G0 F6000 X126.339 Y101.449
G1 F1200 X123.55 Y98.66 E36.54232
G0 F6000 X124.116 Y98.66
G1 F1200 X126.339 Y100.883 E36.64689
G0 F6000 X126.339 Y100.317
G1 F1200 X124.682 Y98.66 E36.72483
G0 F6000 X125.247 Y98.66
G1 F1200 X126.339 Y99.752 E36.77619
G0 F6000 X126.339 Y99.186
G1 F1200 X125.813 Y98.66 E36.80093
G1 F2700 E31.80093
;MESH:NONMESH
G0 F300 X125.813 Y98.66 Z0.4
G0 F6000 X125.813 Y98.2
G0 X108.272 Y98.272
G0 X108.273 Y107.726
G0 X112.725 Y107.726
G0 X113.106 Y102.845
G0 X121.131 Y103.068
G0 X120.93 Y130.931
G0 X114.274 Y131.276
G0 X114.102 Y136.9
;TIME_ELAPSED:71.388767
;LAYER:1
M106 S85
;TYPE:WALL-INNER
;MESH:LETRA J.stl
G1 F2700 E36.80093
G1 F1350 X126.9 Y136.9 E37.2266
G1 X126.9 Y101.334 E38.40953
G1 X126.9 Y98.1 E38.51709
G1 X108.1 Y98.1 E39.14238
G1 X108.101 Y107.898 E39.46826
G1 X112.897 Y107.898 E39.62778
G1 X112.897 Y103.386 E39.77785
G1 X112.981 Y103.19 E39.78494
G1 X113.189 Y102.982 E39.79472
G1 X113.385 Y102.898 E39.80182
G1 X120.609 Y102.898 E40.04209
G1 X120.798 Y102.975 E40.04888
G1 X120.998 Y103.159 E40.05791
G1 X121.102 Y103.403 E40.06674
G1 X121.102 Y130.581 E40.97068
G1 X121.053 Y130.742 E40.97628
G1 X120.927 Y130.928 E40.98375
G1 X120.741 Y131.054 E40.99122
G1 X120.58 Y131.103 E40.99682
G1 X114.102 Y131.104 E41.21228
G1 X114.102 Y136.9 E41.40505
G0 F7500 X113.702 Y137.3
;TYPE:WALL-OUTER
G1 F1350 X127.3 Y137.3 E41.85733
G1 X127.3 Y101.334 E43.05356
G1 X127.3 Y97.7 E43.17443
G1 X107.7 Y97.7 E43.82633
G1 X107.701 Y108.298 E44.17882
G1 X113.297 Y108.298 E44.36494
G1 X113.297 Y103.455 E44.52602
G1 X113.355 Y103.356 E44.52984
G1 X113.462 Y103.3 E44.53385
G1 X120.539 Y103.298 E44.76923
G1 X120.668 Y103.385 E44.77441
G1 X120.698 Y103.457 E44.777
G1 X120.7 Y130.538 E45.67772
G1 X120.644 Y130.645 E45.68174
G1 X120.537 Y130.701 E45.68575
G1 X113.702 Y130.704 E45.91309
G1 X113.702 Y137.3 E46.13247
G0 F7500 X113.972 Y137.03
G0 X114.202 Y136.54
G0 X114.462 Y136.54
;TYPE:SKIN
G1 F1350 X126.54 Y136.54 E46.53419
G1 X126.54 Y101.333 E47.70518
G1 X126.54 Y98.46 E47.80073
G1 X108.461 Y98.46 E48.40204
G1 X108.461 Y107.538 E48.70398
G1 X112.537 Y107.538 E48.83955
G1 X112.538 Y103.478 E48.97458
G1 X112.566 Y103.264 E48.98176
G1 X112.672 Y102.996 E48.99135
G1 X112.994 Y102.674 E49.00649
G1 X113.319 Y102.54 E49.01819
G1 X120.522 Y102.539 E49.25776
G1 X120.78 Y102.579 E49.26644
G1 X121.01 Y102.686 E49.27488
G1 X121.297 Y102.956 E49.28798
G1 X121.462 Y103.334 E49.3017
G1 X121.46 Y130.648 E50.21017
G1 X121.302 Y131.043 E50.22432
G1 X121.042 Y131.303 E50.23655
G1 X120.656 Y131.461 E50.25042
G1 X114.462 Y131.464 E50.45644
G1 X114.462 Y136.54 E50.62526
G0 F7500 X114.202 Y136.54
G0 X126.138 Y136.8
G0 X126.138 Y136.339
G1 F1350 X126.339 Y136.138 E50.63472
G0 F7500 X126.339 Y135.572
G1 F1350 X125.572 Y136.339 E50.6708
G0 F7500 X125.007 Y136.339
G1 F1350 X126.339 Y135.007 E50.73345
G0 F7500 X126.339 Y134.441
G1 F1350 X124.441 Y136.339 E50.82272
G0 F7500 X123.875 Y136.339
G1 F1350 X126.339 Y133.875 E50.93862
G0 F7500 X126.339 Y133.31
G1 F1350 X123.31 Y136.339 E51.0811
G0 F7500 X122.744 Y136.339
G1 F1350 X126.339 Y132.744 E51.2502
G0 F7500 X126.339 Y132.178
G1 F1350 X122.178 Y136.339 E51.44592
G0 F7500 X121.613 Y136.339
G1 F1350 X126.339 Y131.613 E51.66821
G0 F7500 X126.339 Y131.047
G1 F1350 X121.047 Y136.339 E51.91713
G0 F7500 X120.481 Y136.339
G1 F1350 X126.339 Y130.481 E52.19268
G0 F7500 X126.339 Y129.916
G1 F1350 X119.916 Y136.339 E52.49479
G0 F7500 X119.35 Y136.339
G1 F1350 X126.339 Y129.35 E52.82353
G0 F7500 X126.339 Y128.784
G1 F1350 X118.784 Y136.339 E53.1789
G0 F7500 X118.219 Y136.339
G1 F1350 X126.339 Y128.218 E53.56086
G0 F7500 X126.339 Y127.653
G1 F1350 X117.653 Y136.339 E53.96943
G0 F7500 X117.087 Y136.339
G1 F1350 X126.339 Y127.087 E54.40461
G0 F7500 X126.339 Y126.521
G1 F1350 X116.522 Y136.339 E54.8664
G0 F7500 X115.956 Y136.339
G1 F1350 X120.638 Y131.657 E55.08662
G0 F7500 X120.072 Y131.657
G1 F1350 X115.39 Y136.339 E55.30685
G0 F7500 X114.824 Y136.339
G1 F1350 X119.505 Y131.658 E55.52703
G0 F7500 X118.939 Y131.659
G1 F1350 X114.662 Y135.936 E55.72821
G0 F7500 X114.662 Y135.37
G1 F1350 X118.373 Y131.659 E55.90276
G0 F7500 X117.807 Y131.659
G1 F1350 X114.662 Y134.804 E56.05069
G0 F7500 X114.662 Y134.239
G1 F1350 X117.241 Y131.66 E56.172
G0 F7500 X116.674 Y131.661
G1 F1350 X114.662 Y133.673 E56.26664
G0 F7500 X114.662 Y133.107
G1 F1350 X116.108 Y131.661 E56.33465
G0 F7500 X115.542 Y131.661
G1 F1350 X114.662 Y132.542 E56.37607
G0 F7500 X114.662 Y131.976
G1 F1350 X114.976 Y131.662 E56.39084
G0 F7500 X114.976 Y131.204
G0 X120.93 Y130.931
G0 X121.194 Y130.601
G0 X121.657 Y130.637
G1 F1350 X126.339 Y125.956 E56.61104
G0 F7500 X126.339 Y125.39
G1 F1350 X121.657 Y130.072 E56.83127
G0 F7500 X121.657 Y129.506
G1 F1350 X126.339 Y124.824 E57.0515
G0 F7500 X126.339 Y124.259
G1 F1350 X121.657 Y128.94 E57.2717
G0 F7500 X121.657 Y128.375
G1 F1350 X126.339 Y123.693 E57.49193
G0 F7500 X126.339 Y123.127
G1 F1350 X121.657 Y127.809 E57.71215
G0 F7500 X121.657 Y127.243
G1 F1350 X126.339 Y122.562 E57.93236
G0 F7500 X126.339 Y121.996
G1 F1350 X121.657 Y126.678 E58.15258
G0 F7500 X121.658 Y126.111
G1 F1350 X126.339 Y121.43 E58.37276
G0 F7500 X126.339 Y120.865
G1 F1350 X121.658 Y125.546 E58.59294
G0 F7500 X121.658 Y124.98
G1 F1350 X126.339 Y120.299 E58.81312
G0 F7500 X126.339 Y119.733
G1 F1350 X121.658 Y124.414 E59.0333
G0 F7500 X121.658 Y123.849
G1 F1350 X126.339 Y119.167 E59.25351
G0 F7500 X126.339 Y118.602
G1 F1350 X121.658 Y123.283 E59.47369
G0 F7500 X121.658 Y122.717
G1 F1350 X126.339 Y118.036 E59.69387
G0 F7500 X126.339 Y117.47
G1 F1350 X121.658 Y122.151 E59.91405
G0 F7500 X121.658 Y121.586
G1 F1350 X126.339 Y116.905 E60.13423
G0 F7500 X126.339 Y116.339
G1 F1350 X121.659 Y121.019 E60.35436
G0 F7500 X121.659 Y120.454
G1 F1350 X126.339 Y115.773 E60.57452
G0 F7500 X126.339 Y115.208
G1 F1350 X121.659 Y119.888 E60.79465
G0 F7500 X121.659 Y119.322
G1 F1350 X126.339 Y114.642 E61.01478
G0 F7500 X126.339 Y114.076
G1 F1350 X121.659 Y118.757 E61.23494
G0 F7500 X121.659 Y118.191
G1 F1350 X126.339 Y113.511 E61.45507
G0 F7500 X126.339 Y112.945
