;FLAVOR:Marlin
;TIME:678
;Filament used: 0.409486m
;Layer height: 0.2
;MINX:107.701
;MINY:97.701
;MINZ:0.2
;MAXX:127.3
;MAXY:137.3
;MAXZ:2
;Generated with Cura_SteamEngine 5.2.2
M140 S50
M105
M190 S50
M104 S200
M105
M109 S200
M82 ;absolute extrusion mode
; Ender 3 Custom Start G-code
G92 E0 ; Reset Extruder
G28 ; Home all axes
G1 Z2.0 F3000 ; Move Z Axis up little to prevent scratching of Heat Bed
G1 X0.1 Y20 Z0.3 F5000.0 ; Move to start position
G1 X0.1 Y200.0 Z0.3 F1500.0 E15 ; Draw the first line
G1 X0.4 Y200.0 Z0.3 F5000.0 ; Move to side a little
G1 X0.4 Y20 Z0.3 F1500.0 E30 ; Draw the second line
G92 E0 ; Reset Extruder
G1 Z2.0 F3000 ; Move Z Axis up little to prevent scratching of Heat Bed
G1 X5 Y20 Z0.3 F5000.0 ; Move over to prevent blob squish
G92 E0
G92 E0
G1 F2700 E-5
;LAYER_COUNT:10
;LAYER:0
M107
;MESH:LETRA A.stl
G0 F6000 X112.005 Y129.847 Z0.2
;TYPE:WALL-INNER
G1 F2700 E0
G1 F1200 X111.897 Y129.575 E0.00973
G1 X111.897 Y119.497 E0.34493
G1 X111.932 Y119.293 E0.35181
G1 X112.027 Y119.122 E0.35832
G1 X112.156 Y119.003 E0.36416
G1 X112.444 Y118.899 E0.37434
G1 X122.578 Y118.897 E0.7114
G1 X122.845 Y119.003 E0.72095
G1 X122.973 Y119.122 E0.72677
G1 X123.068 Y119.293 E0.73327
G1 X123.104 Y119.497 E0.74016
G1 X123.104 Y129.502 E1.07293
G1 X123.075 Y129.687 E1.07916
G1 X122.884 Y129.967 E1.09043
G1 X122.607 Y130.094 E1.10057
G1 X122.503 Y130.102 E1.10404
G1 X112.497 Y130.102 E1.43684
G1 X112.238 Y130.044 E1.44567
G1 X112.005 Y129.847 E1.45581
G0 F6000 X112.37 Y129.657
;TYPE:WALL-OUTER
G1 F1200 X112.299 Y129.537 E1.46045
G1 X112.297 Y119.443 E1.79618
G1 X112.383 Y119.332 E1.80085
G1 X112.479 Y119.297 E1.80425
G1 X122.539 Y119.3 E2.13885
G1 X122.617 Y119.332 E2.14165
G1 X122.704 Y119.445 E2.14639
G1 X122.704 Y129.502 E2.48089
G1 X122.667 Y129.617 E2.48491
G1 X122.538 Y129.7 E2.49001
G1 X112.45 Y129.697 E2.82554
G1 X112.37 Y129.657 E2.82851
G1 F2700 E-2.17149
G0 F6000 X112.37 Y130.002
G0 X112.16 Y130.208
G0 X108.301 Y133.445
G0 X108.101 Y136.899
;TYPE:WALL-INNER
G1 F2700 E2.82851
G1 F1200 X126.9 Y136.9 E3.45377
G1 X126.9 Y99.999 E4.6811
G1 X126.9 Y98.101 E4.74423
G1 X123.104 Y98.101 E4.87049
G1 X123.104 Y112.573 E5.35183
G1 X122.973 Y112.877 E5.36284
G1 X122.709 Y113.066 E5.37364
G1 X122.503 Y113.103 E5.3806
G1 X112.497 Y113.103 E5.7134
G1 X112.291 Y113.066 E5.72036
G1 X112.027 Y112.877 E5.73116
G1 X111.897 Y112.576 E5.74206
G1 X111.897 Y98.101 E6.2235
G1 X108.101 Y98.101 E6.34976
G1 X108.101 Y136.899 E7.64019
G0 F6000 X107.701 Y137.299
;TYPE:WALL-OUTER
G1 F1200 X127.3 Y137.3 E8.29205
G1 X127.3 Y99.999 E9.53269
G1 X127.3 Y97.701 E9.60912
G1 X122.704 Y97.701 E9.76198
G1 X122.701 Y112.537 E10.25543
G1 X122.66 Y112.627 E10.25872
G1 X122.554 Y112.703 E10.26306
G1 X112.479 Y112.702 E10.59815
G1 X112.383 Y112.667 E10.60155
G1 X112.299 Y112.537 E10.6067
G1 X112.297 Y97.701 E11.10015
G1 X107.701 Y97.701 E11.25301
G1 X107.701 Y137.299 E12.57005
G0 F6000 X107.97 Y137.03
G0 X108.201 Y136.539
G0 X108.461 Y136.539
;TYPE:SKIN
G1 F1200 X126.54 Y136.54 E13.17136
G1 X126.54 Y99.999 E14.38671
G1 X126.54 Y98.461 E14.43787
G1 X123.464 Y98.461 E14.54018
G1 X123.462 Y112.625 E15.01127
G1 X123.413 Y112.81 E15.01764
G1 X123.256 Y113.105 E15.02875
G1 X123.029 Y113.304 E15.03879
G1 X122.827 Y113.406 E15.04632
G1 X122.507 Y113.463 E15.05713
G1 X112.36 Y113.462 E15.39462
G1 X111.95 Y113.297 E15.40932
G1 X111.729 Y113.076 E15.41972
G1 X111.539 Y112.734 E15.43273
G1 X111.537 Y98.461 E15.90745
G1 X108.461 Y98.461 E16.00976
G1 X108.461 Y136.539 E17.27624
G1 F2700 E12.27624
G0 F6000 X108.201 Y136.539
G0 X108.301 Y133.445
G0 X112.001 Y130.106
G0 X112.323 Y130.462
G1 F2700 E17.27624
G1 F1200 X111.885 Y130.248 E17.29245
G1 X111.696 Y130.031 E17.30202
G1 X111.575 Y129.768 E17.31165
G1 X111.539 Y129.533 E17.31956
G1 X111.539 Y119.465 E17.65442
G1 X111.59 Y119.169 E17.66441
G1 X111.729 Y118.922 E17.67384
G1 X111.926 Y118.726 E17.68308
G1 X112.173 Y118.593 E17.69241
G1 X112.414 Y118.539 E17.70063
G1 X122.63 Y118.538 E18.04041
G1 X123.013 Y118.687 E18.05408
G1 X123.233 Y118.872 E18.06364
G1 X123.411 Y119.168 E18.07513
G1 X123.462 Y119.467 E18.08522
G1 X123.464 Y129.499 E18.41888
G1 X123.425 Y129.768 E18.42792
G1 X123.304 Y130.031 E18.43755
G1 X123.098 Y130.256 E18.4477
G1 X122.872 Y130.385 E18.45635
G1 X122.533 Y130.46 E18.4679
G1 X112.323 Y130.462 E18.80749
G1 F2700 E13.80749
G0 F6000 X112.355 Y130.186
G0 X111.555 Y136.699
G0 X109.185 Y136.338
G1 F2700 E18.80749
G1 F1200 X108.66 Y135.813 E18.83218
G0 F6000 X108.66 Y135.247
G1 F1200 X109.751 Y136.338 E18.8835
G0 F6000 X110.317 Y136.338
G1 F1200 X108.66 Y134.681 E18.96144
G0 F6000 X108.66 Y134.116
G1 F1200 X110.882 Y136.338 E19.06596
G0 F6000 X111.448 Y136.338
G1 F1200 X108.66 Y133.55 E19.19709
G0 F6000 X108.66 Y132.984
G1 F1200 X112.014 Y136.338 E19.35486
G0 F6000 X112.579 Y136.338
G1 F1200 X108.66 Y132.419 E19.53919
G0 F6000 X108.66 Y131.853
G1 F1200 X113.145 Y136.338 E19.75015
G0 F6000 X113.711 Y136.338
G1 F1200 X108.66 Y131.287 E19.98774
G0 F6000 X108.66 Y130.722
G1 F1200 X114.276 Y136.338 E20.2519
G0 F6000 X114.842 Y136.338
G1 F1200 X108.66 Y130.156 E20.54268
G0 F6000 X108.66 Y129.59
G1 F1200 X115.408 Y136.338 E20.86009
G0 F6000 X115.973 Y136.338
G1 F1200 X108.66 Y129.025 E21.20407
G0 F6000 X108.66 Y128.459
G1 F1200 X116.539 Y136.338 E21.57467
G0 F6000 X117.105 Y136.338
G1 F1200 X108.66 Y127.893 E21.9719
G0 F6000 X108.66 Y127.328
G1 F1200 X117.671 Y136.338 E22.39572
G0 F6000 X118.236 Y136.338
G1 F1200 X112.559 Y130.661 E22.66275
G0 F6000 X113.125 Y130.661
G1 F1200 X118.802 Y136.338 E22.92978
G0 F6000 X119.368 Y136.338
G1 F1200 X113.69 Y130.661 E23.19683
G0 F6000 X114.255 Y130.66
G1 F1200 X119.933 Y136.338 E23.46391
G0 F6000 X120.499 Y136.338
G1 F1200 X114.821 Y130.66 E23.73098
G0 F6000 X115.386 Y130.659
G1 F1200 X121.065 Y136.338 E23.99811
G0 F6000 X121.63 Y136.338
G1 F1200 X115.952 Y130.659 E24.26521
G0 F6000 X116.517 Y130.659
G1 F1200 X122.196 Y136.338 E24.53233
G0 F6000 X122.762 Y136.338
G1 F1200 X117.082 Y130.659 E24.79948
G0 F6000 X117.648 Y130.659
G1 F1200 X123.327 Y136.338 E25.0666
G0 F6000 X123.893 Y136.338
G1 F1200 X118.213 Y130.658 E25.33377
G0 F6000 X118.779 Y130.658
G1 F1200 X124.459 Y136.338 E25.60094
G0 F6000 X125.024 Y136.338
G1 F1200 X119.344 Y130.658 E25.86811
G0 F6000 X119.909 Y130.657
G1 F1200 X125.59 Y136.338 E26.13532
G0 F6000 X126.156 Y136.338
G1 F1200 X120.475 Y130.657 E26.40254
G0 F6000 X121.041 Y130.657
G1 F1200 X126.339 Y135.956 E26.65177
G0 F6000 X126.339 Y135.39
G1 F1200 X121.606 Y130.657 E26.87439
G0 F6000 X122.171 Y130.657
G1 F1200 X126.339 Y134.824 E27.07042
G0 F6000 X126.339 Y134.259
G1 F1200 X122.706 Y130.625 E27.24133
G0 F6000 X123.117 Y130.471
G1 F1200 X126.339 Y133.693 E27.39288
G0 F6000 X126.339 Y133.127
G1 F1200 X123.419 Y130.208 E27.5302
G0 F6000 X123.616 Y129.838
G1 F1200 X126.339 Y132.562 E27.65831
G0 F6000 X126.339 Y131.996
G1 F1200 X123.663 Y129.32 E27.78418
G0 F6000 X123.663 Y128.754
G1 F1200 X126.339 Y131.43 E27.91005
G0 F6000 X126.339 Y130.864
G1 F1200 X123.663 Y128.188 E28.03592
G0 F6000 X123.663 Y127.622
G1 F1200 X126.339 Y130.299 E28.16182
G0 F6000 X126.339 Y129.733
G1 F1200 X123.663 Y127.057 E28.28769
G0 F6000 X123.662 Y126.49
G1 F1200 X126.339 Y129.167 E28.41361
G0 F6000 X126.339 Y128.602
G1 F1200 X123.662 Y125.925 E28.53952
G0 F6000 X123.661 Y125.358
G1 F1200 X126.339 Y128.036 E28.66549
G0 F6000 X126.339 Y127.47
G1 F1200 X123.661 Y124.793 E28.79143
G0 F6000 X123.66 Y124.226
G1 F1200 X126.339 Y126.905 E28.91744
G0 F6000 X126.339 Y126.339
G1 F1200 X123.66 Y123.66 E29.04345
G0 F6000 X123.66 Y123.094
G1 F1200 X126.339 Y125.773 E29.16947
G0 F6000 X126.339 Y125.208
G1 F1200 X123.66 Y122.528 E29.2955
G0 F6000 X123.66 Y121.963
G1 F1200 X126.339 Y124.642 E29.42151
G0 F6000 X126.339 Y124.076
G1 F1200 X123.659 Y121.396 E29.54757
G0 F6000 X123.659 Y120.831
G1 F1200 X126.339 Y123.511 E29.67363
G0 F6000 X126.339 Y122.945
G1 F1200 X123.658 Y120.264 E29.79974
G0 F6000 X123.658 Y119.699
G1 F1200 X126.339 Y122.379 E29.92582
G0 F6000 X126.339 Y121.813
G1 F1200 X123.535 Y119.01 E30.05769
G0 F6000 X122.988 Y118.463
G1 F1200 X118.188 Y113.663 E30.28346
G0 F6000 X117.622 Y113.663
G1 F1200 X122.296 Y118.337 E30.50332
G0 F6000 X121.731 Y118.337
G1 F1200 X117.056 Y113.662 E30.72321
G0 F6000 X116.49 Y113.662
G1 F1200 X121.165 Y118.337 E30.94311
G0 F6000 X120.599 Y118.337
G1 F1200 X115.925 Y113.662 E31.16298
G0 F6000 X115.359 Y113.662
G1 F1200 X120.034 Y118.337 E31.38288
G0 F6000 X119.469 Y118.337
G1 F1200 X114.793 Y113.662 E31.6028
G0 F6000 X114.228 Y113.662
G1 F1200 X118.903 Y118.337 E31.8227
G0 F6000 X118.337 Y118.337
G1 F1200 X113.662 Y113.662 E32.0426
G0 F6000 X113.096 Y113.662
G1 F1200 X117.772 Y118.337 E32.26252
G0 F6000 X117.207 Y118.338
G1 F1200 X112.531 Y113.662 E32.48247
G0 F6000 X112.531 Y113.203
G0 X112.116 Y112.958
G0 X111.797 Y112.473
G0 X111.341 Y112.473
G1 F1200 X108.66 Y109.791 E32.60859
G0 F6000 X108.66 Y109.226
G1 F1200 X111.341 Y111.907 E32.7347
G0 F6000 X111.341 Y111.341
G1 F1200 X108.66 Y108.66 E32.86081
G0 F6000 X108.66 Y108.094
G1 F1200 X111.341 Y110.776 E32.98694
G0 F6000 X111.341 Y110.209
G1 F1200 X108.66 Y107.529 E33.11302
G0 F6000 X108.66 Y106.963
G1 F1200 X111.341 Y109.643 E33.2391
G0 F6000 X111.341 Y109.078
G1 F1200 X108.66 Y106.397 E33.36521
G0 F6000 X108.66 Y105.831
G1 F1200 X111.34 Y108.511 E33.49127
G0 F6000 X111.34 Y107.946
G1 F1200 X108.66 Y105.266 E33.61733
G0 F6000 X108.66 Y104.7
G1 F1200 X111.34 Y107.38 E33.74338
G0 F6000 X111.34 Y106.814
G1 F1200 X108.66 Y104.134 E33.86944
G0 F6000 X108.66 Y103.569
G1 F1200 X111.339 Y106.248 E33.99546
G0 F6000 X111.339 Y105.682
G1 F1200 X108.66 Y103.003 E34.12147
G0 F6000 X108.66 Y102.437
G1 F1200 X111.339 Y105.117 E34.2475
G0 F6000 X111.338 Y104.55
G1 F1200 X108.66 Y101.872 E34.37347
G0 F6000 X108.66 Y101.306
G1 F1200 X111.338 Y103.985 E34.49946
G0 F6000 X111.338 Y103.419
G1 F1200 X108.66 Y100.74 E34.62544
G0 F6000 X108.66 Y100.175
G1 F1200 X111.338 Y102.853 E34.75141
G0 F6000 X111.338 Y102.287
G1 F1200 X108.66 Y99.609 E34.87737
G0 F6000 X108.66 Y99.043
G1 F1200 X111.338 Y101.721 E35.00334
G0 F6000 X111.338 Y101.155
G1 F1200 X108.843 Y98.661 E35.12067
G0 F6000 X109.409 Y98.661
G1 F1200 X111.337 Y100.589 E35.21136
G0 F6000 X111.337 Y100.023
G1 F1200 X109.974 Y98.661 E35.27545
G0 F6000 X110.54 Y98.661
G1 F1200 X111.337 Y99.458 E35.31294
G0 F6000 X111.337 Y98.892
G1 F1200 X111.106 Y98.661 E35.3238
G0 F6000 X111.106 Y98.201
G0 X108.273 Y98.273
G0 X108.201 Y110.357
G0 X108.66 Y110.357
G1 F1200 X116.641 Y118.338 E35.6992
G0 F6000 X116.075 Y118.338
G1 F1200 X108.66 Y110.923 E36.04798
G0 F6000 X108.66 Y111.488
G1 F1200 X115.51 Y118.338 E36.37019
G0 F6000 X114.945 Y118.339
G1 F1200 X108.66 Y112.054 E36.66581
G0 F6000 X108.66 Y112.62
G1 F1200 X114.379 Y118.339 E36.93482
G0 F6000 X113.813 Y118.339
G1 F1200 X108.66 Y113.185 E37.17722
G0 F6000 X108.66 Y113.751
G1 F1200 X113.248 Y118.339 E37.39303
G0 F6000 X112.682 Y118.339
G1 F1200 X108.66 Y114.317 E37.58221
G0 F6000 X108.66 Y114.882
G1 F1200 X112.166 Y118.389 E37.74714
G0 F6000 X111.797 Y118.586
G1 F1200 X108.66 Y115.448 E37.89472
G0 F6000 X108.66 Y116.014
G1 F1200 X111.531 Y118.885 E38.02977
G0 F6000 X111.367 Y119.286
G1 F1200 X108.66 Y116.579 E38.15709
G0 F6000 X108.66 Y117.145
G1 F1200 X111.342 Y119.827 E38.28325
G0 F6000 X111.342 Y120.393
G1 F1200 X108.66 Y117.711 E38.4094
G0 F6000 X108.66 Y118.277
G1 F1200 X111.342 Y120.959 E38.53555
G0 F6000 X111.342 Y121.524
G1 F1200 X108.66 Y118.842 E38.66171
G0 F6000 X108.66 Y119.408
G1 F1200 X111.342 Y122.09 E38.78786
G0 F6000 X111.342 Y122.656
G1 F1200 X108.66 Y119.974 E38.91401
G0 F6000 X108.66 Y120.539
G1 F1200 X111.342 Y123.221 E39.04017
G0 F6000 X111.342 Y123.787
G1 F1200 X108.66 Y121.105 E39.16632
G0 F6000 X108.66 Y121.671
G1 F1200 X111.342 Y124.353 E39.29247
G0 F6000 X111.341 Y124.918
G1 F1200 X108.66 Y122.236 E39.4186
G0 F6000 X108.66 Y122.802
G1 F1200 X111.341 Y125.483 E39.54471
G0 F6000 X111.341 Y126.049
G1 F1200 X108.66 Y123.368 E39.67081
G0 F6000 X108.66 Y123.933
G1 F1200 X111.341 Y126.615 E39.79694
G0 F6000 X111.341 Y127.18
G1 F1200 X108.66 Y124.499 E39.92305
G0 F6000 X108.66 Y125.065
G1 F1200 X111.341 Y127.746 E40.04916
G0 F6000 X111.341 Y128.312
G1 F1200 X108.66 Y125.63 E40.17529
G0 F6000 X108.66 Y126.196
G1 F1200 X111.341 Y128.877 E40.30139
G0 F6000 X111.341 Y129.443
G1 F1200 X108.66 Y126.762 E40.4275
G1 F2700 E35.4275
G0 F6000 X108.201 Y126.762
G0 X108.273 Y98.273
G0 X111.725 Y98.273
G0 X112.065 Y113.129
G0 X118.754 Y113.203
G1 F2700 E40.4275
G0 F6000 X118.754 Y113.663
G1 F1200 X126.339 Y121.248 E40.78427
G0 F6000 X126.339 Y120.682
G1 F1200 X119.32 Y113.663 E41.11442
G0 F6000 X119.885 Y113.663
G1 F1200 X126.339 Y120.116 E41.41798
G0 F6000 X126.339 Y119.551
G1 F1200 X120.451 Y113.663 E41.69493
G0 F6000 X121.017 Y113.663
G1 F1200 X126.339 Y118.985 E41.94526
G0 F6000 X126.339 Y118.419
G1 F1200 X121.582 Y113.663 E42.16899
G0 F6000 X122.148 Y113.663
G1 F1200 X126.339 Y117.854 E42.36612
G0 F6000 X126.339 Y117.288
G1 F1200 X122.683 Y113.632 E42.53809
G0 F6000 X123.105 Y113.489
G1 F1200 X126.339 Y116.722 E42.69019
G0 F6000 X126.339 Y116.157
G1 F1200 X123.413 Y113.231 E42.82782
G0 F6000 X123.606 Y112.858
G1 F1200 X126.339 Y115.591 E42.95637
G0 F6000 X126.339 Y115.025
G1 F1200 X123.658 Y112.345 E43.08245
G0 F6000 X123.658 Y111.779
G1 F1200 X126.339 Y114.46 E43.20856
G0 F6000 X126.339 Y113.894
G1 F1200 X123.658 Y111.213 E43.33466
G0 F6000 X123.658 Y110.648
G1 F1200 X126.339 Y113.328 E43.46074
G0 F6000 X126.339 Y112.763
G1 F1200 X123.659 Y110.083 E43.5868
G0 F6000 X123.659 Y109.517
G1 F1200 X126.339 Y112.197 E43.71286
G0 F6000 X126.339 Y111.631
G1 F1200 X123.659 Y108.951 E43.83892
G0 F6000 X123.659 Y108.386
G1 F1200 X126.339 Y111.065 E43.96496
G0 F6000 X126.339 Y110.5
G1 F1200 X123.66 Y107.821 E44.09097
G0 F6000 X123.66 Y107.255
G1 F1200 X126.339 Y109.934 E44.21698
G0 F6000 X126.339 Y109.368
G1 F1200 X123.66 Y106.689 E44.34299
G0 F6000 X123.66 Y106.123
G1 F1200 X126.339 Y108.803 E44.46903
G0 F6000 X126.339 Y108.237
G1 F1200 X123.66 Y105.559 E44.59502
G0 F6000 X123.66 Y104.993
G1 F1200 X126.339 Y107.671 E44.721
G0 F6000 X126.339 Y107.106
G1 F1200 X123.66 Y104.427 E44.84702
G0 F6000 X123.66 Y103.861
G1 F1200 X126.339 Y106.54 E44.97303
G0 F6000 X126.339 Y105.974
G1 F1200 X123.661 Y103.296 E45.09899
G0 F6000 X123.661 Y102.731
G1 F1200 X126.339 Y105.409 E45.22496
G0 F6000 X126.339 Y104.843
G1 F1200 X123.661 Y102.165 E45.35092
G0 F6000 X123.661 Y101.599
G1 F1200 X126.339 Y104.277 E45.47689
G0 F6000 X126.339 Y103.712
G1 F1200 X123.661 Y101.034 E45.60285
G0 F6000 X123.662 Y100.469
G1 F1200 X126.339 Y103.146 E45.72877
G0 F6000 X126.339 Y102.58
G1 F1200 X123.662 Y99.903 E45.85469
G0 F6000 X123.662 Y99.337
G1 F1200 X126.339 Y102.015 E45.98063
G0 F6000 X126.339 Y101.449
G1 F1200 X123.662 Y98.772 E46.10655
G0 F6000 X124.117 Y98.661
G1 F1200 X126.339 Y100.883 E46.21106
G0 F6000 X126.339 Y100.317
G1 F1200 X124.682 Y98.661 E46.28898
G0 F6000 X125.248 Y98.661
G1 F1200 X126.339 Y99.752 E46.3403
G0 F6000 X126.339 Y99.186
G1 F1200 X125.814 Y98.661 E46.36499
G1 F2700 E41.36499
;MESH:NONMESH
G0 F300 X125.814 Y98.661 Z0.4
G0 F6000 X125.814 Y98.201
G0 X123.276 Y98.273
G0 X122.931 Y112.93
G0 X112.823 Y112.931
G0 X112.497 Y113.303
G0 X112.497 Y118.716
G0 X112.357 Y130.086
;TIME_ELAPSED:91.593785
;LAYER:1
M106 S85
;TYPE:WALL-INNER
;MESH:LETRA A.stl
G1 F2700 E46.36499
G1 F1350 X112.116 Y129.967 E46.37393
G1 X112.005 Y129.847 E46.37937
G1 X111.897 Y129.575 E46.3891
G1 X111.897 Y119.497 E46.7243
G1 X111.932 Y119.293 E46.73118
G1 X112.027 Y119.122 E46.73769
G1 X112.156 Y119.003 E46.74353
G1 X112.444 Y118.899 E46.75371
G1 X122.578 Y118.897 E47.09077
G1 X122.845 Y119.003 E47.10032
G1 X122.973 Y119.122 E47.10614
G1 X123.068 Y119.293 E47.11264
G1 X123.104 Y119.497 E47.11953
G1 X123.104 Y129.502 E47.4523
G1 X123.075 Y129.687 E47.45853
G1 X122.995 Y129.847 E47.46448
G1 X122.762 Y130.044 E47.47463
G1 X122.582 Y130.102 E47.48092
G1 X112.497 Y130.102 E47.81635
G1 X112.357 Y130.086 E47.82103
G0 F7500 X112.37 Y129.657
;TYPE:WALL-OUTER
G1 F1350 X112.299 Y129.537 E47.82567
G1 X112.297 Y119.443 E48.1614
