;FLAVOR:Marlin
;TIME:609
;Filament used: 0.352477m
;Layer height: 0.2
;MINX:107.7
;MINY:97.7
;MINZ:0.2
;MAXX:127.3
;MAXY:137.3
;MAXZ:2
;Generated with Cura_SteamEngine 5.2.2
M140 S50
M105
M190 S50
M104 S200
M105
M109 S200
M82 ;absolute extrusion mode
; Ender 3 Custom Start G-code
G92 E0 ; Reset Extruder
G28 ; Home all axes
G1 Z2.0 F3000 ; Move Z Axis up little to prevent scratching of Heat Bed
G1 X0.1 Y20 Z0.3 F5000.0 ; Move to start position
G1 X0.1 Y200.0 Z0.3 F1500.0 E15 ; Draw the first line
G1 X0.4 Y200.0 Z0.3 F5000.0 ; Move to side a little
G1 X0.4 Y20 Z0.3 F1500.0 E30 ; Draw the second line
G92 E0 ; Reset Extruder
G1 Z2.0 F3000 ; Move Z Axis up little to prevent scratching of Heat Bed
G1 X5 Y20 Z0.3 F5000.0 ; Move over to prevent blob squish
G92 E0
G92 E0
G1 F2700 E-5
;LAYER_COUNT:10
;LAYER:0
M107
;MESH:LETRA S.stl
G0 F6000 X108.1 Y136.9 Z0.2
;TYPE:WALL-INNER
G1 F2700 E0
G1 F1200 X126.9 Y136.9 E0.62529
G1 X126.9 Y135.002 E0.68842
G1 X126.9 Y133.103 E0.75158
G1 X112.497 Y133.103 E1.23062
G1 X112.189 Y133.019 E1.24124
G1 X111.981 Y132.811 E1.25103
G1 X111.897 Y132.615 E1.25812
G1 X111.897 Y122.498 E1.59461
G1 X111.929 Y122.301 E1.60125
G1 X112.019 Y122.135 E1.60753
G1 X112.14 Y122.015 E1.6132
G1 X112.421 Y121.898 E1.62332
G1 X126.9 Y121.898 E2.1049
G1 X126.9 Y98.1 E2.89642
G1 X108.1 Y98.1 E3.52171
G1 X108.1 Y102.898 E3.68129
G1 X122.622 Y102.898 E4.1643
G1 X122.824 Y102.991 E4.17169
G1 X122.961 Y103.11 E4.17773
G1 X123.064 Y103.285 E4.18448
G1 X123.102 Y103.498 E4.19168
G1 X123.102 Y115.576 E4.5934
G1 X122.98 Y115.866 E4.60386
G1 X122.859 Y115.986 E4.60953
G1 X122.579 Y116.103 E4.61962
G1 X108.101 Y116.104 E5.10116
G1 X108.1 Y136.9 E5.79284
G0 F6000 X107.7 Y137.3
;TYPE:WALL-OUTER
G1 F1200 X127.3 Y137.3 E6.44474
G1 X127.3 Y135.002 E6.52117
G1 X127.3 Y132.703 E6.59763
G1 X112.454 Y132.703 E7.09141
G1 X112.355 Y132.645 E7.09523
G1 X112.299 Y132.538 E7.09925
G1 X112.297 Y122.445 E7.43494
G1 X112.378 Y122.337 E7.43943
G1 X112.462 Y122.3 E7.44248
G1 X127.3 Y122.298 E7.936
G1 X127.3 Y97.7 E8.75413
G1 X107.7 Y97.7 E9.40603
G1 X107.7 Y103.298 E9.59222
G1 X122.543 Y103.298 E10.0859
G1 X122.655 Y103.368 E10.09029
G1 X122.702 Y103.447 E10.09335
G1 X122.7 Y115.538 E10.4955
G1 X122.662 Y115.624 E10.49863
G1 X122.537 Y115.701 E10.50351
G1 X107.701 Y115.704 E10.99696
G1 X107.7 Y137.3 E11.71524
G0 F6000 X107.97 Y137.03
G0 X108.461 Y136.8
G0 X108.461 Y136.54
;TYPE:SKIN
G1 F1200 X126.54 Y136.54 E12.31655
G1 X126.54 Y135.002 E12.36771
G1 X126.54 Y133.463 E12.41889
G1 X112.476 Y133.462 E12.88666
G1 X112.263 Y133.434 E12.89381
G1 X111.994 Y133.327 E12.90344
G1 X111.701 Y133.034 E12.91722
G1 X111.565 Y132.74 E12.92799
G1 X111.538 Y132.529 E12.93507
G1 X111.539 Y122.468 E13.2697
G1 X111.586 Y122.178 E13.27947
G1 X111.75 Y121.894 E13.29038
G1 X111.963 Y121.704 E13.29987
G1 X112.358 Y121.54 E13.3141
G1 X126.54 Y121.538 E13.78579
G1 X126.54 Y98.46 E14.55337
G1 X108.46 Y98.46 E15.15471
G1 X108.46 Y102.538 E15.29035
G1 X122.524 Y102.54 E15.75812
G1 X122.808 Y102.589 E15.7677
G1 X123.017 Y102.687 E15.77538
G1 X123.242 Y102.878 E15.7852
G1 X123.402 Y103.156 E15.79587
G1 X123.459 Y103.463 E15.80625
G1 X123.46 Y115.632 E16.21099
G1 X123.277 Y116.082 E16.22715
G1 X123.036 Y116.297 E16.23789
G1 X122.641 Y116.461 E16.25212
G1 X108.462 Y116.465 E16.72371
G1 X108.461 Y136.54 E17.39141
G0 F6000 X109.186 Y136.339
G1 F1200 X108.66 Y135.813 E17.41615
G0 F6000 X108.66 Y135.247
G1 F1200 X109.752 Y136.339 E17.46752
G0 F6000 X110.317 Y136.339
G1 F1200 X108.66 Y134.681 E17.54548
G0 F6000 X108.66 Y134.116
G1 F1200 X110.883 Y136.339 E17.65004
G0 F6000 X111.449 Y136.339
G1 F1200 X108.66 Y133.55 E17.78123
G0 F6000 X108.66 Y132.984
G1 F1200 X112.014 Y136.339 E17.93901
G0 F6000 X112.58 Y136.339
G1 F1200 X108.66 Y132.419 E18.1234
G0 F6000 X108.66 Y131.853
G1 F1200 X113.146 Y136.339 E18.33441
G0 F6000 X113.711 Y136.339
G1 F1200 X108.66 Y131.287 E18.57201
G0 F6000 X108.66 Y130.722
G1 F1200 X114.277 Y136.339 E18.83622
G0 F6000 X114.843 Y136.339
G1 F1200 X112.075 Y133.571 E18.96642
G0 F6000 X112.729 Y133.66
G1 F1200 X115.409 Y136.339 E19.09245
G0 F6000 X115.974 Y136.339
G1 F1200 X113.295 Y133.66 E19.21847
G0 F6000 X113.861 Y133.66
G1 F1200 X116.54 Y136.339 E19.34448
G0 F6000 X117.106 Y136.339
G1 F1200 X114.426 Y133.66 E19.47051
G0 F6000 X114.992 Y133.66
G1 F1200 X117.671 Y136.339 E19.59653
G0 F6000 X118.237 Y136.339
G1 F1200 X115.558 Y133.66 E19.72254
G0 F6000 X116.124 Y133.66
G1 F1200 X118.803 Y136.339 E19.84855
G0 F6000 X119.368 Y136.339
G1 F1200 X116.69 Y133.66 E19.97454
G0 F6000 X117.255 Y133.66
G1 F1200 X119.934 Y136.339 E20.10055
G0 F6000 X120.5 Y136.339
G1 F1200 X117.821 Y133.66 E20.22656
G0 F6000 X118.387 Y133.66
G1 F1200 X121.065 Y136.339 E20.35255
G0 F6000 X121.631 Y136.339
G1 F1200 X118.953 Y133.66 E20.47854
G0 F6000 X119.519 Y133.661
G1 F1200 X122.197 Y136.339 E20.6045
G0 F6000 X122.762 Y136.339
G1 F1200 X120.085 Y133.661 E20.73045
G0 F6000 X120.65 Y133.661
G1 F1200 X123.328 Y136.339 E20.85641
G0 F6000 X123.894 Y136.339
G1 F1200 X121.216 Y133.661 E20.98238
G0 F6000 X121.782 Y133.661
G1 F1200 X124.459 Y136.339 E21.10832
G0 F6000 X125.025 Y136.339
G1 F1200 X122.347 Y133.661 E21.23428
G0 F6000 X122.914 Y133.662
G1 F1200 X125.591 Y136.339 E21.3602
G0 F6000 X126.157 Y136.339
G1 F1200 X123.479 Y133.662 E21.48614
G0 F6000 X124.045 Y133.662
G1 F1200 X126.339 Y135.956 E21.59404
G0 F6000 X126.339 Y135.39
G1 F1200 X124.611 Y133.662 E21.67532
G0 F6000 X125.176 Y133.662
G1 F1200 X126.339 Y134.824 E21.73
G0 F6000 X126.339 Y134.259
G1 F1200 X125.742 Y133.662 E21.75808
G1 F2700 E16.75808
G0 F6000 X125.742 Y133.203
G0 X112.069 Y132.931
G0 X112.069 Y122.07
G0 X125.863 Y121.798
G1 F2700 E21.75808
G0 F6000 X125.863 Y121.338
G1 F1200 X121.183 Y116.658 E21.97822
G0 F6000 X120.618 Y116.659
G1 F1200 X125.297 Y121.338 E22.1983
G0 F6000 X124.732 Y121.338
G1 F1200 X120.053 Y116.659 E22.41839
G0 F6000 X119.488 Y116.659
G1 F1200 X124.166 Y121.338 E22.63845
G0 F6000 X123.601 Y121.338
G1 F1200 X118.922 Y116.659 E22.85854
G0 F6000 X118.356 Y116.659
G1 F1200 X123.035 Y121.338 E23.07862
G0 F6000 X122.47 Y121.338
G1 F1200 X117.791 Y116.66 E23.29869
G0 F6000 X117.226 Y116.66
G1 F1200 X121.904 Y121.338 E23.51872
G0 F6000 X121.339 Y121.339
G1 F1200 X116.66 Y116.66 E23.73881
G0 F6000 X116.095 Y116.661
G1 F1200 X120.773 Y121.339 E23.95885
G0 F6000 X120.208 Y121.339
G1 F1200 X115.529 Y116.661 E24.17891
G0 F6000 X114.964 Y116.661
G1 F1200 X119.642 Y121.339 E24.39895
G0 F6000 X119.077 Y121.34
G1 F1200 X114.399 Y116.662 E24.61899
G0 F6000 X113.833 Y116.662
G1 F1200 X118.511 Y121.34 E24.83903
G0 F6000 X117.946 Y121.34
G1 F1200 X113.268 Y116.662 E25.05907
G0 F6000 X112.702 Y116.662
G1 F1200 X117.38 Y121.34 E25.27911
G0 F6000 X116.815 Y121.34
G1 F1200 X112.137 Y116.662 E25.49914
G0 F6000 X111.572 Y116.663
G1 F1200 X116.249 Y121.34 E25.71914
G0 F6000 X115.684 Y121.34
G1 F1200 X111.006 Y116.663 E25.93915
G0 F6000 X110.44 Y116.663
G1 F1200 X115.118 Y121.34 E26.15917
G0 F6000 X114.553 Y121.341
G1 F1200 X109.875 Y116.664 E26.37918
G0 F6000 X109.31 Y116.664
G1 F1200 X113.987 Y121.341 E26.59917
G0 F6000 X113.422 Y121.341
G1 F1200 X108.744 Y116.664 E26.81919
G0 F6000 X108.661 Y117.147
G1 F1200 X112.856 Y121.341 E27.01648
G0 F6000 X112.292 Y121.343
G1 F1200 X108.661 Y117.712 E27.18728
G0 F6000 X108.661 Y118.278
G1 F1200 X111.896 Y121.513 E27.33944
G0 F6000 X111.594 Y121.776
G1 F1200 X108.661 Y118.844 E27.47738
G0 F6000 X108.661 Y119.409
G1 F1200 X111.388 Y122.136 E27.60565
G0 F6000 X111.337 Y122.651
G1 F1200 X108.661 Y119.975 E27.73152
G0 F6000 X108.661 Y120.541
G1 F1200 X111.337 Y123.216 E27.85736
G0 F6000 X111.337 Y123.782
G1 F1200 X108.661 Y121.106 E27.98323
G0 F6000 X108.661 Y121.672
G1 F1200 X111.337 Y124.348 E28.10911
G0 F6000 X111.337 Y124.913
G1 F1200 X108.661 Y122.238 E28.23495
G0 F6000 X108.661 Y122.803
G1 F1200 X111.338 Y125.48 E28.36087
G0 F6000 X111.338 Y126.046
G1 F1200 X108.661 Y123.368 E28.48681
G0 F6000 X108.661 Y123.934
G1 F1200 X111.338 Y126.611 E28.61273
G0 F6000 X111.338 Y127.177
G1 F1200 X108.661 Y124.5 E28.73865
G0 F6000 X108.661 Y125.065
G1 F1200 X111.338 Y127.743 E28.86459
G0 F6000 X111.338 Y128.309
G1 F1200 X108.661 Y125.631 E28.99053
G0 F6000 X108.661 Y126.197
G1 F1200 X111.338 Y128.875 E29.11647
G0 F6000 X111.338 Y129.44
G1 F1200 X108.661 Y126.763 E29.24239
G0 F6000 X108.661 Y127.328
G1 F1200 X111.338 Y130.006 E29.36833
G0 F6000 X111.339 Y130.572
G1 F1200 X108.661 Y127.894 E29.4943
G0 F6000 X108.661 Y128.46
G1 F1200 X111.339 Y131.138 E29.62026
G0 F6000 X111.339 Y131.704
G1 F1200 X108.661 Y129.025 E29.74625
G0 F6000 X108.661 Y129.591
G1 F1200 X111.339 Y132.269 E29.87221
G0 F6000 X111.425 Y132.921
G1 F1200 X108.66 Y130.156 E30.00227
G1 F2700 E25.00227
G0 F6000 X108.201 Y130.156
G0 X108.272 Y136.728
G0 X126.728 Y136.728
G0 X126.728 Y133.275
G0 X111.959 Y133.041
G0 X112.069 Y122.07
G0 X126.728 Y121.726
G0 X126.728 Y98.272
G0 X108.272 Y98.272
G0 X108.272 Y102.726
G0 X123.083 Y103.006
G0 X122.954 Y116.116
G0 X121.749 Y116.203
G1 F2700 E30.00227
G0 F6000 X121.749 Y116.658
G1 F1200 X126.339 Y121.248 E30.21817
G0 F6000 X126.339 Y120.682
G1 F1200 X122.315 Y116.658 E30.40745
G0 F6000 X122.826 Y116.604
G1 F1200 X126.339 Y120.116 E30.57267
G0 F6000 X126.339 Y119.551
G1 F1200 X123.198 Y116.41 E30.72041
G0 F6000 X123.475 Y116.121
G1 F1200 X126.339 Y118.985 E30.85512
G0 F6000 X126.339 Y118.419
G1 F1200 X123.643 Y115.723 E30.98193
G0 F6000 X123.656 Y115.171
G1 F1200 X126.339 Y117.854 E31.10813
G0 F6000 X126.339 Y117.288
G1 F1200 X123.656 Y114.605 E31.23433
G0 F6000 X123.656 Y114.04
G1 F1200 X126.339 Y116.722 E31.36051
G0 F6000 X126.339 Y116.157
G1 F1200 X123.657 Y113.475 E31.48666
G0 F6000 X123.657 Y112.909
G1 F1200 X126.339 Y115.591 E31.61282
G0 F6000 X126.339 Y115.025
G1 F1200 X123.657 Y112.343 E31.73897
G0 F6000 X123.658 Y111.778
G1 F1200 X126.339 Y114.46 E31.8651
G0 F6000 X126.339 Y113.894
G1 F1200 X123.658 Y111.213 E31.99121
G0 F6000 X123.658 Y110.647
G1 F1200 X126.339 Y113.328 E32.11731
G0 F6000 X126.339 Y112.763
G1 F1200 X123.658 Y110.082 E32.24342
G0 F6000 X123.658 Y109.516
G1 F1200 X126.339 Y112.197 E32.36952
G0 F6000 X126.339 Y111.631
G1 F1200 X123.658 Y108.951 E32.49561
G0 F6000 X123.659 Y108.386
G1 F1200 X126.339 Y111.065 E32.62164
G0 F6000 X126.339 Y110.5
G1 F1200 X123.659 Y107.82 E32.7477
G0 F6000 X123.659 Y107.254
G1 F1200 X126.339 Y109.934 E32.87376
G0 F6000 X126.339 Y109.368
G1 F1200 X123.66 Y106.689 E32.99977
G0 F6000 X123.66 Y106.123
G1 F1200 X126.339 Y108.803 E33.12581
G0 F6000 X126.339 Y108.237
G1 F1200 X123.66 Y105.558 E33.25182
G0 F6000 X123.66 Y104.993
G1 F1200 X126.339 Y107.671 E33.37781
G0 F6000 X126.339 Y107.106
G1 F1200 X123.66 Y104.427 E33.50382
G0 F6000 X123.66 Y103.861
G1 F1200 X126.339 Y106.54 E33.62983
G0 F6000 X126.339 Y105.974
G1 F1200 X123.624 Y103.259 E33.75754
G0 F6000 X123.172 Y103.339
G0 X122.667 Y102.822
G0 X122.733 Y102.369
G1 F1200 X119.025 Y98.66 E33.93197
G0 F6000 X119.59 Y98.66
G1 F1200 X126.339 Y105.409 E34.24942
G0 F6000 X126.339 Y104.843
G1 F1200 X120.156 Y98.66 E34.54025
G0 F6000 X120.722 Y98.66
G1 F1200 X126.339 Y104.277 E34.80446
G0 F6000 X126.339 Y103.712
G1 F1200 X121.287 Y98.66 E35.04209
G0 F6000 X121.853 Y98.66
G1 F1200 X126.339 Y103.146 E35.2531
G0 F6000 X126.339 Y102.58
G1 F1200 X122.419 Y98.66 E35.43748
G0 F6000 X122.984 Y98.66
G1 F1200 X126.339 Y102.015 E35.59529
G0 F6000 X126.339 Y101.449
G1 F1200 X123.55 Y98.66 E35.72648
G0 F6000 X124.116 Y98.66
G1 F1200 X126.339 Y100.883 E35.83104
G0 F6000 X126.339 Y100.317
G1 F1200 X124.682 Y98.66 E35.90898
G0 F6000 X125.247 Y98.66
G1 F1200 X126.339 Y99.752 E35.96035
G0 F6000 X126.339 Y99.186
G1 F1200 X125.813 Y98.66 E35.98509
G1 F2700 E30.98509
G0 F6000 X125.813 Y98.2
G0 X108.272 Y98.272
G0 X108.272 Y102.726
G0 X122.136 Y102.798
G1 F2700 E35.98509
G0 F6000 X122.136 Y102.337
G1 F1200 X118.459 Y98.66 E36.15804
G0 F6000 X117.893 Y98.66
G1 F1200 X121.57 Y102.337 E36.331
G0 F6000 X121.005 Y102.337
G1 F1200 X117.328 Y98.66 E36.50395
G0 F6000 X116.762 Y98.66
G1 F1200 X120.439 Y102.337 E36.67691
G0 F6000 X119.873 Y102.337
G1 F1200 X116.196 Y98.66 E36.84986
G0 F6000 X115.631 Y98.66
G1 F1200 X119.308 Y102.337 E37.02282
G0 F6000 X118.742 Y102.337
G1 F1200 X115.065 Y98.66 E37.19577
G0 F6000 X114.499 Y98.66
G1 F1200 X118.176 Y102.337 E37.36873
G0 F6000 X117.61 Y102.337
G1 F1200 X113.933 Y98.66 E37.54168
G0 F6000 X113.368 Y98.66
G1 F1200 X117.045 Y102.337 E37.71464
G0 F6000 X116.479 Y102.337
G1 F1200 X112.802 Y98.66 E37.88759
G0 F6000 X112.236 Y98.66
G1 F1200 X115.913 Y102.337 E38.06055
G0 F6000 X115.348 Y102.337
G1 F1200 X111.671 Y98.66 E38.2335
G0 F6000 X111.105 Y98.66
G1 F1200 X114.782 Y102.337 E38.40645
G0 F6000 X114.216 Y102.337
G1 F1200 X110.539 Y98.66 E38.57941
G0 F6000 X109.974 Y98.66
G1 F1200 X113.651 Y102.337 E38.75236
G0 F6000 X113.085 Y102.337
G1 F1200 X109.408 Y98.66 E38.92532
G0 F6000 X108.842 Y98.66
G1 F1200 X112.519 Y102.337 E39.09827
G0 F6000 X111.954 Y102.337
G1 F1200 X108.659 Y99.043 E39.25324
G0 F6000 X108.659 Y99.608
G1 F1200 X111.388 Y102.337 E39.3816
G0 F6000 X110.822 Y102.337
G1 F1200 X108.659 Y100.174 E39.48334
G0 F6000 X108.659 Y100.74
G1 F1200 X110.257 Y102.337 E39.55848
G0 F6000 X109.691 Y102.337
G1 F1200 X108.659 Y101.305 E39.60703
G0 F6000 X108.659 Y101.871
G1 F1200 X109.125 Y102.337 E39.62894
G1 F2700 E34.62894
;MESH:NONMESH
G0 F300 X109.125 Y102.337 Z0.4
G0 F6000 X109.125 Y102.798
G0 X122.93 Y103.07
G0 X122.93 Y115.931
G0 X108.273 Y116.276
G0 X108.1 Y136.9
;TIME_ELAPSED:82.658672
;LAYER:1
M106 S85
;TYPE:WALL-INNER
;MESH:LETRA S.stl
G1 F2700 E39.62894
G1 F1350 X126.9 Y136.9 E40.25424
G1 X126.9 Y135.002 E40.31736
G1 X126.9 Y133.103 E40.38052
G1 X112.497 Y133.103 E40.85957
G1 X112.189 Y133.019 E40.87019
G1 X111.981 Y132.811 E40.87997
G1 X111.897 Y132.615 E40.88706
G1 X111.897 Y122.498 E41.22356
G1 X111.929 Y122.301 E41.2302
G1 X112.019 Y122.135 E41.23648
G1 X112.14 Y122.015 E41.24214
G1 X112.421 Y121.898 E41.25227
G1 X126.9 Y121.898 E41.73384
G1 X126.9 Y98.1 E42.52537
G1 X108.1 Y98.1 E43.15066
G1 X108.1 Y102.898 E43.31024
G1 X122.622 Y102.898 E43.79324
G1 X122.824 Y102.991 E43.80064
G1 X122.961 Y103.11 E43.80667
G1 X123.064 Y103.285 E43.81343
G1 X123.102 Y103.498 E43.82062
G1 X123.102 Y115.576 E44.22234
G1 X122.98 Y115.866 E44.2328
G1 X122.859 Y115.986 E44.23847
G1 X122.579 Y116.103 E44.24857
G1 X108.101 Y116.104 E44.73011
G1 X108.1 Y136.9 E45.42178
G0 F7500 X107.7 Y137.3
;TYPE:WALL-OUTER
G1 F1350 X127.3 Y137.3 E46.07368
G1 X127.3 Y135.002 E46.15011
G1 X127.3 Y132.703 E46.22658
G1 X112.454 Y132.703 E46.72036
G1 X112.355 Y132.645 E46.72418
G1 X112.299 Y132.538 E46.72819
G1 X112.297 Y122.445 E47.06389
G1 X112.378 Y122.337 E47.06838
G1 X112.462 Y122.3 E47.07143
G1 X127.3 Y122.298 E47.56494
G1 X127.3 Y97.7 E48.38308
G1 X107.7 Y97.7 E49.03497
G1 X107.7 Y103.298 E49.22116
G1 X122.543 Y103.298 E49.71485
G1 X122.655 Y103.368 E49.71924
G1 X122.702 Y103.447 E49.7223
G1 X122.7 Y115.538 E50.12444
G1 X122.662 Y115.624 E50.12757
G1 X122.537 Y115.701 E50.13245
G1 X107.701 Y115.704 E50.6259
G1 X107.7 Y137.3 E51.34419
G0 F7500 X107.97 Y137.03
G0 X108.461 Y136.8
G0 X108.461 Y136.54
;TYPE:SKIN
G1 F1350 X126.54 Y136.54 E51.9455
G1 X126.54 Y135.002 E51.99665
G1 X126.54 Y133.463 E52.04784
G1 X112.476 Y133.462 E52.51561
G1 X112.263 Y133.434 E52.52275
G1 X111.994 Y133.327 E52.53238
G1 X111.701 Y133.034 E52.54617
G1 X111.565 Y132.74 E52.55694
G1 X111.538 Y132.529 E52.56401
G1 X111.539 Y122.468 E52.89864
G1 X111.586 Y122.178 E52.90842
G1 X111.75 Y121.894 E52.91932
G1 X111.963 Y121.704 E52.92882
G1 X112.358 Y121.54 E52.94304
G1 X126.54 Y121.538 E53.41474
G1 X126.54 Y98.46 E54.18231
G1 X108.46 Y98.46 E54.78366
G1 X108.46 Y102.538 E54.91929
G1 X122.524 Y102.54 E55.38706
G1 X122.808 Y102.589 E55.39665
G1 X123.017 Y102.687 E55.40433
G1 X123.242 Y102.878 E55.41414
G1 X123.402 Y103.156 E55.42481
G1 X123.459 Y103.463 E55.4352
G1 X123.46 Y115.632 E55.83994
G1 X123.277 Y116.082 E55.8561
G1 X123.036 Y116.297 E55.86684
G1 X122.641 Y116.461 E55.88106
G1 X108.462 Y116.465 E56.35266
G1 X108.461 Y136.54 E57.02036
G0 F7500 X108.461 Y136.8
G0 X126.138 Y136.8
G0 X126.138 Y136.339
