;FLAVOR:Marlin
;TIME:664
;Filament used: 0.403076m
;Layer height: 0.2
;MINX:107.7
;MINY:97.7
;MINZ:0.2
;MAXX:127.3
;MAXY:137.3
;MAXZ:2
;Generated with Cura_SteamEngine 5.2.2
M140 S50
M105
M190 S50
M104 S200
M105
M109 S200
M82 ;absolute extrusion mode
; Ender 3 Custom Start G-code
G92 E0 ; Reset Extruder
G28 ; Home all axes
G1 Z2.0 F3000 ; Move Z Axis up little to prevent scratching of Heat Bed
G1 X0.1 Y20 Z0.3 F5000.0 ; Move to start position
G1 X0.1 Y200.0 Z0.3 F1500.0 E15 ; Draw the first line
G1 X0.4 Y200.0 Z0.3 F5000.0 ; Move to side a little
G1 X0.4 Y20 Z0.3 F1500.0 E30 ; Draw the second line
G92 E0 ; Reset Extruder
G1 Z2.0 F3000 ; Move Z Axis up little to prevent scratching of Heat Bed
G1 X5 Y20 Z0.3 F5000.0 ; Move over to prevent blob squish
G92 E0
G92 E0
G1 F2700 E-5
;LAYER_COUNT:10
;LAYER:0
M107
;MESH:LETRA O.stl
G0 F6000 X112.417 Y131.103 Z0.2
;TYPE:WALL-INNER
G1 F2700 E0
G1 F1200 X112.14 Y130.986 E0.01
G1 X112.019 Y130.866 E0.01567
G1 X111.897 Y130.576 E0.02613
G1 X111.897 Y104.498 E0.89349
G1 X111.929 Y104.301 E0.90013
G1 X112.019 Y104.135 E0.90641
G1 X112.14 Y104.015 E0.91208
G1 X112.421 Y103.898 E0.9222
G1 X122.582 Y103.898 E1.26016
G1 X122.859 Y104.014 E1.27015
G1 X122.98 Y104.135 E1.27584
G1 X123.07 Y104.301 E1.28212
G1 X123.102 Y104.498 E1.28876
G1 X123.102 Y130.576 E2.15611
G1 X122.98 Y130.866 E2.16658
G1 X122.859 Y130.986 E2.17225
G1 X122.579 Y131.103 E2.18234
G1 X112.417 Y131.103 E2.52033
G0 F6000 X112.337 Y130.624
;TYPE:WALL-OUTER
G1 F1200 X112.299 Y130.538 E2.52346
G1 X112.297 Y104.445 E3.39131
G1 X112.378 Y104.337 E3.3958
G1 X112.462 Y104.3 E3.39886
G1 X122.541 Y104.301 E3.73408
G1 X122.621 Y104.336 E3.73699
G1 X122.702 Y104.446 E3.74153
G1 X122.7 Y130.538 E4.60936
G1 X122.621 Y130.664 E4.6143
G1 X122.537 Y130.701 E4.61736
G1 X112.458 Y130.7 E4.95258
G1 X112.337 Y130.624 E4.95734
G1 F2700 E-0.04266
G0 F6000 X111.997 Y130.624
G0 X112.033 Y131.132
G0 X108.301 Y133.868
G0 X108.101 Y136.899
;TYPE:WALL-INNER
G1 F2700 E4.95734
G1 F1200 X126.9 Y136.9 E5.58259
G1 X126.9 Y101.132 E6.77224
G1 X126.9 Y98.1 E6.87309
G1 X108.1 Y98.1 E7.49838
G1 X108.101 Y136.899 E8.78884
G0 F6000 X107.701 Y137.299
;TYPE:WALL-OUTER
G1 F1200 X127.3 Y137.3 E9.4407
G1 X127.3 Y101.132 E10.64366
G1 X127.3 Y97.7 E10.7578
G1 X107.7 Y97.7 E11.4097
G1 X107.701 Y137.299 E12.72677
G0 F6000 X107.97 Y137.03
G0 X108.201 Y136.538
G0 X108.462 Y136.538
;TYPE:SKIN
G1 F1200 X126.54 Y136.54 E13.32805
G1 X126.54 Y101.141 E14.50542
G1 X126.54 Y98.46 E14.59459
G1 X108.461 Y98.461 E15.1959
G1 X108.462 Y136.538 E16.46235
G1 F2700 E11.46235
G0 F6000 X108.201 Y136.538
G0 X108.301 Y133.868
G0 X111.875 Y130.976
G0 X112.351 Y131.463
G1 F2700 E16.46235
G1 F1200 X111.924 Y131.28 E16.4778
G1 X111.714 Y131.059 E16.48794
G1 X111.58 Y130.786 E16.49806
G1 X111.539 Y130.536 E16.50648
G1 X111.539 Y104.468 E17.37351
G1 X111.586 Y104.177 E17.38331
G1 X111.748 Y103.897 E17.39407
G1 X111.966 Y103.703 E17.40378
G1 X112.357 Y103.54 E17.41787
G1 X122.65 Y103.538 E17.76021
G1 X123.034 Y103.701 E17.77409
G1 X123.249 Y103.894 E17.7837
G1 X123.413 Y104.177 E17.79458
G1 X123.46 Y104.47 E17.80445
G1 X123.46 Y130.632 E18.6746
G1 X123.277 Y131.082 E18.69075
G1 X123.036 Y131.297 E18.7015
G1 X122.643 Y131.461 E18.71566
G1 X112.351 Y131.463 E19.05797
G1 F2700 E14.05797
G0 F6000 X112.376 Y131.192
G0 X111.132 Y136.699
G0 X109.184 Y136.337
G1 F2700 E19.05797
G1 F1200 X108.661 Y135.814 E19.08257
G0 F6000 X108.661 Y135.249
G1 F1200 X109.75 Y136.337 E19.13377
G0 F6000 X110.315 Y136.337
G1 F1200 X108.661 Y134.683 E19.21157
G0 F6000 X108.661 Y134.117
G1 F1200 X110.881 Y136.337 E19.31599
G0 F6000 X111.447 Y136.337
G1 F1200 X108.661 Y133.551 E19.44704
G0 F6000 X108.661 Y132.986
G1 F1200 X112.012 Y136.337 E19.60466
G0 F6000 X112.578 Y136.337
G1 F1200 X108.661 Y132.42 E19.7889
G0 F6000 X108.661 Y131.854
G1 F1200 X113.144 Y136.337 E19.99977
G0 F6000 X113.709 Y136.337
G1 F1200 X108.661 Y131.289 E20.23721
G0 F6000 X108.661 Y130.723
G1 F1200 X114.275 Y136.337 E20.50128
G0 F6000 X114.841 Y136.337
G1 F1200 X108.661 Y130.157 E20.79197
G0 F6000 X108.661 Y129.592
G1 F1200 X115.407 Y136.337 E21.10925
G0 F6000 X115.973 Y136.337
G1 F1200 X108.661 Y129.026 E21.45316
G0 F6000 X108.661 Y128.46
G1 F1200 X116.538 Y136.337 E21.82367
G0 F6000 X117.104 Y136.337
G1 F1200 X112.428 Y131.661 E22.04362
G0 F6000 X112.994 Y131.661
G1 F1200 X117.67 Y136.337 E22.26356
G0 F6000 X118.236 Y136.337
G1 F1200 X113.559 Y131.661 E22.48353
G0 F6000 X114.124 Y131.661
G1 F1200 X118.801 Y136.337 E22.7035
G0 F6000 X119.367 Y136.337
G1 F1200 X114.69 Y131.661 E22.92347
G0 F6000 X115.256 Y131.661
G1 F1200 X119.933 Y136.337 E23.14344
G0 F6000 X120.499 Y136.338
G1 F1200 X115.821 Y131.66 E23.36348
G0 F6000 X116.386 Y131.66
G1 F1200 X121.065 Y136.338 E23.58354
G0 F6000 X121.63 Y136.338
G1 F1200 X116.952 Y131.66 E23.80358
G0 F6000 X117.517 Y131.659
G1 F1200 X122.196 Y136.338 E24.02366
G0 F6000 X122.762 Y136.338
G1 F1200 X118.083 Y131.659 E24.24375
G0 F6000 X118.648 Y131.659
G1 F1200 X123.327 Y136.338 E24.46383
G0 F6000 X123.893 Y136.338
G1 F1200 X119.214 Y131.659 E24.68392
G0 F6000 X119.779 Y131.659
G1 F1200 X124.459 Y136.338 E24.90403
G0 F6000 X125.024 Y136.338
G1 F1200 X120.345 Y131.659 E25.12412
G0 F6000 X120.911 Y131.659
G1 F1200 X125.59 Y136.338 E25.3442
G0 F6000 X126.156 Y136.338
G1 F1200 X121.475 Y131.658 E25.56436
G0 F6000 X122.041 Y131.658
G1 F1200 X126.339 Y135.956 E25.76652
G0 F6000 X126.339 Y135.39
G1 F1200 X122.607 Y131.658 E25.94206
G0 F6000 X123.031 Y131.516
G1 F1200 X126.339 Y134.824 E26.09766
G0 F6000 X126.339 Y134.259
G1 F1200 X123.356 Y131.276 E26.23797
G0 F6000 X123.561 Y130.915
G1 F1200 X126.339 Y133.693 E26.36864
G0 F6000 X126.339 Y133.127
G1 F1200 X123.656 Y130.444 E26.49484
G0 F6000 X123.656 Y129.879
G1 F1200 X126.339 Y132.562 E26.62104
G0 F6000 X126.339 Y131.996
G1 F1200 X123.656 Y129.313 E26.74724
G0 F6000 X123.656 Y128.747
G1 F1200 X126.339 Y131.43 E26.87344
G0 F6000 X126.339 Y130.864
G1 F1200 X123.656 Y128.182 E26.99962
G0 F6000 X123.656 Y127.616
G1 F1200 X126.339 Y130.299 E27.12582
G0 F6000 X126.339 Y129.733
G1 F1200 X123.656 Y127.05 E27.25202
G0 F6000 X123.657 Y126.485
G1 F1200 X126.339 Y129.167 E27.37817
G0 F6000 X126.339 Y128.602
G1 F1200 X123.657 Y125.92 E27.50433
G0 F6000 X123.657 Y125.354
G1 F1200 X126.339 Y128.036 E27.63048
G0 F6000 X126.339 Y127.47
G1 F1200 X123.657 Y124.788 E27.75663
G0 F6000 X123.657 Y124.223
G1 F1200 X126.339 Y126.905 E27.88278
G0 F6000 X126.339 Y126.339
G1 F1200 X123.657 Y123.657 E28.00894
G0 F6000 X123.658 Y123.092
G1 F1200 X126.339 Y125.773 E28.13504
G0 F6000 X126.339 Y125.208
G1 F1200 X123.658 Y122.526 E28.26117
G0 F6000 X123.658 Y121.961
G1 F1200 X126.339 Y124.642 E28.38728
G0 F6000 X126.339 Y124.076
G1 F1200 X123.658 Y121.395 E28.51339
G0 F6000 X123.658 Y120.829
G1 F1200 X126.339 Y123.511 E28.63951
G0 F6000 X126.339 Y122.945
G1 F1200 X123.658 Y120.264 E28.76562
G0 F6000 X123.658 Y119.698
G1 F1200 X126.339 Y122.379 E28.89173
G0 F6000 X126.339 Y121.813
G1 F1200 X123.658 Y119.133 E29.01781
G0 F6000 X123.658 Y118.567
G1 F1200 X126.339 Y121.248 E29.14392
G0 F6000 X126.339 Y120.682
G1 F1200 X123.658 Y118.001 E29.27002
G0 F6000 X123.658 Y117.436
G1 F1200 X126.339 Y120.116 E29.3961
G0 F6000 X126.339 Y119.551
G1 F1200 X123.658 Y116.87 E29.52221
G0 F6000 X123.658 Y116.304
G1 F1200 X126.339 Y118.985 E29.64832
G0 F6000 X126.339 Y118.419
G1 F1200 X123.658 Y115.739 E29.7744
G0 F6000 X123.659 Y115.174
G1 F1200 X126.339 Y117.854 E29.90046
G0 F6000 X126.339 Y117.288
G1 F1200 X123.659 Y114.608 E30.02652
G0 F6000 X123.659 Y114.042
G1 F1200 X126.339 Y116.722 E30.15258
G0 F6000 X126.339 Y116.157
G1 F1200 X123.659 Y113.477 E30.27863
G0 F6000 X123.659 Y112.911
G1 F1200 X126.339 Y115.591 E30.40469
G0 F6000 X126.339 Y115.025
G1 F1200 X123.659 Y112.345 E30.53075
G0 F6000 X123.66 Y111.78
G1 F1200 X126.339 Y114.46 E30.65679
G0 F6000 X126.339 Y113.894
G1 F1200 X123.66 Y111.215 E30.7828
G0 F6000 X123.66 Y110.649
G1 F1200 X126.339 Y113.328 E30.90881
G0 F6000 X126.339 Y112.763
G1 F1200 X123.66 Y110.083 E31.03485
G0 F6000 X123.66 Y109.518
G1 F1200 X126.339 Y112.197 E31.16086
G0 F6000 X126.339 Y111.631
G1 F1200 X123.66 Y108.952 E31.28687
G0 F6000 X123.66 Y108.386
G1 F1200 X126.339 Y111.065 E31.41288
G0 F6000 X126.339 Y110.5
G1 F1200 X123.66 Y107.821 E31.53889
G0 F6000 X123.66 Y107.256
G1 F1200 X126.339 Y109.934 E31.66488
G0 F6000 X126.339 Y109.368
G1 F1200 X123.66 Y106.69 E31.79087
G0 F6000 X123.66 Y106.124
G1 F1200 X126.339 Y108.803 E31.91688
G0 F6000 X126.339 Y108.237
G1 F1200 X123.66 Y105.559 E32.04287
G0 F6000 X123.66 Y104.993
G1 F1200 X126.339 Y107.671 E32.16886
G0 F6000 X126.339 Y107.106
G1 F1200 X123.648 Y104.415 E32.29544
G0 F6000 X123.199 Y104.488
G0 X122.529 Y103.801
G0 X122.571 Y103.337
G1 F1200 X117.893 Y98.66 E32.51545
G0 F6000 X117.328 Y98.66
G1 F1200 X122.005 Y103.337 E32.73544
G0 F6000 X121.439 Y103.337
G1 F1200 X116.762 Y98.66 E32.95544
G0 F6000 X116.196 Y98.66
G1 F1200 X120.874 Y103.338 E33.17547
G0 F6000 X120.309 Y103.338
G1 F1200 X115.631 Y98.66 E33.39551
G0 F6000 X115.065 Y98.66
G1 F1200 X119.743 Y103.338 E33.61555
G0 F6000 X119.178 Y103.339
G1 F1200 X114.499 Y98.66 E33.83564
G0 F6000 X113.933 Y98.66
G1 F1200 X118.612 Y103.339 E34.05572
G0 F6000 X118.047 Y103.34
G1 F1200 X113.368 Y98.66 E34.27583
G0 F6000 X112.802 Y98.66
G1 F1200 X117.482 Y103.34 E34.49597
G0 F6000 X116.916 Y103.34
G1 F1200 X112.236 Y98.66 E34.7161
G0 F6000 X111.671 Y98.66
G1 F1200 X116.351 Y103.34 E34.93623
G0 F6000 X115.785 Y103.34
G1 F1200 X111.105 Y98.66 E35.15636
G0 F6000 X110.539 Y98.66
G1 F1200 X115.22 Y103.341 E35.37654
G0 F6000 X114.655 Y103.341
G1 F1200 X109.974 Y98.66 E35.59672
G0 F6000 X109.408 Y98.66
G1 F1200 X114.089 Y103.341 E35.8169
G0 F6000 X113.524 Y103.342
G1 F1200 X108.842 Y98.66 E36.03713
G0 F6000 X108.66 Y99.043
G1 F1200 X112.958 Y103.342 E36.23932
G0 F6000 X112.393 Y103.342
G1 F1200 X108.66 Y99.609 E36.41491
G0 F6000 X108.66 Y100.175
G1 F1200 X111.968 Y103.483 E36.57051
G0 F6000 X111.642 Y103.723
G1 F1200 X108.66 Y100.74 E36.71079
G0 F6000 X108.66 Y101.306
G1 F1200 X111.418 Y104.064 E36.84052
G0 F6000 X111.336 Y104.548
G1 F1200 X108.66 Y101.872 E36.96639
G0 F6000 X108.66 Y102.437
G1 F1200 X111.336 Y105.114 E37.09229
G0 F6000 X111.336 Y105.679
G1 F1200 X108.66 Y103.003 E37.21816
G0 F6000 X108.66 Y103.569
G1 F1200 X111.336 Y106.245 E37.34403
G0 F6000 X111.336 Y106.811
G1 F1200 X108.66 Y104.134 E37.46992
G0 F6000 X108.66 Y104.7
G1 F1200 X111.336 Y107.376 E37.59579
G0 F6000 X111.336 Y107.942
G1 F1200 X108.66 Y105.266 E37.72166
G0 F6000 X108.66 Y105.831
G1 F1200 X111.336 Y108.508 E37.84756
G0 F6000 X111.336 Y109.074
G1 F1200 X108.66 Y106.397 E37.97345
G0 F6000 X108.66 Y106.963
G1 F1200 X111.336 Y109.639 E38.09932
G0 F6000 X111.336 Y110.205
G1 F1200 X108.66 Y107.529 E38.2252
G0 F6000 X108.66 Y108.094
G1 F1200 X111.336 Y110.771 E38.35109
G0 F6000 X111.336 Y111.336
G1 F1200 X108.66 Y108.66 E38.47696
G0 F6000 X108.66 Y109.226
G1 F1200 X111.336 Y111.902 E38.60283
G0 F6000 X111.336 Y112.468
G1 F1200 X108.66 Y109.791 E38.72873
G0 F6000 X108.66 Y110.357
G1 F1200 X111.336 Y113.033 E38.8546
G0 F6000 X111.336 Y113.599
G1 F1200 X108.66 Y110.923 E38.98047
G0 F6000 X108.661 Y111.489
G1 F1200 X111.336 Y114.165 E39.10631
G0 F6000 X111.336 Y114.73
G1 F1200 X108.661 Y112.055 E39.23214
G0 F6000 X108.661 Y112.62
G1 F1200 X111.336 Y115.296 E39.35799
G0 F6000 X111.336 Y115.862
G1 F1200 X108.661 Y113.186 E39.48383
G0 F6000 X108.661 Y113.752
G1 F1200 X111.336 Y116.427 E39.60966
G0 F6000 X111.336 Y116.993
G1 F1200 X108.661 Y114.317 E39.7355
G0 F6000 X108.661 Y114.883
G1 F1200 X111.336 Y117.559 E39.86135
G0 F6000 X111.336 Y118.125
G1 F1200 X108.661 Y115.449 E39.9872
G0 F6000 X108.661 Y116.015
G1 F1200 X111.336 Y118.69 E40.11302
G0 F6000 X111.336 Y119.256
G1 F1200 X108.661 Y116.58 E40.23887
G0 F6000 X108.661 Y117.146
G1 F1200 X111.336 Y119.822 E40.36472
G0 F6000 X111.336 Y120.387
G1 F1200 X108.661 Y117.712 E40.49054
G0 F6000 X108.661 Y118.277
G1 F1200 X111.336 Y120.953 E40.61639
G0 F6000 X111.336 Y121.519
G1 F1200 X108.661 Y118.843 E40.74224
G0 F6000 X108.661 Y119.409
G1 F1200 X111.336 Y122.084 E40.86806
G0 F6000 X111.336 Y122.65
G1 F1200 X108.661 Y119.974 E40.99391
G0 F6000 X108.661 Y120.54
G1 F1200 X111.336 Y123.216 E41.11975
G0 F6000 X111.336 Y123.781
G1 F1200 X108.661 Y121.106 E41.24558
G0 F6000 X108.661 Y121.671
G1 F1200 X111.336 Y124.347 E41.37143
G0 F6000 X111.336 Y124.913
G1 F1200 X108.661 Y122.237 E41.49727
G0 F6000 X108.661 Y122.803
G1 F1200 X111.336 Y125.478 E41.6231
G0 F6000 X111.336 Y126.044
G1 F1200 X108.661 Y123.368 E41.74894
G0 F6000 X108.661 Y123.935
G1 F1200 X111.336 Y126.61 E41.87477
G0 F6000 X111.336 Y127.175
G1 F1200 X108.661 Y124.5 E42.00059
G0 F6000 X108.661 Y125.066
G1 F1200 X111.336 Y127.741 E42.12641
G0 F6000 X111.336 Y128.307
G1 F1200 X108.661 Y125.632 E42.25224
G0 F6000 X108.661 Y126.198
G1 F1200 X111.336 Y128.873 E42.37806
G0 F6000 X111.336 Y129.438
G1 F1200 X108.661 Y126.763 E42.50389
G0 F6000 X108.661 Y127.329
G1 F1200 X111.336 Y130.004 E42.62971
G0 F6000 X111.348 Y130.582
G1 F1200 X108.661 Y127.895 E42.7561
G1 F2700 E37.7561
G0 F6000 X108.201 Y127.895
G0 X108.272 Y98.272
G0 X126.728 Y98.272
G0 X126.8 Y106.54
G1 F2700 E42.7561
G0 F6000 X126.339 Y106.54
G1 F1200 X118.459 Y98.66 E43.12675
G0 F6000 X119.025 Y98.66
G1 F1200 X126.339 Y105.974 E43.47078
G0 F6000 X126.339 Y105.409
G1 F1200 X119.59 Y98.66 E43.78823
G0 F6000 X120.156 Y98.66
G1 F1200 X126.339 Y104.843 E44.07906
G0 F6000 X126.339 Y104.277
G1 F1200 X120.722 Y98.66 E44.34327
G0 F6000 X121.287 Y98.66
G1 F1200 X126.339 Y103.712 E44.5809
G0 F6000 X126.339 Y103.146
G1 F1200 X121.853 Y98.66 E44.7919
G0 F6000 X122.419 Y98.66
G1 F1200 X126.339 Y102.58 E44.97629
G0 F6000 X126.339 Y102.015
G1 F1200 X122.984 Y98.66 E45.1341
G0 F6000 X123.55 Y98.66
G1 F1200 X126.339 Y101.449 E45.26528
G0 F6000 X126.339 Y100.883
G1 F1200 X124.116 Y98.66 E45.36985
G0 F6000 X124.682 Y98.66
G1 F1200 X126.339 Y100.317 E45.44779
G0 F6000 X126.339 Y99.752
G1 F1200 X125.247 Y98.66 E45.49915
G0 F6000 X125.813 Y98.66
G1 F1200 X126.339 Y99.186 E45.52389
G1 F2700 E40.52389
;MESH:NONMESH
G0 F300 X126.339 Y99.186 Z0.4
G0 F6000 X126.8 Y99.186
G0 X126.7 Y131.103
G0 X123.272 Y130.639
G0 X112.417 Y131.103
;TIME_ELAPSED:89.682714
;LAYER:1
M106 S85
;TYPE:WALL-INNER
;MESH:LETRA O.stl
G1 F2700 E45.52389
G1 F1350 X112.14 Y130.986 E45.53389
G1 X112.019 Y130.866 E45.53956
G1 X111.897 Y130.576 E45.55003
G1 X111.897 Y104.498 E46.41738
G1 X111.929 Y104.301 E46.42402
G1 X112.019 Y104.135 E46.4303
G1 X112.14 Y104.015 E46.43597
G1 X112.421 Y103.898 E46.44609
G1 X122.582 Y103.898 E46.78405
G1 X122.859 Y104.014 E46.79404
G1 X122.98 Y104.135 E46.79973
G1 X123.07 Y104.301 E46.80601
G1 X123.102 Y104.498 E46.81265
G1 X123.102 Y130.576 E47.68001
G1 X122.98 Y130.866 E47.69047
G1 X122.859 Y130.986 E47.69614
G1 X122.606 Y131.095 E47.7053
G1 X122.502 Y131.103 E47.70877
G1 X112.417 Y131.103 E48.0442
G0 F7500 X112.337 Y130.624
;TYPE:WALL-OUTER
G1 F1350 X112.299 Y130.538 E48.04733
G1 X112.297 Y104.445 E48.91518
G1 X112.378 Y104.337 E48.91967
G1 X112.462 Y104.3 E48.92273
G1 X122.541 Y104.301 E49.25795
G1 X122.621 Y104.336 E49.26086
G1 X122.702 Y104.446 E49.2654
G1 X122.7 Y130.538 E50.13323
G1 X122.662 Y130.624 E50.13635
G1 X122.537 Y130.701 E50.14124
G1 X112.458 Y130.7 E50.47647
G1 X112.337 Y130.624 E50.48122
G1 F2700 E45.48122
G0 F7500 X111.997 Y130.624
G0 X112.033 Y131.132
G0 X108.301 Y133.868
G0 X108.101 Y136.899
;TYPE:WALL-INNER
G1 F2700 E50.48122
G1 F1350 X126.9 Y136.9 E51.10647
G1 X126.9 Y101.132 E52.29612
G1 X126.9 Y98.1 E52.39697
G1 X108.1 Y98.1 E53.02226
G1 X108.101 Y136.899 E54.31272
G0 F7500 X107.701 Y137.299
;TYPE:WALL-OUTER
G1 F1350 X127.3 Y137.3 E54.96458
G1 X127.3 Y101.132 E56.16754
G1 X127.3 Y97.7 E56.28169
G1 X107.7 Y97.7 E56.93358
G1 X107.701 Y137.299 E58.25065
G0 F7500 X107.97 Y137.03
G0 X108.201 Y136.538
G0 X108.462 Y136.538
;TYPE:SKIN
G1 F1350 X126.54 Y136.54 E58.85193
G1 X126.54 Y101.141 E60.0293
G1 X126.54 Y98.46 E60.11847
G1 X108.461 Y98.461 E60.71978
G1 X108.462 Y136.538 E61.98623
G1 F2700 E56.98623
G0 F7500 X108.201 Y136.538
G0 X108.301 Y133.868
G0 X111.875 Y130.976
