;FLAVOR:Marlin
;TIME:472
;Filament used: 0.306392m
;Layer height: 0.2
;MINX:107.701
;MINY:97.701
;MINZ:0.2
;MAXX:127.3
;MAXY:137.3
;MAXZ:2
;Generated with Cura_SteamEngine 5.2.2
M140 S50
M105
M190 S50
M104 S200
M105
M109 S200
M82 ;absolute extrusion mode
; Ender 3 Custom Start G-code
G92 E0 ; Reset Extruder
G28 ; Home all axes
G1 Z2.0 F3000 ; Move Z Axis up little to prevent scratching of Heat Bed
G1 X0.1 Y20 Z0.3 F5000.0 ; Move to start position
G1 X0.1 Y200.0 Z0.3 F1500.0 E15 ; Draw the first line
G1 X0.4 Y200.0 Z0.3 F5000.0 ; Move to side a little
G1 X0.4 Y20 Z0.3 F1500.0 E30 ; Draw the second line
G92 E0 ; Reset Extruder
G1 Z2.0 F3000 ; Move Z Axis up little to prevent scratching of Heat Bed
G1 X5 Y20 Z0.3 F5000.0 ; Move over to prevent blob squish
G92 E0
G92 E0
G1 F2700 E-5
;LAYER_COUNT:10
;LAYER:0
M107
;MESH:LETRA T.stl
G0 F6000 X108.101 Y136.9 Z0.2
;TYPE:WALL-INNER
G1 F2700 E0
G1 F1200 X126.9 Y136.9 E0.62526
G1 X126.9 Y133.502 E0.73828
G1 X126.9 Y130.103 E0.85133
G1 X121.405 Y130.103 E1.03409
G1 X121.166 Y130.005 E1.04268
G1 X121.017 Y129.864 E1.04951
G1 X120.899 Y129.556 E1.06048
G1 X120.897 Y98.101 E2.10667
G1 X114.103 Y98.101 E2.33264
G1 X114.103 Y129.503 E3.37708
G1 X114.065 Y129.714 E3.38421
G1 X113.983 Y129.864 E3.38989
G1 X113.833 Y130.005 E3.39674
G1 X113.579 Y130.103 E3.4058
G1 X108.101 Y130.104 E3.588
G1 X108.101 Y136.9 E3.81403
G0 F6000 X107.701 Y137.3
;TYPE:WALL-OUTER
G1 F1200 X127.3 Y137.3 E4.4659
G1 X127.3 Y133.502 E4.59222
G1 X127.3 Y129.703 E4.71857
G1 X121.457 Y129.7 E4.91291
G1 X121.337 Y129.624 E4.91764
G1 X121.297 Y129.521 E4.92131
G1 X121.297 Y97.701 E5.97965
G1 X113.703 Y97.701 E6.23223
G1 X113.702 Y129.521 E7.29056
G1 X113.663 Y129.624 E7.29423
G1 X113.537 Y129.701 E7.29914
G1 X107.701 Y129.704 E7.49325
G1 X107.701 Y137.3 E7.74589
G0 F6000 X107.97 Y137.03
G0 X108.201 Y136.54
G0 X108.461 Y136.54
;TYPE:SKIN
G1 F1200 X119.788 Y136.539 E8.12263
G1 X126.54 Y136.54 E8.3472
G1 X126.54 Y130.463 E8.54932
G1 X121.343 Y130.46 E8.72217
G1 X120.97 Y130.308 E8.73557
G1 X120.747 Y130.102 E8.74567
G1 X120.609 Y129.867 E8.75473
G1 X120.539 Y129.586 E8.76436
G1 X120.537 Y98.461 E9.79959
G1 X114.463 Y98.461 E10.00161
G1 X114.463 Y129.523 E11.03473
G1 X114.4 Y129.844 E11.04561
G1 X114.281 Y130.068 E11.05405
G1 X114.027 Y130.309 E11.0657
G1 X113.643 Y130.461 E11.07943
G1 X108.461 Y130.464 E11.25179
G1 X108.461 Y136.54 E11.45387
G0 F6000 X109.186 Y136.339
G1 F1200 X108.66 Y135.813 E11.47862
G0 F6000 X108.66 Y135.247
G1 F1200 X109.752 Y136.339 E11.52998
G0 F6000 X110.317 Y136.339
G1 F1200 X108.66 Y134.681 E11.60794
G0 F6000 X108.66 Y134.116
G1 F1200 X110.883 Y136.339 E11.71251
G0 F6000 X111.449 Y136.339
G1 F1200 X108.66 Y133.55 E11.84369
G0 F6000 X108.66 Y132.984
G1 F1200 X112.014 Y136.339 E12.00148
G0 F6000 X112.58 Y136.339
G1 F1200 X108.66 Y132.419 E12.18586
G0 F6000 X108.66 Y131.853
G1 F1200 X113.146 Y136.339 E12.39687
G0 F6000 X113.711 Y136.339
G1 F1200 X108.66 Y131.287 E12.63448
G0 F6000 X108.66 Y130.722
G1 F1200 X114.277 Y136.339 E12.89868
G0 F6000 X114.843 Y136.339
G1 F1200 X109.167 Y130.663 E13.16567
G0 F6000 X109.732 Y130.662
G1 F1200 X115.409 Y136.339 E13.43269
G0 F6000 X115.974 Y136.339
G1 F1200 X110.297 Y130.662 E13.69972
G0 F6000 X110.862 Y130.661
G1 F1200 X116.54 Y136.339 E13.9668
G0 F6000 X117.106 Y136.339
G1 F1200 X111.427 Y130.66 E14.23392
G0 F6000 X111.992 Y130.659
G1 F1200 X117.671 Y136.339 E14.50107
G0 F6000 X118.237 Y136.339
G1 F1200 X112.557 Y130.659 E14.76824
G0 F6000 X113.122 Y130.658
G1 F1200 X118.803 Y136.339 E15.03545
G0 F6000 X119.368 Y136.339
G1 F1200 X113.687 Y130.658 E15.30267
G0 F6000 X114.096 Y130.501
G1 F1200 X119.934 Y136.339 E15.57727
G0 F6000 X120.5 Y136.339
G1 F1200 X114.399 Y130.238 E15.86425
G0 F6000 X114.6 Y129.874
G1 F1200 X121.065 Y136.339 E16.16834
G0 F6000 X121.631 Y136.339
G1 F1200 X114.661 Y129.369 E16.49619
G0 F6000 X114.661 Y128.803
G1 F1200 X122.197 Y136.339 E16.85066
G0 F6000 X122.762 Y136.339
G1 F1200 X114.661 Y128.238 E17.2317
G0 F6000 X114.661 Y127.672
G1 F1200 X123.328 Y136.339 E17.63937
G0 F6000 X123.894 Y136.339
G1 F1200 X114.661 Y127.106 E18.07366
G0 F6000 X114.661 Y126.541
G1 F1200 X124.459 Y136.339 E18.53453
G0 F6000 X125.025 Y136.339
G1 F1200 X114.661 Y125.975 E19.02202
G0 F6000 X114.661 Y125.409
G1 F1200 X125.591 Y136.339 E19.53614
G0 F6000 X126.157 Y136.339
G1 F1200 X114.661 Y124.843 E20.07687
G0 F6000 X114.661 Y124.278
G1 F1200 X120.541 Y130.157 E20.35343
G0 F6000 X120.829 Y130.446
G1 F1200 X126.34 Y135.956 E20.61262
G0 F6000 X126.34 Y135.391
G1 F1200 X121.611 Y130.662 E20.83506
G0 F6000 X122.176 Y130.662
G1 F1200 X126.34 Y134.825 E21.0309
G0 F6000 X126.34 Y134.259
G1 F1200 X122.742 Y130.662 E21.20012
G0 F6000 X123.308 Y130.662
G1 F1200 X126.34 Y133.694 E21.34273
G0 F6000 X126.34 Y133.128
G1 F1200 X123.873 Y130.662 E21.45875
G0 F6000 X124.439 Y130.662
G1 F1200 X126.34 Y132.562 E21.54814
G0 F6000 X126.34 Y131.997
G1 F1200 X125.005 Y130.662 E21.61094
G0 F6000 X125.57 Y130.662
G1 F1200 X126.34 Y131.431 E21.64713
G0 F6000 X126.34 Y130.865
G1 F1200 X126.136 Y130.662 E21.6567
G0 F6000 X126.136 Y130.203
G0 X121.069 Y129.931
G0 X120.797 Y129.39
G0 X120.339 Y129.39
G1 F1200 X114.661 Y123.712 E21.92378
G0 F6000 X114.661 Y123.146
G1 F1200 X120.339 Y128.824 E22.19085
G0 F6000 X120.339 Y128.259
G1 F1200 X114.661 Y122.581 E22.45793
G0 F6000 X114.661 Y122.015
G1 F1200 X120.339 Y127.693 E22.72501
G0 F6000 X120.339 Y127.127
G1 F1200 X114.661 Y121.449 E22.99208
G0 F6000 X114.661 Y120.884
G1 F1200 X120.339 Y126.562 E23.25916
G0 F6000 X120.339 Y125.996
G1 F1200 X114.661 Y120.318 E23.52623
G0 F6000 X114.661 Y119.752
G1 F1200 X120.339 Y125.43 E23.79331
G0 F6000 X120.339 Y124.865
G1 F1200 X114.661 Y119.187 E24.06038
G0 F6000 X114.661 Y118.621
G1 F1200 X120.339 Y124.299 E24.32746
G0 F6000 X120.339 Y123.733
G1 F1200 X114.661 Y118.055 E24.59454
G0 F6000 X114.661 Y117.49
G1 F1200 X120.338 Y123.167 E24.86156
G0 F6000 X120.338 Y122.601
G1 F1200 X114.661 Y116.924 E25.12859
G0 F6000 X114.661 Y116.358
G1 F1200 X120.338 Y122.036 E25.39565
G0 F6000 X120.338 Y121.47
G1 F1200 X114.661 Y115.792 E25.6627
G0 F6000 X114.661 Y115.227
G1 F1200 X120.338 Y120.904 E25.92973
G0 F6000 X120.338 Y120.338
G1 F1200 X114.661 Y114.661 E26.19675
G0 F6000 X114.661 Y114.095
G1 F1200 X120.338 Y119.773 E26.46381
G0 F6000 X120.338 Y119.207
G1 F1200 X114.661 Y113.53 E26.73084
G0 F6000 X114.661 Y112.964
G1 F1200 X120.338 Y118.641 E26.99786
G0 F6000 X120.338 Y118.076
G1 F1200 X114.661 Y112.398 E27.26492
G0 F6000 X114.661 Y111.833
G1 F1200 X120.338 Y117.51 E27.53195
G0 F6000 X120.338 Y116.944
G1 F1200 X114.661 Y111.267 E27.79897
G0 F6000 X114.661 Y110.701
G1 F1200 X120.338 Y116.378 E28.066
G0 F6000 X120.338 Y115.812
G1 F1200 X114.661 Y110.136 E28.33301
G0 F6000 X114.661 Y109.57
G1 F1200 X120.338 Y115.247 E28.60004
G0 F6000 X120.338 Y114.681
G1 F1200 X114.661 Y109.004 E28.86707
G0 F6000 X114.661 Y108.439
G1 F1200 X120.338 Y114.115 E29.13407
G0 F6000 X120.338 Y113.55
G1 F1200 X114.661 Y107.873 E29.4011
G0 F6000 X114.661 Y107.307
G1 F1200 X120.338 Y112.984 E29.66813
G0 F6000 X120.338 Y112.418
G1 F1200 X114.661 Y106.742 E29.93513
G0 F6000 X114.661 Y106.176
G1 F1200 X120.338 Y111.852 E30.20214
G0 F6000 X120.338 Y111.287
G1 F1200 X114.661 Y105.61 E30.46917
G0 F6000 X114.661 Y105.044
G1 F1200 X120.337 Y110.72 E30.73615
G0 F6000 X120.337 Y110.155
G1 F1200 X114.661 Y104.479 E31.00313
G0 F6000 X114.661 Y103.913
G1 F1200 X120.337 Y109.589 E31.27011
G0 F6000 X120.337 Y109.023
G1 F1200 X114.661 Y103.347 E31.53709
G0 F6000 X114.661 Y102.782
G1 F1200 X120.337 Y108.458 E31.80407
G0 F6000 X120.337 Y107.892
G1 F1200 X114.661 Y102.216 E32.07106
G0 F6000 X114.661 Y101.65
G1 F1200 X120.337 Y107.326 E32.33804
G0 F6000 X120.337 Y106.761
G1 F1200 X114.661 Y101.085 E32.60502
G0 F6000 X114.661 Y100.519
G1 F1200 X120.337 Y106.195 E32.872
G0 F6000 X120.337 Y105.629
G1 F1200 X114.661 Y99.953 E33.13898
G0 F6000 X114.661 Y99.388
G1 F1200 X120.337 Y105.064 E33.40596
G0 F6000 X120.336 Y104.497
G1 F1200 X114.661 Y98.822 E33.6729
G0 F6000 X115.065 Y98.66
G1 F1200 X120.336 Y103.931 E33.92083
G0 F6000 X120.336 Y103.366
G1 F1200 X115.631 Y98.66 E34.14216
G0 F6000 X116.196 Y98.66
G1 F1200 X120.336 Y102.8 E34.3369
G0 F6000 X120.336 Y102.234
G1 F1200 X116.762 Y98.66 E34.50501
G0 F6000 X117.328 Y98.66
G1 F1200 X120.336 Y101.669 E34.64652
G0 F6000 X120.336 Y101.103
G1 F1200 X117.893 Y98.66 E34.76143
G0 F6000 X118.459 Y98.66
G1 F1200 X120.336 Y100.537 E34.84972
G0 F6000 X120.336 Y99.972
G1 F1200 X119.025 Y98.66 E34.91141
G0 F6000 X119.59 Y98.66
G1 F1200 X120.336 Y99.406 E34.94649
G0 F6000 X120.336 Y98.84
G1 F1200 X120.156 Y98.66 E34.95496
G1 F2700 E29.95496
;MESH:NONMESH
G0 F300 X120.156 Y98.66 Z0.4
G0 F6000 X120.156 Y98.201
G0 X114.275 Y98.273
G0 X113.93 Y129.931
G0 X108.273 Y130.276
G0 X108.201 Y136.63
G1 F2700 E34.95496
G0 F6000 X108.101 Y136.9
;TIME_ELAPSED:66.025745
;LAYER:1
M106 S85
;TYPE:WALL-INNER
;MESH:LETRA T.stl
G1 F1350 X126.9 Y136.9 E35.58022
G1 X126.9 Y133.502 E35.69324
G1 X126.9 Y130.103 E35.80629
G1 X121.405 Y130.103 E35.98905
G1 X121.166 Y130.005 E35.99764
G1 X121.017 Y129.864 E36.00447
G1 X120.899 Y129.556 E36.01544
G1 X120.897 Y98.101 E37.06163
G1 X114.103 Y98.101 E37.2876
G1 X114.103 Y129.503 E38.33204
G1 X114.065 Y129.714 E38.33917
G1 X113.983 Y129.864 E38.34486
G1 X113.833 Y130.005 E38.3517
G1 X113.579 Y130.103 E38.36076
G1 X108.101 Y130.104 E38.54296
G1 X108.101 Y136.9 E38.76899
G0 F7500 X107.701 Y137.3
;TYPE:WALL-OUTER
G1 F1350 X127.3 Y137.3 E39.42086
G1 X127.3 Y133.502 E39.54718
G1 X127.3 Y129.703 E39.67354
G1 X121.457 Y129.7 E39.86787
G1 X121.337 Y129.624 E39.8726
G1 X121.297 Y129.521 E39.87627
G1 X121.297 Y97.701 E40.93461
G1 X113.703 Y97.701 E41.18719
G1 X113.702 Y129.521 E42.24553
G1 X113.663 Y129.624 E42.24919
G1 X113.537 Y129.701 E42.2541
G1 X107.701 Y129.704 E42.44821
G1 X107.701 Y137.3 E42.70085
G0 F7500 X107.97 Y137.03
G0 X108.201 Y136.54
G0 X108.461 Y136.54
;TYPE:SKIN
G1 F1350 X126.54 Y136.54 E43.30216
G1 X126.54 Y133.502 E43.4032
G1 X126.54 Y130.463 E43.50428
G1 X121.343 Y130.46 E43.67714
G1 X120.97 Y130.308 E43.69053
G1 X120.747 Y130.102 E43.70063
G1 X120.609 Y129.867 E43.70969
G1 X120.539 Y129.586 E43.71933
G1 X120.537 Y98.461 E44.75455
G1 X114.463 Y98.461 E44.95657
G1 X114.463 Y129.523 E45.9897
G1 X114.4 Y129.844 E46.00058
G1 X114.281 Y130.068 E46.00901
G1 X114.027 Y130.309 E46.02066
G1 X113.643 Y130.461 E46.03439
G1 X108.461 Y130.464 E46.20675
G1 X108.461 Y136.54 E46.40884
G0 F7500 X108.201 Y136.54
G0 X126.138 Y136.8
G0 X126.138 Y136.339
G1 F1350 X126.339 Y136.138 E46.41829
G0 F7500 X126.339 Y135.572
G1 F1350 X125.572 Y136.339 E46.45437
G0 F7500 X125.007 Y136.339
G1 F1350 X126.339 Y135.007 E46.51702
G0 F7500 X126.339 Y134.441
G1 F1350 X124.441 Y136.339 E46.6063
G0 F7500 X123.875 Y136.339
G1 F1350 X126.339 Y133.875 E46.7222
G0 F7500 X126.339 Y133.31
G1 F1350 X123.31 Y136.339 E46.86467
G0 F7500 X122.744 Y136.339
G1 F1350 X126.339 Y132.744 E47.03377
G0 F7500 X126.339 Y132.178
G1 F1350 X122.178 Y136.339 E47.22949
G0 F7500 X121.613 Y136.339
G1 F1350 X126.339 Y131.613 E47.45179
G0 F7500 X126.339 Y131.047
G1 F1350 X121.047 Y136.339 E47.70071
G0 F7500 X120.481 Y136.339
G1 F1350 X126.159 Y130.662 E47.96776
G0 F7500 X125.593 Y130.662
G1 F1350 X119.916 Y136.339 E48.23479
G0 F7500 X119.35 Y136.339
G1 F1350 X125.027 Y130.662 E48.50182
G0 F7500 X124.462 Y130.662
G1 F1350 X118.784 Y136.339 E48.76887
G0 F7500 X118.219 Y136.339
G1 F1350 X123.896 Y130.662 E49.0359
G0 F7500 X123.33 Y130.662
G1 F1350 X117.653 Y136.339 E49.30292
G0 F7500 X117.087 Y136.339
G1 F1350 X122.765 Y130.662 E49.56998
G0 F7500 X122.199 Y130.662
G1 F1350 X116.522 Y136.339 E49.83701
G0 F7500 X115.956 Y136.339
G1 F1350 X121.633 Y130.662 E50.10403
G0 F7500 X121.135 Y130.594
G1 F1350 X115.39 Y136.339 E50.37426
G0 F7500 X114.824 Y136.339
G1 F1350 X120.771 Y130.392 E50.65399
G0 F7500 X120.505 Y130.092
G1 F1350 X114.259 Y136.339 E50.94781
G0 F7500 X113.693 Y136.339
G1 F1350 X120.356 Y129.676 E51.26121
G0 F7500 X120.338 Y129.128
G1 F1350 X113.127 Y136.339 E51.6004
G0 F7500 X112.562 Y136.339
G1 F1350 X120.338 Y128.562 E51.96618
G0 F7500 X120.338 Y127.996
G1 F1350 X111.996 Y136.339 E52.35858
G0 F7500 X111.43 Y136.339
G1 F1350 X120.338 Y127.431 E52.77759
G0 F7500 X120.338 Y126.865
G1 F1350 X110.865 Y136.339 E53.22319
G0 F7500 X110.299 Y136.339
G1 F1350 X120.338 Y126.299 E53.69542
G0 F7500 X120.338 Y125.734
G1 F1350 X109.733 Y136.339 E54.19425
G0 F7500 X109.168 Y136.339
G1 F1350 X120.338 Y125.168 E54.71967
G0 F7500 X120.338 Y124.602
G1 F1350 X108.661 Y136.28 E55.26895
G0 F7500 X108.661 Y135.715
G1 F1350 X113.732 Y130.643 E55.5075
G0 F7500 X113.152 Y130.657
G1 F1350 X108.661 Y135.149 E55.71876
G0 F7500 X108.661 Y134.583
G1 F1350 X112.586 Y130.658 E55.90338
G0 F7500 X112.019 Y130.659
G1 F1350 X108.661 Y134.017 E56.06133
G0 F7500 X108.661 Y133.452
G1 F1350 X111.453 Y130.659 E56.19268
G0 F7500 X110.887 Y130.66
G1 F1350 X108.661 Y132.886 E56.29739
G0 F7500 X108.661 Y132.32
G1 F1350 X110.32 Y130.661 E56.37542
G0 F7500 X109.754 Y130.662
G1 F1350 X108.661 Y131.755 E56.42683
G0 F7500 X108.661 Y131.189
G1 F1350 X109.187 Y130.662 E56.4516
G0 F7500 X109.187 Y130.204
G0 X113.93 Y129.931
G0 X114.203 Y129.421
G0 X114.623 Y129.752
G1 F1350 X120.338 Y124.037 E56.72041
G0 F7500 X120.338 Y123.471
G1 F1350 X114.662 Y129.148 E56.98742
G0 F7500 X114.662 Y128.582
G1 F1350 X120.338 Y122.906 E57.2544
G0 F7500 X120.338 Y122.34
G1 F1350 X114.662 Y128.016 E57.52138
G0 F7500 X114.662 Y127.451
G1 F1350 X120.338 Y121.775 E57.78836
G0 F7500 X120.338 Y121.209
G1 F1350 X114.662 Y126.885 E58.05535
G0 F7500 X114.662 Y126.319
G1 F1350 X120.338 Y120.643 E58.32233
G0 F7500 X120.338 Y120.078
G1 F1350 X114.662 Y125.753 E58.58929
G0 F7500 X114.662 Y125.188
G1 F1350 X120.338 Y119.512 E58.85627
G0 F7500 X120.338 Y118.946
G1 F1350 X114.662 Y124.622 E59.12325
G0 F7500 X114.662 Y124.056
G1 F1350 X120.338 Y118.38 E59.39023
G0 F7500 X120.338 Y117.815
G1 F1350 X114.662 Y123.491 E59.65721
G0 F7500 X114.662 Y122.925
G1 F1350 X120.338 Y117.249 E59.92419
G0 F7500 X120.337 Y116.684
G1 F1350 X114.662 Y122.359 E60.19113
G0 F7500 X114.662 Y121.794
G1 F1350 X120.337 Y116.118 E60.45809
G0 F7500 X120.337 Y115.553
G1 F1350 X114.662 Y121.228 E60.72502
G0 F7500 X114.662 Y120.662
G1 F1350 X120.337 Y114.987 E60.99196
G0 F7500 X120.337 Y114.421
G1 F1350 X114.662 Y120.097 E61.25891
G0 F7500 X114.662 Y119.531
G1 F1350 X120.337 Y113.856 E61.52585
G0 F7500 X120.337 Y113.29
G1 F1350 X114.662 Y118.965 E61.79278
G0 F7500 X114.662 Y118.4
G1 F1350 X120.337 Y112.724 E62.05974
G0 F7500 X120.337 Y112.159
G1 F1350 X114.662 Y117.834 E62.32668
G0 F7500 X114.662 Y117.268
G1 F1350 X120.337 Y111.593 E62.59361
G0 F7500 X120.336 Y111.028
G1 F1350 X114.662 Y116.703 E62.86052
G0 F7500 X114.662 Y116.137
G1 F1350 X120.336 Y110.462 E63.12743
G0 F7500 X120.336 Y109.897
G1 F1350 X114.662 Y115.571 E63.39432
G0 F7500 X114.662 Y115.005
G1 F1350 X120.336 Y109.331 E63.66121
G0 F7500 X120.336 Y108.765
G1 F1350 X114.662 Y114.44 E63.92812
G0 F7500 X114.662 Y113.874
G1 F1350 X120.336 Y108.2 E64.19501
G0 F7500 X120.336 Y107.634
G1 F1350 X114.662 Y113.308 E64.46189
G0 F7500 X114.662 Y112.743
G1 F1350 X120.336 Y107.068 E64.7288
G0 F7500 X120.336 Y106.503
G1 F1350 X114.662 Y112.177 E64.99569
G0 F7500 X114.662 Y111.611
G1 F1350 X120.336 Y105.937 E65.26258
G0 F7500 X120.336 Y105.371
G1 F1350 X114.662 Y111.046 E65.52949
G0 F7500 X114.662 Y110.48
G1 F1350 X120.336 Y104.806 E65.79638
G0 F7500 X120.336 Y104.24
G1 F1350 X114.662 Y109.914 E66.06327
G0 F7500 X114.662 Y109.349
G1 F1350 X120.336 Y103.675 E66.33015
G0 F7500 X120.336 Y103.109
G1 F1350 X114.662 Y108.783 E66.59704
G0 F7500 X114.662 Y108.217
G1 F1350 X120.336 Y102.543 E66.86393
G0 F7500 X120.336 Y101.978
G1 F1350 X114.662 Y107.652 E67.13082
G0 F7500 X114.662 Y107.086
G1 F1350 X120.336 Y101.412 E67.3977
G0 F7500 X120.336 Y100.846
G1 F1350 X114.662 Y106.52 E67.66459
G0 F7500 X114.662 Y105.955
G1 F1350 X120.336 Y100.281 E67.93148
G0 F7500 X120.336 Y99.715
G1 F1350 X114.662 Y105.389 E68.19837
G0 F7500 X114.662 Y104.823
G1 F1350 X120.336 Y99.149 E68.46525
G0 F7500 X120.259 Y98.66
