;FLAVOR:Marlin
;TIME:506
;Filament used: 0.314345m
;Layer height: 0.2
;MINX:107.7
;MINY:97.7
;MINZ:0.2
;MAXX:127.3
;MAXY:137.3
;MAXZ:2
;Generated with Cura_SteamEngine 5.2.2
M140 S50
M105
M190 S50
M104 S200
M105
M109 S200
M82 ;absolute extrusion mode
; Ender 3 Custom Start G-code
G92 E0 ; Reset Extruder
G28 ; Home all axes
G1 Z2.0 F3000 ; Move Z Axis up little to prevent scratching of Heat Bed
G1 X0.1 Y20 Z0.3 F5000.0 ; Move to start position
G1 X0.1 Y200.0 Z0.3 F1500.0 E15 ; Draw the first line
G1 X0.4 Y200.0 Z0.3 F5000.0 ; Move to side a little
G1 X0.4 Y20 Z0.3 F1500.0 E30 ; Draw the second line
G92 E0 ; Reset Extruder
G1 Z2.0 F3000 ; Move Z Axis up little to prevent scratching of Heat Bed
G1 X5 Y20 Z0.3 F5000.0 ; Move over to prevent blob squish
G92 E0
G92 E0
G1 F2700 E-5
;LAYER_COUNT:10
;LAYER:0
M107
;MESH:LETRA I.stl
G0 F6000 X108.101 Y136.9 Z0.2
;TYPE:WALL-INNER
G1 F2700 E0
G1 F1200 X126.9 Y136.9 E0.62526
G1 X126.9 Y134.002 E0.72165
G1 X126.9 Y131.103 E0.81807
G1 X120.408 Y131.103 E1.03399
G1 X120.251 Y131.051 E1.03949
G1 X120.062 Y130.918 E1.04718
G1 X119.955 Y130.762 E1.05347
G1 X119.899 Y130.556 E1.06057
G1 X119.897 Y103.498 E1.96052
G1 X119.935 Y103.287 E1.96765
G1 X120.017 Y103.137 E1.97334
G1 X120.214 Y102.968 E1.98197
G1 X120.396 Y102.898 E1.98846
G1 X126.9 Y102.898 E2.20478
G1 X126.9 Y98.1 E2.36436
G1 X108.1 Y98.1 E2.98966
G1 X108.1 Y102.898 E3.14924
G1 X114.603 Y102.898 E3.36553
G1 X114.785 Y102.968 E3.37201
G1 X114.983 Y103.137 E3.38067
G1 X115.064 Y103.287 E3.38634
G1 X115.103 Y103.498 E3.39348
G1 X115.1 Y130.556 E4.29343
G1 X115.044 Y130.762 E4.30053
G1 X114.937 Y130.918 E4.30682
G1 X114.748 Y131.051 E4.31451
G1 X114.58 Y131.103 E4.32036
G1 X108.101 Y131.104 E4.53585
G1 X108.101 Y136.9 E4.72863
G0 F6000 X107.701 Y137.3
;TYPE:WALL-OUTER
G1 F1200 X127.3 Y137.3 E5.38049
G1 X127.3 Y134.002 E5.49018
G1 X127.3 Y130.703 E5.59991
G1 X120.454 Y130.699 E5.82761
G1 X120.352 Y130.642 E5.83149
G1 X120.297 Y130.521 E5.83592
G1 X120.3 Y103.461 E6.73593
G1 X120.337 Y103.377 E6.73899
G1 X120.462 Y103.3 E6.74387
G1 X127.3 Y103.298 E6.9713
G1 X127.3 Y97.7 E7.15749
G1 X107.7 Y97.7 E7.80939
G1 X107.7 Y103.298 E7.99558
G1 X114.536 Y103.298 E8.22295
G1 X114.663 Y103.377 E8.22792
G1 X114.703 Y103.498 E8.23216
G1 X114.702 Y130.521 E9.13095
G1 X114.647 Y130.642 E9.13537
G1 X114.537 Y130.701 E9.13952
G1 X107.701 Y130.704 E9.36689
G1 X107.701 Y137.3 E9.58627
G0 F6000 X107.97 Y137.03
G0 X108.201 Y136.54
G0 X108.461 Y136.54
;TYPE:SKIN
G1 F1200 X126.54 Y136.54 E10.18758
G1 X126.54 Y134.002 E10.272
G1 X126.54 Y131.464 E10.35641
G1 X120.458 Y131.459 E10.5587
G1 X120.104 Y131.383 E10.57074
G1 X119.801 Y131.173 E10.583
G1 X119.631 Y130.921 E10.59311
G1 X119.539 Y130.593 E10.60444
G1 X119.537 Y103.364 E11.51009
G1 X119.721 Y102.919 E11.5261
G1 X120.037 Y102.65 E11.5399
G1 X120.333 Y102.54 E11.55041
G1 X126.54 Y102.538 E11.75685
G1 X126.54 Y98.46 E11.89249
G1 X108.46 Y98.46 E12.49383
G1 X108.46 Y102.538 E12.62947
G1 X114.543 Y102.543 E12.83179
G1 X114.953 Y102.642 E12.84582
G1 X115.271 Y102.919 E12.85984
G1 X115.403 Y103.163 E12.86907
G1 X115.463 Y103.488 E12.88006
G1 X115.462 Y130.528 E13.77942
G1 X115.368 Y130.923 E13.79292
G1 X115.194 Y131.177 E13.80316
G1 X114.93 Y131.36 E13.81384
G1 X114.65 Y131.461 E13.82374
G1 X108.461 Y131.464 E14.02959
G1 X108.461 Y136.54 E14.19842
G0 F6000 X109.186 Y136.339
G1 F1200 X108.66 Y135.813 E14.22316
G0 F6000 X108.66 Y135.247
G1 F1200 X109.752 Y136.339 E14.27453
G0 F6000 X110.317 Y136.339
G1 F1200 X108.66 Y134.681 E14.35249
G0 F6000 X108.66 Y134.116
G1 F1200 X110.883 Y136.339 E14.45705
G0 F6000 X111.449 Y136.339
G1 F1200 X108.66 Y133.55 E14.58824
G0 F6000 X108.66 Y132.984
G1 F1200 X112.014 Y136.339 E14.74602
G0 F6000 X112.58 Y136.339
G1 F1200 X108.66 Y132.419 E14.93041
G0 F6000 X108.66 Y131.853
G1 F1200 X113.146 Y136.339 E15.14142
G0 F6000 X113.711 Y136.339
G1 F1200 X109.035 Y131.663 E15.36136
G0 F6000 X109.6 Y131.662
G1 F1200 X114.277 Y136.339 E15.58135
G0 F6000 X114.843 Y136.339
G1 F1200 X110.166 Y131.662 E15.80134
G0 F6000 X110.731 Y131.661
G1 F1200 X115.409 Y136.339 E16.02138
G0 F6000 X115.974 Y136.339
G1 F1200 X111.296 Y131.661 E16.24142
G0 F6000 X111.861 Y131.66
G1 F1200 X116.54 Y136.339 E16.46151
G0 F6000 X117.106 Y136.339
G1 F1200 X112.426 Y131.659 E16.68164
G0 F6000 X112.992 Y131.659
G1 F1200 X117.671 Y136.339 E16.90175
G0 F6000 X118.237 Y136.339
G1 F1200 X113.557 Y131.659 E17.12188
G0 F6000 X114.122 Y131.658
G1 F1200 X118.803 Y136.339 E17.34206
G0 F6000 X119.368 Y136.339
G1 F1200 X114.687 Y131.657 E17.56227
G0 F6000 X115.087 Y131.492
G1 F1200 X119.934 Y136.339 E17.79025
G0 F6000 X120.5 Y136.339
G1 F1200 X115.394 Y131.233 E18.03042
G0 F6000 X115.59 Y130.863
G1 F1200 X121.065 Y136.339 E18.28798
G0 F6000 X121.631 Y136.339
G1 F1200 X115.662 Y130.369 E18.56876
G0 F6000 X115.662 Y129.804
G1 F1200 X122.197 Y136.339 E18.87615
G0 F6000 X122.762 Y136.339
G1 F1200 X115.662 Y129.238 E19.21013
G0 F6000 X115.662 Y128.672
G1 F1200 X123.328 Y136.339 E19.57074
G0 F6000 X123.894 Y136.339
G1 F1200 X115.662 Y128.107 E19.95795
G0 F6000 X115.662 Y127.541
G1 F1200 X124.459 Y136.339 E20.37176
G0 F6000 X125.025 Y136.339
G1 F1200 X120.319 Y131.633 E20.59311
G0 F6000 X120.914 Y131.662
G1 F1200 X125.591 Y136.339 E20.81311
G0 F6000 X126.157 Y136.339
G1 F1200 X121.48 Y131.662 E21.0331
G0 F6000 X122.045 Y131.662
G1 F1200 X126.34 Y135.956 E21.2351
G0 F6000 X126.34 Y135.391
G1 F1200 X122.611 Y131.662 E21.4105
G0 F6000 X123.177 Y131.662
G1 F1200 X126.34 Y134.825 E21.55928
G0 F6000 X126.34 Y134.259
G1 F1200 X123.743 Y131.663 E21.68141
G0 F6000 X124.309 Y131.663
G1 F1200 X126.34 Y133.694 E21.77694
G0 F6000 X126.34 Y133.128
G1 F1200 X124.875 Y131.663 E21.84585
G0 F6000 X125.44 Y131.663
G1 F1200 X126.34 Y132.562 E21.88816
G0 F6000 X126.34 Y131.997
G1 F1200 X126.006 Y131.663 E21.90387
G0 F6000 X126.006 Y131.203
G0 X120.069 Y130.931
G0 X119.805 Y130.596
G0 X119.355 Y130.669
G1 F1200 X115.662 Y126.975 E22.0776
G0 F6000 X115.662 Y126.41
G1 F1200 X119.339 Y130.087 E22.25055
G0 F6000 X119.339 Y129.522
G1 F1200 X115.662 Y125.844 E22.42353
G0 F6000 X115.662 Y125.278
G1 F1200 X119.339 Y128.956 E22.59651
G0 F6000 X119.339 Y128.39
G1 F1200 X115.662 Y124.713 E22.76947
G0 F6000 X115.662 Y124.147
G1 F1200 X119.339 Y127.825 E22.94244
G0 F6000 X119.339 Y127.259
G1 F1200 X115.662 Y123.581 E23.11542
G0 F6000 X115.662 Y123.016
G1 F1200 X119.339 Y126.693 E23.28838
G0 F6000 X119.339 Y126.128
G1 F1200 X115.662 Y122.45 E23.46136
G0 F6000 X115.662 Y121.884
G1 F1200 X119.339 Y125.562 E23.63433
G0 F6000 X119.339 Y124.995
G1 F1200 X115.662 Y121.319 E23.80727
G0 F6000 X115.662 Y120.753
G1 F1200 X119.339 Y124.43 E23.98022
G0 F6000 X119.339 Y123.864
G1 F1200 X115.662 Y120.187 E24.15318
G0 F6000 X115.662 Y119.621
G1 F1200 X119.339 Y123.298 E24.32613
G0 F6000 X119.339 Y122.733
G1 F1200 X115.662 Y119.056 E24.49908
G0 F6000 X115.662 Y118.49
G1 F1200 X119.339 Y122.167 E24.67204
G0 F6000 X119.339 Y121.601
G1 F1200 X115.662 Y117.924 E24.84499
G0 F6000 X115.662 Y117.359
G1 F1200 X119.339 Y121.036 E25.01795
G0 F6000 X119.339 Y120.47
G1 F1200 X115.662 Y116.793 E25.1909
G0 F6000 X115.662 Y116.227
G1 F1200 X119.339 Y119.904 E25.36386
G0 F6000 X119.338 Y119.338
G1 F1200 X115.662 Y115.662 E25.53677
G0 F6000 X115.662 Y115.096
G1 F1200 X119.338 Y118.772 E25.70967
G0 F6000 X119.338 Y118.207
G1 F1200 X115.662 Y114.53 E25.88261
G0 F6000 X115.662 Y113.965
G1 F1200 X119.338 Y117.641 E26.05551
G0 F6000 X119.338 Y117.075
G1 F1200 X115.662 Y113.399 E26.22842
G0 F6000 X115.662 Y112.833
G1 F1200 X119.338 Y116.509 E26.40133
G0 F6000 X119.338 Y115.944
G1 F1200 X115.662 Y112.268 E26.57424
G0 F6000 X115.662 Y111.702
G1 F1200 X119.338 Y115.378 E26.74714
G0 F6000 X119.338 Y114.812
G1 F1200 X115.662 Y111.136 E26.92005
G0 F6000 X115.662 Y110.57
G1 F1200 X119.338 Y114.247 E27.09298
G0 F6000 X119.337 Y113.68
G1 F1200 X115.662 Y110.005 E27.26584
G0 F6000 X115.662 Y109.439
G1 F1200 X119.337 Y113.115 E27.43873
G0 F6000 X119.337 Y112.549
G1 F1200 X115.662 Y108.873 E27.61161
G0 F6000 X115.662 Y108.308
G1 F1200 X119.337 Y111.983 E27.78447
G0 F6000 X119.337 Y111.418
G1 F1200 X115.662 Y107.742 E27.95736
G0 F6000 X115.662 Y107.176
G1 F1200 X119.337 Y110.852 E28.13024
G0 F6000 X119.337 Y110.286
G1 F1200 X115.662 Y106.611 E28.3031
G0 F6000 X115.662 Y106.045
G1 F1200 X119.337 Y109.721 E28.47599
G0 F6000 X119.337 Y109.155
G1 F1200 X115.662 Y105.479 E28.64887
G0 F6000 X115.662 Y104.914
G1 F1200 X119.336 Y108.588 E28.82168
G0 F6000 X119.336 Y108.023
G1 F1200 X115.662 Y104.348 E28.99452
G0 F6000 X115.662 Y103.782
G1 F1200 X119.336 Y107.457 E29.16736
G0 F6000 X119.336 Y106.891
G1 F1200 X115.602 Y103.156 E29.34302
G0 F6000 X115.203 Y103.587
G0 X114.699 Y102.828
G0 X114.858 Y102.413
G1 F1200 X111.105 Y98.66 E29.51955
G0 F6000 X110.539 Y98.66
G1 F1200 X114.217 Y102.338 E29.69255
G0 F6000 X113.651 Y102.338
G1 F1200 X109.974 Y98.66 E29.86553
G0 F6000 X109.408 Y98.66
G1 F1200 X113.086 Y102.338 E30.03853
G0 F6000 X112.52 Y102.338
G1 F1200 X108.842 Y98.66 E30.21153
G0 F6000 X108.659 Y99.043
G1 F1200 X111.954 Y102.338 E30.36652
G0 F6000 X111.389 Y102.338
G1 F1200 X108.659 Y99.608 E30.49493
G0 F6000 X108.659 Y100.174
G1 F1200 X110.823 Y102.338 E30.59672
G0 F6000 X110.257 Y102.338
G1 F1200 X108.659 Y100.74 E30.67188
G0 F6000 X108.659 Y101.305
G1 F1200 X109.692 Y102.338 E30.72047
G0 F6000 X109.126 Y102.338
G1 F1200 X108.659 Y101.871 E30.74244
G0 F6000 X108.2 Y101.871
G0 X108.272 Y98.272
G0 X111.671 Y98.2
G0 X111.671 Y98.66
G1 F1200 X119.336 Y106.326 E31.103
G0 F6000 X119.336 Y105.76
G1 F1200 X112.236 Y98.66 E31.43696
G0 F6000 X112.802 Y98.66
G1 F1200 X119.336 Y105.194 E31.7443
G0 F6000 X119.336 Y104.629
G1 F1200 X113.368 Y98.66 E32.02504
G0 F6000 X113.933 Y98.66
G1 F1200 X119.336 Y104.063 E32.27918
G0 F6000 X119.336 Y103.497
G1 F1200 X114.499 Y98.66 E32.5067
G0 F6000 X115.065 Y98.66
G1 F1200 X119.452 Y103.047 E32.71305
G0 F6000 X119.669 Y102.698
G1 F1200 X115.631 Y98.66 E32.90299
G0 F6000 X116.196 Y98.66
G1 F1200 X119.989 Y102.453 E33.0814
G0 F6000 X120.444 Y102.342
G1 F1200 X116.762 Y98.66 E33.25459
G0 F6000 X117.328 Y98.66
G1 F1200 X121.01 Y102.342 E33.42778
G0 F6000 X121.574 Y102.341
G1 F1200 X117.893 Y98.66 E33.60092
G0 F6000 X118.459 Y98.66
G1 F1200 X122.139 Y102.34 E33.77402
G0 F6000 X122.705 Y102.34
G1 F1200 X119.025 Y98.66 E33.94711
G0 F6000 X119.59 Y98.66
G1 F1200 X123.27 Y102.34 E34.12021
G0 F6000 X123.835 Y102.339
G1 F1200 X120.156 Y98.66 E34.29326
G0 F6000 X120.722 Y98.66
G1 F1200 X124.401 Y102.339 E34.46631
G0 F6000 X124.966 Y102.338
G1 F1200 X121.287 Y98.66 E34.63933
G0 F6000 X121.853 Y98.66
G1 F1200 X125.531 Y102.338 E34.81233
G0 F6000 X126.096 Y102.338
G1 F1200 X122.419 Y98.66 E34.98531
G0 F6000 X122.984 Y98.66
G1 F1200 X126.339 Y102.015 E35.14312
G0 F6000 X126.339 Y101.449
G1 F1200 X123.55 Y98.66 E35.27431
G0 F6000 X124.116 Y98.66
G1 F1200 X126.339 Y100.883 E35.37887
G0 F6000 X126.339 Y100.317
G1 F1200 X124.682 Y98.66 E35.45681
G0 F6000 X125.247 Y98.66
G1 F1200 X126.339 Y99.752 E35.50817
G0 F6000 X126.339 Y99.186
G1 F1200 X125.813 Y98.66 E35.53291
G1 F2700 E30.53291
;MESH:NONMESH
G0 F300 X125.813 Y98.66 Z0.4
G0 F6000 X125.813 Y98.2
G0 X108.272 Y98.272
G0 X108.272 Y102.726
G0 X115.112 Y103.041
G0 X114.93 Y130.931
G0 X108.273 Y131.276
G0 X108.201 Y136.63
G1 F2700 E35.53291
G0 F6000 X108.101 Y136.9
;TIME_ELAPSED:69.472622
;LAYER:1
M106 S85
;TYPE:WALL-INNER
;MESH:LETRA I.stl
G1 F1350 X126.9 Y136.9 E36.15817
G1 X126.9 Y134.002 E36.25456
G1 X126.9 Y131.103 E36.35098
G1 X120.408 Y131.103 E36.56691
G1 X120.251 Y131.051 E36.57241
G1 X120.062 Y130.918 E36.58009
G1 X119.955 Y130.762 E36.58639
G1 X119.899 Y130.556 E36.59349
G1 X119.897 Y103.498 E37.49344
G1 X119.935 Y103.287 E37.50057
G1 X120.017 Y103.137 E37.50625
G1 X120.214 Y102.968 E37.51489
G1 X120.396 Y102.898 E37.52137
G1 X126.9 Y102.898 E37.7377
G1 X126.9 Y98.1 E37.89728
G1 X108.1 Y98.1 E38.52257
G1 X108.1 Y102.898 E38.68215
G1 X114.603 Y102.898 E38.89844
G1 X114.785 Y102.968 E38.90493
G1 X114.983 Y103.137 E38.91359
G1 X115.064 Y103.287 E38.91926
G1 X115.103 Y103.498 E38.92639
G1 X115.1 Y130.556 E39.82635
G1 X115.044 Y130.762 E39.83345
G1 X114.937 Y130.918 E39.83974
G1 X114.748 Y131.051 E39.84742
G1 X114.58 Y131.103 E39.85327
G1 X108.101 Y131.104 E40.06877
G1 X108.101 Y136.9 E40.26154
G0 F7500 X107.701 Y137.3
;TYPE:WALL-OUTER
G1 F1350 X127.3 Y137.3 E40.91341
G1 X127.3 Y134.002 E41.0231
G1 X127.3 Y130.703 E41.13282
G1 X120.454 Y130.699 E41.36052
G1 X120.352 Y130.642 E41.36441
G1 X120.297 Y130.521 E41.36883
G1 X120.3 Y103.461 E42.26885
G1 X120.337 Y103.377 E42.2719
G1 X120.462 Y103.3 E42.27679
G1 X127.3 Y103.298 E42.50422
G1 X127.3 Y97.7 E42.69041
G1 X107.7 Y97.7 E43.34231
G1 X107.7 Y103.298 E43.5285
G1 X114.536 Y103.298 E43.75586
G1 X114.663 Y103.377 E43.76084
G1 X114.703 Y103.498 E43.76508
G1 X114.702 Y130.521 E44.66387
G1 X114.647 Y130.642 E44.66829
G1 X114.537 Y130.701 E44.67244
G1 X107.701 Y130.704 E44.8998
G1 X107.701 Y137.3 E45.11919
G0 F7500 X107.97 Y137.03
G0 X108.201 Y136.54
G0 X108.461 Y136.54
;TYPE:SKIN
G1 F1350 X126.54 Y136.54 E45.7205
G1 X126.54 Y134.002 E45.80491
G1 X126.54 Y131.464 E45.88933
G1 X120.458 Y131.459 E46.09161
G1 X120.104 Y131.383 E46.10366
G1 X119.801 Y131.173 E46.11592
G1 X119.631 Y130.921 E46.12603
G1 X119.539 Y130.593 E46.13736
G1 X119.537 Y103.364 E47.043
G1 X119.721 Y102.919 E47.05902
G1 X120.037 Y102.65 E47.07282
G1 X120.333 Y102.54 E47.08332
G1 X126.54 Y102.538 E47.28977
G1 X126.54 Y98.46 E47.4254
G1 X108.46 Y98.46 E48.02675
G1 X108.46 Y102.538 E48.16238
G1 X114.543 Y102.543 E48.3647
G1 X114.953 Y102.642 E48.37873
G1 X115.271 Y102.919 E48.39276
G1 X115.403 Y103.163 E48.40198
G1 X115.463 Y103.488 E48.41298
G1 X115.462 Y130.528 E49.31233
G1 X115.368 Y130.923 E49.32583
G1 X115.194 Y131.177 E49.33607
G1 X114.93 Y131.36 E49.34676
G1 X114.65 Y131.461 E49.35666
G1 X108.461 Y131.464 E49.56251
G1 X108.461 Y136.54 E49.73133
G0 F7500 X108.201 Y136.54
G0 X126.138 Y136.8
G0 X126.138 Y136.339
G1 F1350 X126.339 Y136.138 E49.74079
G0 F7500 X126.339 Y135.572
G1 F1350 X125.572 Y136.339 E49.77687
G0 F7500 X125.007 Y136.339
G1 F1350 X126.339 Y135.007 E49.83952
G0 F7500 X126.339 Y134.441
G1 F1350 X124.441 Y136.339 E49.9288
G0 F7500 X123.875 Y136.339
G1 F1350 X126.339 Y133.875 E50.04469
G0 F7500 X126.339 Y133.31
G1 F1350 X123.31 Y136.339 E50.18717
G0 F7500 X122.744 Y136.339
G1 F1350 X126.339 Y132.744 E50.35627
G0 F7500 X126.339 Y132.178
G1 F1350 X122.178 Y136.339 E50.55199
G0 F7500 X121.613 Y136.339
G1 F1350 X126.289 Y131.662 E50.77196
G0 F7500 X125.724 Y131.662
G1 F1350 X121.047 Y136.339 E50.99195
G0 F7500 X120.481 Y136.339
G1 F1350 X125.158 Y131.662 E51.21194
G0 F7500 X124.592 Y131.662
G1 F1350 X119.916 Y136.339 E51.43191
G0 F7500 X119.35 Y136.339
G1 F1350 X124.027 Y131.662 E51.6519
G0 F7500 X123.461 Y131.662
G1 F1350 X118.784 Y136.339 E51.87189
G0 F7500 X118.219 Y136.339
G1 F1350 X122.896 Y131.661 E52.09191
G0 F7500 X122.33 Y131.661
G1 F1350 X117.653 Y136.339 E52.31192
G0 F7500 X117.087 Y136.339
G1 F1350 X121.765 Y131.661 E52.53196
G0 F7500 X121.199 Y131.661
G1 F1350 X116.522 Y136.339 E52.75198
G0 F7500 X115.956 Y136.339
G1 F1350 X120.633 Y131.661 E52.97199
G0 F7500 X120.136 Y131.593
G1 F1350 X115.39 Y136.339 E53.19523
G0 F7500 X114.824 Y136.339
G1 F1350 X119.769 Y131.394 E53.42783
G0 F7500 X119.507 Y131.091
G1 F1350 X114.259 Y136.339 E53.67468
G0 F7500 X113.693 Y136.339
G1 F1350 X119.356 Y130.676 E53.94105
G0 F7500 X119.339 Y130.128
G1 F1350 X113.127 Y136.339 E54.23322
G0 F7500 X112.562 Y136.339
G1 F1350 X119.339 Y129.562 E54.55198
G0 F7500 X119.339 Y128.996
G1 F1350 X111.996 Y136.339 E54.89738
G0 F7500 X111.43 Y136.339
G1 F1350 X119.339 Y128.431 E55.26937
G0 F7500 X119.339 Y127.865
G1 F1350 X110.865 Y136.339 E55.66796
G0 F7500 X110.299 Y136.339
G1 F1350 X115.28 Y131.358 E55.90225
G1 X115.372 Y131.266
G1 X119.339 Y127.299 E56.08885
G0 F7500 X119.339 Y126.734
G1 F1350 X115.662 Y130.41 E56.26178
G0 F7500 X115.662 Y129.845
G1 F1350 X119.339 Y126.168 E56.43473
G0 F7500 X119.339 Y125.602
G1 F1350 X115.662 Y129.279 E56.60769
G0 F7500 X115.662 Y128.713
G1 F1350 X119.338 Y125.037 E56.78059
G0 F7500 X119.338 Y124.472
