;FLAVOR:Marlin
;TIME:442
;Filament used: 0.264225m
;Layer height: 0.2
;MINX:107.7
;MINY:97.7
;MINZ:0.2
;MAXX:127.3
;MAXY:137.3
;MAXZ:2
;Generated with Cura_SteamEngine 5.2.2
M140 S50
M105
M190 S50
M104 S200
M105
M109 S200
M82 ;absolute extrusion mode
; Ender 3 Custom Start G-code
G92 E0 ; Reset Extruder
G28 ; Home all axes
G1 Z2.0 F3000 ; Move Z Axis up little to prevent scratching of Heat Bed
G1 X0.1 Y20 Z0.3 F5000.0 ; Move to start position
G1 X0.1 Y200.0 Z0.3 F1500.0 E15 ; Draw the first line
G1 X0.4 Y200.0 Z0.3 F5000.0 ; Move to side a little
G1 X0.4 Y20 Z0.3 F1500.0 E30 ; Draw the second line
G92 E0 ; Reset Extruder
G1 Z2.0 F3000 ; Move Z Axis up little to prevent scratching of Heat Bed
G1 X5 Y20 Z0.3 F5000.0 ; Move over to prevent blob squish
G92 E0
G92 E0
G1 F2700 E-5
;LAYER_COUNT:10
;LAYER:0
M107
;MESH:LETRA C.stl
G0 F6000 X108.1 Y136.9 Z0.2
;TYPE:WALL-INNER
G1 F2700 E0
G1 F1200 X126.9 Y136.9 E0.62529
G1 X126.9 Y135.002 E0.68842
G1 X126.9 Y133.103 E0.75158
G1 X112.497 Y133.103 E1.23062
G1 X112.189 Y133.019 E1.24124
G1 X111.981 Y132.811 E1.25103
G1 X111.897 Y132.503 E1.26165
G1 X111.897 Y102.497 E2.25965
G1 X111.981 Y102.189 E2.27027
G1 X112.189 Y101.981 E2.28005
G1 X112.497 Y101.897 E2.29067
G1 X126.9 Y101.897 E2.76971
G1 X126.9 Y98.1 E2.896
G1 X108.1 Y98.1 E3.52129
G1 X108.1 Y136.9 E4.81179
G0 F6000 X107.7 Y137.3
;TYPE:WALL-OUTER
G1 F1200 X127.3 Y137.3 E5.46369
G1 X127.3 Y135.002 E5.54012
G1 X127.3 Y132.703 E5.61658
G1 X112.454 Y132.703 E6.11036
G1 X112.355 Y132.645 E6.11418
G1 X112.299 Y132.538 E6.1182
G1 X112.297 Y102.454 E7.11879
G1 X112.355 Y102.355 E7.12261
G1 X112.462 Y102.299 E7.12663
G1 X127.3 Y102.297 E7.62014
G1 X127.3 Y97.7 E7.77304
G1 X107.7 Y97.7 E8.42494
G1 X107.7 Y137.3 E9.74204
G0 F6000 X107.97 Y137.03
G0 X108.2 Y136.54
G0 X108.46 Y136.54
;TYPE:SKIN
G1 F1200 X126.54 Y136.54 E10.34338
G1 X126.54 Y135.002 E10.39453
G1 X126.54 Y133.463 E10.44572
G1 X112.476 Y133.462 E10.91349
G1 X112.263 Y133.434 E10.92064
G1 X111.994 Y133.327 E10.93027
G1 X111.701 Y133.034 E10.94405
G1 X111.565 Y132.74 E10.95482
G1 X111.538 Y132.529 E10.9619
G1 X111.538 Y102.476 E11.96146
G1 X111.566 Y102.263 E11.96861
G1 X111.673 Y101.994 E11.97824
G1 X111.994 Y101.673 E11.99334
G1 X112.319 Y101.539 E12.00503
G1 X126.54 Y101.537 E12.47802
G1 X126.54 Y98.461 E12.58033
G1 X108.46 Y98.46 E13.18167
G1 X108.46 Y136.54 E14.44822
G0 F6000 X109.186 Y136.339
G1 F1200 X108.659 Y135.812 E14.47301
G0 F6000 X108.659 Y135.246
G1 F1200 X109.752 Y136.339 E14.52442
G0 F6000 X110.317 Y136.339
G1 F1200 X108.659 Y134.681 E14.60241
G0 F6000 X108.659 Y134.115
G1 F1200 X110.883 Y136.339 E14.70702
G0 F6000 X111.449 Y136.339
G1 F1200 X108.659 Y133.549 E14.83825
G0 F6000 X108.659 Y132.984
G1 F1200 X112.014 Y136.339 E14.99606
G0 F6000 X112.58 Y136.339
G1 F1200 X108.659 Y132.418 E15.18049
G0 F6000 X108.659 Y131.852
G1 F1200 X113.146 Y136.339 E15.39155
G0 F6000 X113.711 Y136.339
G1 F1200 X108.659 Y131.287 E15.62918
G0 F6000 X108.659 Y130.721
G1 F1200 X114.277 Y136.339 E15.89343
G0 F6000 X114.843 Y136.339
G1 F1200 X112.075 Y133.571 E16.02363
G0 F6000 X112.729 Y133.66
G1 F1200 X115.409 Y136.339 E16.14966
G0 F6000 X115.974 Y136.339
G1 F1200 X113.295 Y133.66 E16.27568
G0 F6000 X113.861 Y133.66
G1 F1200 X116.54 Y136.339 E16.40169
G0 F6000 X117.106 Y136.339
G1 F1200 X114.426 Y133.66 E16.52772
G0 F6000 X114.992 Y133.66
G1 F1200 X117.671 Y136.339 E16.65373
G0 F6000 X118.237 Y136.339
G1 F1200 X115.558 Y133.66 E16.77975
G0 F6000 X116.124 Y133.66
G1 F1200 X118.803 Y136.339 E16.90576
G0 F6000 X119.368 Y136.339
G1 F1200 X116.69 Y133.66 E17.03175
G0 F6000 X117.255 Y133.66
G1 F1200 X119.934 Y136.339 E17.15776
G0 F6000 X120.5 Y136.339
G1 F1200 X117.821 Y133.66 E17.28377
G0 F6000 X118.387 Y133.66
G1 F1200 X121.065 Y136.339 E17.40976
G0 F6000 X121.631 Y136.339
G1 F1200 X118.953 Y133.66 E17.53575
G0 F6000 X119.519 Y133.661
G1 F1200 X122.197 Y136.339 E17.66171
G0 F6000 X122.762 Y136.339
G1 F1200 X120.085 Y133.661 E17.78765
G0 F6000 X120.65 Y133.661
G1 F1200 X123.328 Y136.339 E17.91362
G0 F6000 X123.894 Y136.339
G1 F1200 X121.216 Y133.661 E18.03958
G0 F6000 X121.782 Y133.661
G1 F1200 X124.459 Y136.339 E18.16552
G0 F6000 X125.025 Y136.339
G1 F1200 X122.347 Y133.661 E18.29149
G0 F6000 X122.914 Y133.662
G1 F1200 X125.591 Y136.339 E18.41741
G0 F6000 X126.157 Y136.339
G1 F1200 X123.479 Y133.662 E18.54335
G0 F6000 X124.045 Y133.662
G1 F1200 X126.339 Y135.956 E18.65125
G0 F6000 X126.339 Y135.39
G1 F1200 X124.611 Y133.662 E18.73253
G0 F6000 X125.176 Y133.662
G1 F1200 X126.339 Y134.824 E18.78721
G0 F6000 X126.339 Y134.259
G1 F1200 X125.742 Y133.662 E18.81529
G0 F6000 X125.742 Y133.203
G0 X112.069 Y132.931
G0 X111.843 Y132.741
G0 X111.425 Y132.921
G1 F1200 X108.659 Y130.155 E18.9454
G0 F6000 X108.659 Y129.59
G1 F1200 X111.339 Y132.269 E19.07143
G0 F6000 X111.339 Y131.704
G1 F1200 X108.659 Y129.024 E19.19749
G0 F6000 X108.659 Y128.458
G1 F1200 X111.339 Y131.138 E19.32355
G0 F6000 X111.339 Y130.572
G1 F1200 X108.659 Y127.892 E19.44961
G0 F6000 X108.659 Y127.327
G1 F1200 X111.339 Y130.007 E19.57567
G0 F6000 X111.339 Y129.441
G1 F1200 X108.659 Y126.761 E19.70173
G0 F6000 X108.659 Y126.195
G1 F1200 X111.339 Y128.875 E19.82779
G0 F6000 X111.339 Y128.31
G1 F1200 X108.659 Y125.63 E19.95385
G0 F6000 X108.659 Y125.064
G1 F1200 X111.339 Y127.744 E20.0799
G0 F6000 X111.339 Y127.178
G1 F1200 X108.659 Y124.498 E20.20596
G0 F6000 X108.659 Y123.933
G1 F1200 X111.339 Y126.613 E20.33202
G0 F6000 X111.339 Y126.047
G1 F1200 X108.659 Y123.367 E20.45808
G0 F6000 X108.659 Y122.801
G1 F1200 X111.339 Y125.481 E20.58414
G0 F6000 X111.339 Y124.916
G1 F1200 X108.659 Y122.236 E20.7102
G0 F6000 X108.659 Y121.67
G1 F1200 X111.339 Y124.35 E20.83626
G0 F6000 X111.339 Y123.784
G1 F1200 X108.659 Y121.104 E20.96232
G0 F6000 X108.659 Y120.539
G1 F1200 X111.339 Y123.219 E21.08838
G0 F6000 X111.339 Y122.653
G1 F1200 X108.659 Y119.973 E21.21444
G0 F6000 X108.659 Y119.407
G1 F1200 X111.339 Y122.087 E21.34049
G0 F6000 X111.339 Y121.521
G1 F1200 X108.659 Y118.842 E21.46653
G0 F6000 X108.659 Y118.276
G1 F1200 X111.339 Y120.956 E21.59259
G0 F6000 X111.339 Y120.39
G1 F1200 X108.659 Y117.71 E21.71865
G0 F6000 X108.659 Y117.144
G1 F1200 X111.339 Y119.824 E21.84471
G0 F6000 X111.339 Y119.259
G1 F1200 X108.659 Y116.579 E21.97077
G0 F6000 X108.659 Y116.013
G1 F1200 X111.339 Y118.693 E22.09682
G0 F6000 X111.339 Y118.127
G1 F1200 X108.659 Y115.447 E22.22288
G0 F6000 X108.659 Y114.882
G1 F1200 X111.339 Y117.562 E22.34894
G0 F6000 X111.339 Y116.996
G1 F1200 X108.659 Y114.316 E22.475
G0 F6000 X108.659 Y113.75
G1 F1200 X111.339 Y116.43 E22.60106
G0 F6000 X111.339 Y115.865
G1 F1200 X108.659 Y113.185 E22.72712
G0 F6000 X108.659 Y112.619
G1 F1200 X111.339 Y115.299 E22.85318
G0 F6000 X111.339 Y114.733
G1 F1200 X108.659 Y112.053 E22.97924
G0 F6000 X108.659 Y111.488
G1 F1200 X111.339 Y114.168 E23.1053
G0 F6000 X111.339 Y113.602
G1 F1200 X108.659 Y110.922 E23.23136
G0 F6000 X108.659 Y110.356
G1 F1200 X111.339 Y113.036 E23.35741
G0 F6000 X111.339 Y112.47
G1 F1200 X108.659 Y109.791 E23.48345
G0 F6000 X108.659 Y109.225
G1 F1200 X111.339 Y111.905 E23.60951
G0 F6000 X111.339 Y111.339
G1 F1200 X108.659 Y108.659 E23.73557
G0 F6000 X108.659 Y108.093
G1 F1200 X111.339 Y110.773 E23.86163
G0 F6000 X111.339 Y110.208
G1 F1200 X108.659 Y107.528 E23.98769
G0 F6000 X108.659 Y106.962
G1 F1200 X111.339 Y109.642 E24.11375
G0 F6000 X111.339 Y109.076
G1 F1200 X108.659 Y106.396 E24.2398
G0 F6000 X108.659 Y105.831
G1 F1200 X111.339 Y108.511 E24.36586
G0 F6000 X111.339 Y107.945
G1 F1200 X108.659 Y105.265 E24.49192
G0 F6000 X108.659 Y104.699
G1 F1200 X111.339 Y107.379 E24.61798
G0 F6000 X111.339 Y106.814
G1 F1200 X108.659 Y104.134 E24.74404
G0 F6000 X108.659 Y103.568
G1 F1200 X111.339 Y106.248 E24.8701
G0 F6000 X111.339 Y105.682
G1 F1200 X108.659 Y103.002 E24.99616
G0 F6000 X108.659 Y102.437
G1 F1200 X111.339 Y105.117 E25.12222
G0 F6000 X111.339 Y104.551
G1 F1200 X108.659 Y101.871 E25.24828
G0 F6000 X108.659 Y101.305
G1 F1200 X111.339 Y103.985 E25.37433
G0 F6000 X111.339 Y103.42
G1 F1200 X108.659 Y100.74 E25.50039
G0 F6000 X108.659 Y100.174
G1 F1200 X111.339 Y102.854 E25.62645
G0 F6000 X111.358 Y102.307
G1 F1200 X108.659 Y99.608 E25.75341
G0 F6000 X108.659 Y99.043
G1 F1200 X111.5 Y101.883 E25.88701
G0 F6000 X111.782 Y101.6
G1 F1200 X108.842 Y98.66 E26.0253
G0 F6000 X109.408 Y98.66
G1 F1200 X112.14 Y101.392 E26.15381
G0 F6000 X112.655 Y101.341
G1 F1200 X109.974 Y98.66 E26.27991
G0 F6000 X110.539 Y98.66
G1 F1200 X113.221 Y101.341 E26.40604
G0 F6000 X113.786 Y101.341
G1 F1200 X111.105 Y98.66 E26.53215
G0 F6000 X111.671 Y98.66
G1 F1200 X114.351 Y101.341 E26.65823
G0 F6000 X114.917 Y101.341
G1 F1200 X112.236 Y98.66 E26.78434
G0 F6000 X112.802 Y98.66
G1 F1200 X115.483 Y101.341 E26.91044
G0 F6000 X116.048 Y101.34
G1 F1200 X113.368 Y98.66 E27.0365
G0 F6000 X113.933 Y98.66
G1 F1200 X116.613 Y101.34 E27.16256
G0 F6000 X117.179 Y101.34
G1 F1200 X114.499 Y98.66 E27.28862
G0 F6000 X115.065 Y98.66
G1 F1200 X117.744 Y101.339 E27.41463
G0 F6000 X118.31 Y101.339
G1 F1200 X115.631 Y98.66 E27.54064
G0 F6000 X116.196 Y98.66
G1 F1200 X118.875 Y101.339 E27.66666
G0 F6000 X119.44 Y101.339
G1 F1200 X116.762 Y98.66 E27.79264
G0 F6000 X117.328 Y98.66
G1 F1200 X120.006 Y101.339 E27.91863
G0 F6000 X120.572 Y101.339
G1 F1200 X117.893 Y98.66 E28.04465
G0 F6000 X118.459 Y98.66
G1 F1200 X121.137 Y101.338 E28.17061
G0 F6000 X121.702 Y101.338
G1 F1200 X119.025 Y98.66 E28.29655
G0 F6000 X119.59 Y98.66
G1 F1200 X122.268 Y101.338 E28.42252
G0 F6000 X122.833 Y101.337
G1 F1200 X120.156 Y98.66 E28.54843
G0 F6000 X120.722 Y98.66
G1 F1200 X123.399 Y101.337 E28.67435
G0 F6000 X123.965 Y101.337
G1 F1200 X121.287 Y98.66 E28.80029
G0 F6000 X121.853 Y98.66
G1 F1200 X124.53 Y101.337 E28.92621
G0 F6000 X125.095 Y101.336
G1 F1200 X122.419 Y98.66 E29.05208
G0 F6000 X122.984 Y98.66
G1 F1200 X125.661 Y101.336 E29.17798
G0 F6000 X126.227 Y101.336
G1 F1200 X123.55 Y98.66 E29.30387
G0 F6000 X124.116 Y98.66
G1 F1200 X126.339 Y100.883 E29.40843
G0 F6000 X126.339 Y100.317
G1 F1200 X124.682 Y98.66 E29.48637
G0 F6000 X125.247 Y98.66
G1 F1200 X126.339 Y99.752 E29.53774
G0 F6000 X126.339 Y99.186
G1 F1200 X125.813 Y98.66 E29.56248
G1 F2700 E24.56248
;MESH:NONMESH
G0 F300 X125.813 Y98.66 Z0.4
G0 F6000 X125.813 Y98.2
G0 X126.728 Y98.272
G0 X126.728 Y101.725
G0 X112.069 Y102.069
G0 X111.959 Y133.041
G0 X126.728 Y133.275
G0 X126.728 Y136.728
G0 X108.1 Y136.9
;TIME_ELAPSED:60.363318
;LAYER:1
M106 S85
;TYPE:WALL-INNER
;MESH:LETRA C.stl
G1 F2700 E29.56248
G1 F1350 X126.9 Y136.9 E30.18777
G1 X126.9 Y135.002 E30.2509
G1 X126.9 Y133.103 E30.31406
G1 X112.497 Y133.103 E30.79311
G1 X112.189 Y133.019 E30.80372
G1 X111.981 Y132.811 E30.81351
G1 X111.897 Y132.503 E30.82413
G1 X111.897 Y102.497 E31.82213
G1 X111.981 Y102.189 E31.83275
G1 X112.189 Y101.981 E31.84253
G1 X112.497 Y101.897 E31.85315
G1 X126.9 Y101.897 E32.33219
G1 X126.9 Y98.1 E32.45848
G1 X108.1 Y98.1 E33.08377
G1 X108.1 Y136.9 E34.37427
G0 F7500 X107.7 Y137.3
;TYPE:WALL-OUTER
G1 F1350 X127.3 Y137.3 E35.02617
G1 X127.3 Y135.002 E35.1026
G1 X127.3 Y132.703 E35.17906
G1 X112.454 Y132.703 E35.67284
G1 X112.355 Y132.645 E35.67666
G1 X112.299 Y132.538 E35.68068
G1 X112.297 Y102.454 E36.68127
G1 X112.355 Y102.355 E36.68509
G1 X112.462 Y102.299 E36.68911
G1 X127.3 Y102.297 E37.18262
G1 X127.3 Y97.7 E37.33552
G1 X107.7 Y97.7 E37.98742
G1 X107.7 Y137.3 E39.30452
G0 F7500 X107.97 Y137.03
G0 X108.2 Y136.54
G0 X108.46 Y136.54
;TYPE:SKIN
G1 F1350 X126.54 Y136.54 E39.90586
G1 X126.54 Y135.002 E39.95701
G1 X126.54 Y133.463 E40.0082
G1 X112.476 Y133.462 E40.47597
G1 X112.263 Y133.434 E40.48312
G1 X111.994 Y133.327 E40.49275
G1 X111.701 Y133.034 E40.50653
G1 X111.565 Y132.74 E40.5173
G1 X111.538 Y132.529 E40.52438
G1 X111.538 Y102.476 E41.52394
G1 X111.566 Y102.263 E41.53109
G1 X111.673 Y101.994 E41.54072
G1 X111.994 Y101.673 E41.55582
G1 X112.319 Y101.539 E41.56751
G1 X126.54 Y101.537 E42.0405
G1 X126.54 Y98.461 E42.14281
G1 X108.46 Y98.46 E42.74415
G1 X108.46 Y136.54 E44.0107
G0 F7500 X108.2 Y136.54
G0 X126.138 Y136.8
G0 X126.138 Y136.339
G1 F1350 X126.339 Y136.138 E44.02015
G0 F7500 X126.339 Y135.572
G1 F1350 X125.572 Y136.339 E44.05623
G0 F7500 X125.007 Y136.339
G1 F1350 X126.339 Y135.007 E44.11888
G0 F7500 X126.339 Y134.441
G1 F1350 X124.441 Y136.339 E44.20816
G0 F7500 X123.875 Y136.339
G1 F1350 X126.339 Y133.875 E44.32406
G0 F7500 X125.988 Y133.661
G1 F1350 X123.31 Y136.339 E44.45002
G0 F7500 X122.744 Y136.339
G1 F1350 X125.422 Y133.661 E44.57599
G0 F7500 X124.856 Y133.661
G1 F1350 X122.178 Y136.339 E44.70195
G0 F7500 X121.613 Y136.339
G1 F1350 X124.29 Y133.661 E44.8279
G0 F7500 X123.725 Y133.661
G1 F1350 X121.047 Y136.339 E44.95386
G0 F7500 X120.481 Y136.339
G1 F1350 X123.159 Y133.661 E45.07983
G0 F7500 X122.594 Y133.66
G1 F1350 X119.916 Y136.339 E45.20581
G0 F7500 X119.35 Y136.339
G1 F1350 X122.028 Y133.66 E45.3318
G0 F7500 X121.463 Y133.66
G1 F1350 X118.784 Y136.339 E45.45781
G0 F7500 X118.219 Y136.339
G1 F1350 X120.897 Y133.66 E45.5838
G0 F7500 X120.331 Y133.66
G1 F1350 X117.653 Y136.339 E45.70979
G0 F7500 X117.087 Y136.339
G1 F1350 X119.766 Y133.66 E45.8358
G0 F7500 X119.201 Y133.66
G1 F1350 X116.522 Y136.339 E45.96182
G0 F7500 X115.956 Y136.339
G1 F1350 X118.635 Y133.66 E46.08783
G0 F7500 X118.069 Y133.66
G1 F1350 X115.39 Y136.339 E46.21384
G0 F7500 X114.824 Y136.339
G1 F1350 X117.504 Y133.66 E46.33987
G0 F7500 X116.938 Y133.66
G1 F1350 X114.259 Y136.339 E46.46589
G0 F7500 X113.693 Y136.339
G1 F1350 X116.372 Y133.66 E46.5919
G0 F7500 X115.807 Y133.659
G1 F1350 X113.127 Y136.339 E46.71796
G0 F7500 X112.562 Y136.339
G1 F1350 X115.242 Y133.659 E46.84402
G0 F7500 X114.676 Y133.659
G1 F1350 X111.996 Y136.339 E46.97008
G0 F7500 X111.43 Y136.339
G1 F1350 X114.11 Y133.659 E47.09613
G0 F7500 X113.545 Y133.659
G1 F1350 X110.865 Y136.339 E47.22219
G0 F7500 X110.299 Y136.339
G1 F1350 X112.979 Y133.659 E47.34825
G0 F7500 X112.418 Y133.654
G1 F1350 X109.733 Y136.339 E47.47455
G0 F7500 X109.168 Y136.339
G1 F1350 X111.974 Y133.532 E47.60656
G0 F7500 X111.663 Y133.278
G1 F1350 X108.66 Y136.281 E47.74781
G0 F7500 X108.66 Y135.715
G1 F1350 X111.432 Y132.943 E47.87819
G0 F7500 X111.339 Y132.47
G1 F1350 X108.66 Y135.15 E48.00423
G0 F7500 X108.66 Y134.584
G1 F1350 X111.339 Y131.905 E48.13024
G0 F7500 X111.339 Y131.339
G1 F1350 X108.66 Y134.018 E48.25625
G0 F7500 X108.66 Y133.452
G1 F1350 X111.339 Y130.773 E48.38227
G0 F7500 X111.339 Y130.208
G1 F1350 X108.66 Y132.887 E48.50828
G0 F7500 X108.66 Y132.321
G1 F1350 X111.339 Y129.642 E48.63429
G0 F7500 X111.339 Y129.076
G1 F1350 X108.66 Y131.755 E48.7603
G0 F7500 X108.66 Y131.19
G1 F1350 X111.339 Y128.511 E48.88631
G0 F7500 X111.339 Y127.945
G1 F1350 X108.66 Y130.624 E49.01233
G0 F7500 X108.66 Y130.058
G1 F1350 X111.339 Y127.379 E49.13834
G0 F7500 X111.339 Y126.813
G1 F1350 X108.66 Y129.493 E49.26437
G0 F7500 X108.66 Y128.927
G1 F1350 X111.339 Y126.248 E49.39038
G0 F7500 X111.339 Y125.682
G1 F1350 X108.66 Y128.361 E49.5164
G0 F7500 X108.66 Y127.796
G1 F1350 X111.339 Y125.116 E49.64243
G0 F7500 X111.339 Y124.551
G1 F1350 X108.66 Y127.23 E49.76844
G0 F7500 X108.66 Y126.664
G1 F1350 X111.339 Y123.985 E49.89446
G0 F7500 X111.339 Y123.419
G1 F1350 X108.66 Y126.099 E50.02049
G0 F7500 X108.66 Y125.533
G1 F1350 X111.339 Y122.854 E50.1465
G0 F7500 X111.339 Y122.288
G1 F1350 X108.66 Y124.967 E50.27252
G0 F7500 X108.66 Y124.402
G1 F1350 X111.339 Y121.722 E50.39855
G0 F7500 X111.339 Y121.157
G1 F1350 X108.66 Y123.836 E50.52456
G0 F7500 X108.66 Y123.27
G1 F1350 X111.339 Y120.591 E50.65057
G0 F7500 X111.339 Y120.025
G1 F1350 X108.66 Y122.704 E50.77659
G0 F7500 X108.66 Y122.139
G1 F1350 X111.339 Y119.46 E50.9026
G0 F7500 X111.339 Y118.894
G1 F1350 X108.66 Y121.573 E51.02861
G0 F7500 X108.66 Y121.007
G1 F1350 X111.339 Y118.328 E51.15462
G0 F7500 X111.339 Y117.762
G1 F1350 X108.66 Y120.442 E51.28066
G0 F7500 X108.66 Y119.876
G1 F1350 X111.339 Y117.197 E51.40667
G0 F7500 X111.339 Y116.631
G1 F1350 X108.66 Y119.31 E51.53268
G0 F7500 X108.66 Y118.745
G1 F1350 X111.339 Y116.065 E51.65872
G0 F7500 X111.339 Y115.5
G1 F1350 X108.66 Y118.179 E51.78473
