;FLAVOR:Marlin
;TIME:619
;Filament used: 0.374313m
;Layer height: 0.2
;MINX:107.7
;MINY:97.7
;MINZ:0.2
;MAXX:127.3
;MAXY:137.3
;MAXZ:2
;Generated with Cura_SteamEngine 5.2.2
M140 S50
M105
M190 S50
M104 S200
M105
M109 S200
M82 ;absolute extrusion mode
; Ender 3 Custom Start G-code
G92 E0 ; Reset Extruder
G28 ; Home all axes
G1 Z2.0 F3000 ; Move Z Axis up little to prevent scratching of Heat Bed
G1 X0.1 Y20 Z0.3 F5000.0 ; Move to start position
G1 X0.1 Y200.0 Z0.3 F1500.0 E15 ; Draw the first line
G1 X0.4 Y200.0 Z0.3 F5000.0 ; Move to side a little
G1 X0.4 Y20 Z0.3 F1500.0 E30 ; Draw the second line
G92 E0 ; Reset Extruder
G1 Z2.0 F3000 ; Move Z Axis up little to prevent scratching of Heat Bed
G1 X5 Y20 Z0.3 F5000.0 ; Move over to prevent blob squish
G92 E0
G92 E0
G1 F2700 E-5
;LAYER_COUNT:10
;LAYER:0
M107
;MESH:LETRA K.stl
G0 F6000 X112.897 Y136.9 Z0.2
;TYPE:WALL-INNER
G1 F2700 E0
G1 F1200 X112.897 Y120.53 E0.54447
G1 X112.984 Y120.217 E0.55527
G1 X113.172 Y120.025 E0.56421
G1 X113.318 Y119.957 E0.56957
G1 X113.566 Y119.927 E0.57788
G1 X113.848 Y120.026 E0.58782
G1 X114.002 Y120.171 E0.59485
G1 X123.844 Y136.9 E1.24041
G1 X126.9 Y136.9 E1.34205
G1 X126.9 Y135.058 E1.40332
G1 X126.9 Y134.635 E1.41739
G1 X118.922 Y118.202 E2.02496
G1 X118.903 Y117.862 E2.03629
G1 X126.9 Y101.364 E2.64608
G1 X126.9 Y98.1 E2.75464
G1 X122.871 Y98.1 E2.88864
G1 X114.044 Y115.751 E3.54503
G1 X113.933 Y115.9 E3.55121
G1 X113.722 Y116.033 E3.55951
G1 X113.567 Y116.067 E3.56479
G1 X113.318 Y116.039 E3.57312
G1 X113.172 Y115.971 E3.57848
G1 X112.984 Y115.778 E3.58744
G1 X112.897 Y115.465 E3.59825
G1 X112.897 Y98.1 E4.17581
G1 X108.1 Y98.1 E4.33536
G1 X108.101 Y136.9 E5.62585
G1 X112.897 Y136.9 E5.78537
G0 F6000 X113.297 Y137.3
;TYPE:WALL-OUTER
G1 F1200 X113.297 Y120.49 E6.34447
G1 X113.388 Y120.361 E6.34972
G1 X113.495 Y120.325 E6.35347
G1 X113.666 Y120.389 E6.35955
G1 X123.615 Y137.3 E7.01213
G1 X127.3 Y137.3 E7.13469
G1 X127.3 Y135.058 E7.20926
G1 X127.3 Y134.543 E7.22639
G1 X119.304 Y118.065 E7.83557
G1 X119.299 Y117.962 E7.839
G1 X127.3 Y101.456 E8.44909
G1 X127.3 Y97.7 E8.57401
G1 X122.624 Y97.7 E8.72954
G1 X113.671 Y115.602 E9.39527
G1 X113.532 Y115.669 E9.4004
G1 X113.388 Y115.634 E9.40533
G1 X113.299 Y115.5 E9.41068
G1 X113.297 Y97.7 E10.00271
G1 X107.7 Y97.7 E10.18887
G1 X107.701 Y137.3 E11.50597
G1 X113.297 Y137.3 E11.69209
G0 F6000 X113.027 Y137.03
G0 X112.797 Y136.54
G0 X112.537 Y136.54
;TYPE:SKIN
G1 F1200 X112.538 Y120.509 E12.22529
G1 X112.583 Y120.236 E12.23449
G1 X112.707 Y119.991 E12.24362
G1 X112.965 Y119.73 E12.25583
G1 X113.213 Y119.609 E12.26501
G1 X113.612 Y119.565 E12.27836
G1 X114.043 Y119.72 E12.29359
G1 X114.269 Y119.923 E12.3037
G1 X124.049 Y136.54 E12.945
G1 X126.54 Y136.54 E13.02785
G1 X126.54 Y135.059 E13.07711
G1 X126.54 Y134.719 E13.08842
G1 X118.622 Y118.402 E13.69164
G1 X118.544 Y118.132 E13.70099
G1 X118.548 Y117.863 E13.70994
G1 X118.634 Y117.587 E13.71955
G1 X126.54 Y101.28 E14.32231
G1 X126.54 Y98.46 E14.4161
G1 X123.094 Y98.46 E14.53072
G1 X114.36 Y115.926 E15.18022
G1 X114.174 Y116.169 E15.1904
G1 X113.859 Y116.364 E15.20272
G1 X113.597 Y116.427 E15.21169
G1 X113.208 Y116.384 E15.2247
G1 X112.965 Y116.265 E15.2337
G1 X112.681 Y115.978 E15.24713
G1 X112.566 Y115.706 E15.25695
G1 X112.538 Y115.491 E15.26416
G1 X112.537 Y98.46 E15.83062
G1 X108.461 Y98.46 E15.96619
G1 X108.461 Y136.54 E17.23273
G1 X112.537 Y136.54 E17.3683
G0 F6000 X112.797 Y136.54
G0 X109.186 Y136.8
G0 X109.186 Y136.339
G1 F1200 X108.66 Y135.813 E17.39304
G0 F6000 X108.66 Y135.247
G1 F1200 X109.752 Y136.339 E17.44441
G0 F6000 X110.317 Y136.339
G1 F1200 X108.66 Y134.681 E17.52237
G0 F6000 X108.66 Y134.116
G1 F1200 X110.883 Y136.339 E17.62693
G0 F6000 X111.449 Y136.339
G1 F1200 X108.66 Y133.55 E17.75812
G0 F6000 X108.66 Y132.984
G1 F1200 X112.014 Y136.339 E17.9159
G0 F6000 X112.338 Y136.096
G1 F1200 X108.66 Y132.419 E18.08888
G0 F6000 X108.66 Y131.853
G1 F1200 X112.338 Y135.531 E18.26188
G0 F6000 X112.338 Y134.965
G1 F1200 X108.66 Y131.287 E18.43489
G0 F6000 X108.66 Y130.722
G1 F1200 X112.338 Y134.399 E18.60786
G0 F6000 X112.338 Y133.834
G1 F1200 X108.66 Y130.156 E18.78087
G0 F6000 X108.66 Y129.59
G1 F1200 X112.338 Y133.268 E18.95387
G0 F6000 X112.338 Y132.702
G1 F1200 X108.66 Y129.025 E19.12685
G0 F6000 X108.66 Y128.459
G1 F1200 X112.338 Y132.137 E19.29985
G0 F6000 X112.338 Y131.572
G1 F1200 X108.66 Y127.893 E19.47287
G0 F6000 X108.66 Y127.328
G1 F1200 X112.338 Y131.006 E19.64588
G0 F6000 X112.338 Y130.44
G1 F1200 X108.66 Y126.762 E19.81888
G0 F6000 X108.66 Y126.196
G1 F1200 X112.338 Y129.875 E19.9919
G0 F6000 X112.338 Y129.309
G1 F1200 X108.66 Y125.63 E20.16493
G0 F6000 X108.66 Y125.065
G1 F1200 X112.338 Y128.743 E20.33793
G0 F6000 X112.339 Y128.178
G1 F1200 X108.66 Y124.499 E20.51098
G0 F6000 X108.66 Y123.933
G1 F1200 X112.339 Y127.612 E20.68403
G0 F6000 X112.339 Y127.047
G1 F1200 X108.66 Y123.368 E20.85708
G0 F6000 X108.66 Y122.802
G1 F1200 X112.339 Y126.481 E21.03013
G0 F6000 X112.339 Y125.915
G1 F1200 X108.66 Y122.236 E21.20317
G0 F6000 X108.66 Y121.671
G1 F1200 X112.339 Y125.35 E21.37622
G0 F6000 X112.339 Y124.784
G1 F1200 X108.66 Y121.105 E21.54927
G0 F6000 X108.66 Y120.539
G1 F1200 X112.34 Y124.219 E21.72237
G0 F6000 X112.34 Y123.653
G1 F1200 X108.66 Y119.974 E21.89544
G0 F6000 X108.66 Y119.408
G1 F1200 X112.34 Y123.088 E22.06854
G0 F6000 X112.34 Y122.522
G1 F1200 X108.66 Y118.842 E22.24163
G0 F6000 X108.66 Y118.277
G1 F1200 X112.34 Y121.956 E22.4147
G0 F6000 X112.34 Y121.391
G1 F1200 X108.66 Y117.711 E22.5878
G0 F6000 X108.66 Y117.145
G1 F1200 X112.34 Y120.825 E22.7609
G0 F6000 X112.366 Y120.285
G1 F1200 X108.66 Y116.579 E22.93522
G0 F6000 X108.66 Y116.014
G1 F1200 X112.53 Y119.884 E23.11725
G0 F6000 X112.813 Y119.601
G1 F1200 X108.66 Y115.448 E23.31259
G0 F6000 X108.66 Y114.882
G1 F1200 X113.185 Y119.408 E23.52546
G0 F6000 X113.747 Y119.404
G1 F1200 X108.66 Y114.317 E23.76474
G0 F6000 X108.66 Y113.751
G1 F1200 X123.199 Y128.29 E24.44861
G0 F6000 X123.611 Y128.092
G0 X123.078 Y126.994
G0 X122.666 Y127.192
G1 F1200 X108.66 Y113.185 E25.10743
G0 F6000 X108.66 Y112.62
G1 F1200 X122.133 Y126.093 E25.74116
G0 F6000 X122.544 Y125.894
G0 X122.011 Y124.796
G0 X121.6 Y124.994
G1 F1200 X113.189 Y116.583 E26.13678
G0 F6000 X113.765 Y116.594
G1 F1200 X121.067 Y123.895 E26.48022
G0 F6000 X121.478 Y123.698
G0 X120.944 Y122.598
G0 X120.534 Y122.796
G1 F1200 X114.152 Y116.415 E26.78039
G0 F6000 X114.445 Y116.142
G1 F1200 X120 Y121.698 E27.0417
G0 F6000 X120.411 Y121.5
G0 X119.878 Y120.402
G0 X119.468 Y120.599
G1 F1200 X114.654 Y115.785 E27.26814
G0 F6000 X114.843 Y115.409
G1 F1200 X118.935 Y119.501 E27.46062
G0 F6000 X119.345 Y119.303
G0 X118.846 Y118.259
G0 X118.418 Y118.418
G1 F1200 X115.031 Y115.031 E27.61993
G0 F6000 X115.22 Y114.654
G1 F1200 X118.356 Y117.79 E27.76744
G0 F6000 X118.511 Y117.38
G1 F1200 X115.409 Y114.277 E27.91337
G0 F6000 X115.597 Y113.9
G1 F1200 X118.696 Y116.999 E28.05914
G0 F6000 X118.88 Y116.618
G1 F1200 X115.785 Y113.523 E28.20472
G0 F6000 X115.974 Y113.146
G1 F1200 X119.065 Y116.237 E28.35011
G0 F6000 X119.25 Y115.856
G1 F1200 X116.162 Y112.768 E28.49536
G0 F6000 X116.351 Y112.391
G1 F1200 X119.435 Y115.475 E28.64042
G0 F6000 X119.619 Y115.094
G1 F1200 X116.54 Y112.014 E28.78527
G0 F6000 X116.728 Y111.637
G1 F1200 X119.804 Y114.713 E28.92995
G0 F6000 X119.989 Y114.332
G1 F1200 X116.917 Y111.26 E29.07445
G0 F6000 X117.106 Y110.883
G1 F1200 X120.174 Y113.951 E29.21876
G0 F6000 X120.358 Y113.57
G1 F1200 X117.294 Y110.505 E29.36291
G0 F6000 X117.482 Y110.129
G1 F1200 X120.543 Y113.189 E29.50686
G0 F6000 X120.727 Y112.808
G1 F1200 X117.671 Y109.752 E29.65061
G0 F6000 X117.859 Y109.374
G1 F1200 X120.913 Y112.427 E29.79423
G0 F6000 X121.097 Y112.046
G1 F1200 X118.048 Y108.997 E29.93765
G0 F6000 X118.237 Y108.62
G1 F1200 X121.282 Y111.665 E30.08088
G0 F6000 X121.466 Y111.284
G1 F1200 X118.425 Y108.243 E30.22392
G0 F6000 X118.614 Y107.866
G1 F1200 X121.652 Y110.904 E30.36682
G0 F6000 X121.836 Y110.522
G1 F1200 X118.803 Y107.489 E30.50948
G0 F6000 X118.991 Y107.111
G1 F1200 X122.021 Y110.141 E30.652
G0 F6000 X122.205 Y109.76
G1 F1200 X119.18 Y106.734 E30.79431
G0 F6000 X119.368 Y106.357
G1 F1200 X122.39 Y109.38 E30.93648
G0 F6000 X122.575 Y108.999
G1 F1200 X119.556 Y105.98 E31.07848
G0 F6000 X119.745 Y105.603
G1 F1200 X122.76 Y108.617 E31.22028
G0 F6000 X122.944 Y108.236
G1 F1200 X119.933 Y105.225 E31.36191
G0 F6000 X120.122 Y104.849
G1 F1200 X123.129 Y107.855 E31.50332
G0 F6000 X123.314 Y107.475
G1 F1200 X120.311 Y104.472 E31.64457
G0 F6000 X120.499 Y104.094
G1 F1200 X123.499 Y107.094 E31.78568
G0 F6000 X123.683 Y106.713
G1 F1200 X120.688 Y103.717 E31.92658
G0 F6000 X120.877 Y103.34
G1 F1200 X123.868 Y106.331 E32.06727
G0 F6000 X124.053 Y105.951
G1 F1200 X121.065 Y102.963 E32.20782
G0 F6000 X121.253 Y102.586
G1 F1200 X124.237 Y105.57 E32.34818
G0 F6000 X124.422 Y105.189
G1 F1200 X121.442 Y102.209 E32.48835
G0 F6000 X121.63 Y101.831
G1 F1200 X124.607 Y104.808 E32.62837
G0 F6000 X124.791 Y104.426
G1 F1200 X121.819 Y101.454 E32.76817
G0 F6000 X122.008 Y101.078
G1 F1200 X124.976 Y104.046 E32.90777
G0 F6000 X125.161 Y103.665
G1 F1200 X122.196 Y100.7 E33.04724
G0 F6000 X122.385 Y100.323
G1 F1200 X125.345 Y103.284 E33.18649
G0 F6000 X125.53 Y102.903
G1 F1200 X122.574 Y99.946 E33.32556
G0 F6000 X122.762 Y99.569
G1 F1200 X125.715 Y102.522 E33.46446
G0 F6000 X125.9 Y102.141
G1 F1200 X122.951 Y99.192 E33.60317
G0 F6000 X123.139 Y98.815
G1 F1200 X126.084 Y101.76 E33.74169
G0 F6000 X126.269 Y101.379
G1 F1200 X123.55 Y98.66 E33.86959
G0 F6000 X124.116 Y98.66
G1 F1200 X126.339 Y100.883 E33.97415
G0 F6000 X126.339 Y100.317
G1 F1200 X124.682 Y98.66 E34.05209
G0 F6000 X125.247 Y98.66
G1 F1200 X126.339 Y99.752 E34.10345
G0 F6000 X126.339 Y99.186
G1 F1200 X125.813 Y98.66 E34.12819
G1 F2700 E29.12819
G0 F6000 X125.813 Y98.2
G0 X122.974 Y98.266
G0 X113.729 Y116.001
G0 X113.066 Y115.844
G0 X112.797 Y98.76
G1 F2700 E34.12819
G0 F6000 X112.337 Y98.76
G1 F1200 X112.236 Y98.66 E34.13292
G0 F6000 X111.671 Y98.66
G1 F1200 X112.337 Y99.326 E34.16425
G0 F6000 X112.337 Y99.892
G1 F1200 X111.105 Y98.66 E34.2222
G0 F6000 X110.539 Y98.66
G1 F1200 X112.337 Y100.457 E34.30675
G0 F6000 X112.337 Y101.023
G1 F1200 X109.974 Y98.66 E34.4179
G0 F6000 X109.408 Y98.66
G1 F1200 X112.337 Y101.589 E34.55567
G0 F6000 X112.338 Y102.155
G1 F1200 X108.842 Y98.66 E34.72008
G0 F6000 X108.66 Y99.043
G1 F1200 X112.338 Y102.721 E34.89309
G0 F6000 X112.338 Y103.287
G1 F1200 X108.66 Y99.609 E35.06609
G0 F6000 X108.66 Y100.175
G1 F1200 X112.338 Y103.852 E35.23907
G0 F6000 X112.338 Y104.418
G1 F1200 X108.66 Y100.74 E35.41207
G0 F6000 X108.66 Y101.306
G1 F1200 X112.338 Y104.984 E35.58507
G0 F6000 X112.338 Y105.55
G1 F1200 X108.66 Y101.872 E35.75807
G0 F6000 X108.66 Y102.437
G1 F1200 X112.338 Y106.116 E35.9311
G0 F6000 X112.338 Y106.681
G1 F1200 X108.66 Y103.003 E36.1041
G0 F6000 X108.66 Y103.569
G1 F1200 X112.338 Y107.247 E36.2771
G0 F6000 X112.338 Y107.813
G1 F1200 X108.66 Y104.134 E36.45013
G0 F6000 X108.66 Y104.7
G1 F1200 X112.338 Y108.378 E36.62313
G0 F6000 X112.339 Y108.945
G1 F1200 X108.66 Y105.266 E36.79618
G0 F6000 X108.66 Y105.831
G1 F1200 X112.339 Y109.511 E36.96925
G0 F6000 X112.339 Y110.076
G1 F1200 X108.66 Y106.397 E37.1423
G0 F6000 X108.66 Y106.963
G1 F1200 X112.339 Y110.642 E37.31535
G0 F6000 X112.339 Y111.208
G1 F1200 X108.66 Y107.529 E37.4884
G0 F6000 X108.66 Y108.094
G1 F1200 X112.339 Y111.773 E37.66144
G0 F6000 X112.34 Y112.34
G1 F1200 X108.66 Y108.66 E37.83454
G0 F6000 X108.66 Y109.226
G1 F1200 X112.34 Y112.905 E38.00761
G0 F6000 X112.34 Y113.471
G1 F1200 X108.66 Y109.791 E38.18071
G0 F6000 X108.66 Y110.357
G1 F1200 X112.34 Y114.037 E38.3538
G0 F6000 X112.34 Y114.602
G1 F1200 X108.66 Y110.923 E38.52688
G0 F6000 X108.66 Y111.488
G1 F1200 X112.34 Y115.168 E38.69997
G0 F6000 X112.386 Y115.78
G1 F1200 X108.66 Y112.054 E38.87523
G1 F2700 E33.87523
G0 F6000 X108.2 Y112.054
G0 X108.273 Y136.728
G0 X112.725 Y136.728
G0 X113.085 Y119.89
G0 X113.476 Y119.839
G0 X114.435 Y120.711
G1 F2700 E38.87523
G0 F6000 X114.826 Y120.483
G1 F1200 X123.732 Y129.389 E39.29414
G0 F6000 X124.144 Y129.19
G0 X124.678 Y130.29
G0 X124.265 Y130.488
G1 F1200 X115.636 Y121.859 E39.70003
G0 F6000 X115.245 Y122.088
G0 X116.055 Y123.464
G0 X116.447 Y123.235
G1 F1200 X124.798 Y131.586 E40.09283
G0 F6000 X125.211 Y131.388
G0 X125.743 Y132.486
G0 X125.331 Y132.685
G1 F1200 X117.256 Y124.61 E40.47265
G0 F6000 X116.864 Y124.839
G0 X117.674 Y126.216
G0 X118.067 Y125.986
G1 F1200 X125.865 Y133.784 E40.83945
G0 F6000 X126.277 Y133.585
G0 X126.777 Y134.613
G0 X126.34 Y134.825
G1 F1200 X118.876 Y127.361 E41.19053
G0 F6000 X118.483 Y127.591
G0 X119.293 Y128.968
G0 X119.687 Y128.737
G1 F1200 X126.34 Y135.391 E41.50349
G0 F6000 X126.34 Y135.956
G1 F1200 X120.497 Y130.114 E41.77831
G0 F6000 X120.103 Y130.344
G0 X120.912 Y131.72
G0 X121.306 Y131.489
G1 F1200 X126.157 Y136.339 E42.00646
G0 F6000 X125.591 Y136.339
G1 F1200 X122.117 Y132.865 E42.16986
G0 F6000 X121.722 Y133.096
G0 X122.531 Y134.471
G0 X122.926 Y134.24
G1 F1200 X125.025 Y136.339 E42.26859
G0 F6000 X124.459 Y136.339
G1 F1200 X123.737 Y135.616 E42.30258
G1 F2700 E37.30258
;MESH:NONMESH
G0 F300 X123.737 Y135.616 Z0.4
G0 F6000 X123.341 Y135.848
G0 X113.702 Y119.995
G0 X113.066 Y120.168
G0 X112.897 Y136.9
;TIME_ELAPSED:83.313726
;LAYER:1
M106 S85
;TYPE:WALL-INNER
;MESH:LETRA K.stl
G1 F2700 E42.30258
G1 F1350 X112.897 Y120.53 E42.84705
G1 X112.984 Y120.217 E42.85785
G1 X113.172 Y120.025 E42.86679
G1 X113.318 Y119.957 E42.87215
G1 X113.566 Y119.927 E42.88046
G1 X113.848 Y120.026 E42.8904
G1 X114.002 Y120.171 E42.89743
G1 X123.844 Y136.9 E43.54299
G1 X126.9 Y136.9 E43.64463
G1 X126.9 Y135.058 E43.7059
G1 X126.9 Y134.635 E43.71997
G1 X118.922 Y118.202 E44.32754
G1 X118.903 Y117.862 E44.33886
G1 X126.9 Y101.364 E44.94866
G1 X126.9 Y98.1 E45.05722
G1 X122.871 Y98.1 E45.19122
G1 X114.044 Y115.751 E45.84761
G1 X113.933 Y115.9 E45.85379
G1 X113.722 Y116.033 E45.86209
G1 X113.567 Y116.067 E45.86737
G1 X113.318 Y116.039 E45.8757
G1 X113.172 Y115.971 E45.88106
G1 X112.984 Y115.778 E45.89002
G1 X112.897 Y115.465 E45.90082
G1 X112.897 Y98.1 E46.47839
G1 X108.1 Y98.1 E46.63794
G1 X108.101 Y136.9 E47.92843
G1 X112.897 Y136.9 E48.08794
G0 F7500 X113.297 Y137.3
;TYPE:WALL-OUTER
G1 F1350 X113.297 Y120.49 E48.64705
G1 X113.388 Y120.361 E48.6523
G1 X113.495 Y120.325 E48.65605
G1 X113.666 Y120.389 E48.66213
G1 X123.615 Y137.3 E49.31471
G1 X127.3 Y137.3 E49.43727
G1 X127.3 Y135.058 E49.51184
G1 X127.3 Y134.543 E49.52897
G1 X119.304 Y118.065 E50.13815
G1 X119.299 Y117.962 E50.14158
G1 X127.3 Y101.456 E50.75167
G1 X127.3 Y97.7 E50.87659
G1 X122.624 Y97.7 E51.03212
G1 X113.671 Y115.602 E51.69785
G1 X113.532 Y115.669 E51.70298
G1 X113.388 Y115.634 E51.70791
G1 X113.299 Y115.5 E51.71326
G1 X113.297 Y97.7 E52.30529
G1 X107.7 Y97.7 E52.49145
G1 X107.701 Y137.3 E53.80855
G1 X113.297 Y137.3 E53.99467
G0 F7500 X113.027 Y137.03
G0 X112.797 Y136.54
G0 X112.537 Y136.54
;TYPE:SKIN
G1 F1350 X112.538 Y120.509 E54.52787
G1 X112.583 Y120.236 E54.53707
G1 X112.707 Y119.991 E54.5462
G1 X112.965 Y119.73 E54.55841
G1 X113.213 Y119.609 E54.56758
G1 X113.612 Y119.565 E54.58094
G1 X114.043 Y119.72 E54.59617
G1 X114.269 Y119.923 E54.60627
G1 X124.049 Y136.54 E55.24758
G1 X126.54 Y136.54 E55.33043
G1 X126.54 Y135.059 E55.37969
G1 X126.54 Y134.719 E55.39099
G1 X118.622 Y118.402 E55.99422
G1 X118.544 Y118.132 E56.00357
G1 X118.548 Y117.863 E56.01252
G1 X118.634 Y117.587 E56.02213
G1 X126.54 Y101.28 E56.62489
G1 X126.54 Y98.46 E56.71868
G1 X123.094 Y98.46 E56.8333
G1 X114.36 Y115.926 E57.4828
G1 X114.174 Y116.169 E57.49298
G1 X113.859 Y116.364 E57.5053
G1 X113.597 Y116.427 E57.51426
G1 X113.208 Y116.384 E57.52728
G1 X112.965 Y116.265 E57.53628
G1 X112.681 Y115.978 E57.54971
G1 X112.566 Y115.706 E57.55953
G1 X112.538 Y115.491 E57.56674
G1 X112.537 Y98.46 E58.1332
G1 X108.461 Y98.46 E58.26876
G1 X108.461 Y136.54 E59.53531
G1 X112.537 Y136.54 E59.67088
G1 F2700 E54.67088
G0 F7500 X112.797 Y136.54
G0 X113.066 Y120.168
G0 X113.702 Y119.995
G0 X123.562 Y136.749
G0 X126.138 Y136.8
