;FLAVOR:Marlin
;TIME:631
;Filament used: 0.386277m
;Layer height: 0.2
;MINX:107.7
;MINY:97.7
;MINZ:0.2
;MAXX:127.3
;MAXY:137.3
;MAXZ:2
;Generated with Cura_SteamEngine 5.2.2
M140 S50
M105
M190 S50
M104 S200
M105
M109 S200
M82 ;absolute extrusion mode
; Ender 3 Custom Start G-code
G92 E0 ; Reset Extruder
G28 ; Home all axes
G1 Z2.0 F3000 ; Move Z Axis up little to prevent scratching of Heat Bed
G1 X0.1 Y20 Z0.3 F5000.0 ; Move to start position
G1 X0.1 Y200.0 Z0.3 F1500.0 E15 ; Draw the first line
G1 X0.4 Y200.0 Z0.3 F5000.0 ; Move to side a little
G1 X0.4 Y20 Z0.3 F1500.0 E30 ; Draw the second line
G92 E0 ; Reset Extruder
G1 Z2.0 F3000 ; Move Z Axis up little to prevent scratching of Heat Bed
G1 X5 Y20 Z0.3 F5000.0 ; Move over to prevent blob squish
G92 E0
G92 E0
G1 F2700 E-5
;LAYER_COUNT:10
;LAYER:0
M107
;MESH:LETRA X.stl
G0 F6000 X109.559 Y136.899 Z0.2
;TYPE:WALL-INNER
G1 F2700 E0
G1 F1200 X117.181 Y124.189 E0.49292
G1 X117.358 Y124.001 E0.50151
G1 X117.574 Y123.91 E0.50931
G1 X117.84 Y123.915 E0.51816
G1 X118.009 Y123.985 E0.52424
G1 X118.182 Y124.136 E0.53188
G1 X125.297 Y136.9 E1.01791
G1 X126.9 Y136.9 E1.07123
G1 X126.9 Y127.143 E1.39575
G1 X126.9 Y126.432 E1.41939
G1 X122.951 Y117.757 E1.73641
G1 X122.902 Y117.58 E1.74252
G1 X122.93 Y117.312 E1.75148
G1 X126.9 Y108.573 E2.07073
G1 X126.9 Y98.1 E2.41907
G1 X125.441 Y98.1 E2.46759
G1 X117.8 Y110.842 E2.96175
G1 X117.578 Y111.037 E2.97158
G1 X117.379 Y111.098 E2.9785
G1 X117.224 Y111.097 E2.98366
G1 X117.028 Y111.035 E2.9905
G1 X116.814 Y110.857 E2.99975
G1 X109.703 Y98.1 E3.48552
G1 X108.1 Y98.1 E3.53884
G1 X108.1 Y108.18 E3.8741
G1 X113.03 Y117.204 E4.21611
G1 X113.104 Y117.491 E4.22597
G1 X113.06 Y117.726 E4.23392
G1 X108.101 Y126.817 E4.57834
G1 X108.101 Y136.899 E4.91367
G1 X109.559 Y136.899 E4.96217
G0 F6000 X109.785 Y137.299
;TYPE:WALL-OUTER
G1 F1200 X117.556 Y124.341 E5.46471
G1 X117.683 Y124.298 E5.46917
G1 X117.852 Y124.371 E5.47529
G1 X125.062 Y137.3 E5.96766
G1 X127.3 Y137.3 E6.0421
G1 X127.3 Y127.143 E6.37992
G1 X127.3 Y126.345 E6.40646
G1 X123.295 Y117.548 E6.72795
G1 X123.308 Y117.442 E6.7315
G1 X127.3 Y108.659 E7.05238
G1 X127.3 Y97.7 E7.41688
G1 X125.215 Y97.7 E7.48623
G1 X117.47 Y110.616 E7.98713
G1 X117.396 Y110.681 E7.9904
G1 X117.244 Y110.694 E7.99548
G1 X117.147 Y110.627 E7.9994
G1 X109.938 Y97.7 E8.49169
G1 X107.7 Y97.7 E8.56613
G1 X107.7 Y108.282 E8.91809
G1 X112.691 Y117.421 E9.26443
G1 X112.691 Y117.563 E9.26915
G1 X107.701 Y126.715 E9.61585
G1 X107.701 Y137.299 E9.96788
G1 X109.785 Y137.299 E10.03719
G0 F6000 X109.555 Y136.708
G0 X108.273 Y136.727
G0 X108.462 Y136.538
;TYPE:SKIN
G1 F1200 X109.354 Y136.538 E10.06686
G1 X116.949 Y123.875 E10.55798
G1 X117.196 Y123.681 E10.56842
G1 X117.495 Y123.555 E10.57922
G1 X117.924 Y123.563 E10.59349
G1 X118.206 Y123.681 E10.60365
G1 X118.471 Y123.914 E10.61539
G1 X125.511 Y136.54 E11.0962
G1 X126.54 Y136.54 E11.13043
G1 X126.54 Y127.143 E11.44297
G1 X126.54 Y126.51 E11.46403
G1 X122.58 Y117.805 E11.78211
G1 X122.541 Y117.397 E11.79574
G1 X122.617 Y117.122 E11.80523
G1 X126.54 Y108.493 E12.1205
G1 X126.54 Y98.46 E12.4542
G1 X125.645 Y98.46 E12.48396
G1 X118.099 Y111.044 E12.97199
G1 X117.886 Y111.268 E12.98227
G1 X117.496 Y111.448 E12.99656
G1 X117.039 Y111.426 E13.01178
G1 X116.711 Y111.261 E13.02399
G1 X116.523 Y111.073 E13.03283
G1 X109.489 Y98.461 E13.51314
G1 X108.461 Y98.461 E13.54733
G1 X108.461 Y108.087 E13.86749
G1 X113.44 Y117.197 E14.21279
G1 X113.443 Y117.706 E14.22972
G1 X113.354 Y117.94 E14.23805
G1 X108.462 Y126.909 E14.57785
G1 X108.462 Y136.538 E14.89811
G0 F6000 X109.184 Y136.337
G1 F1200 X108.661 Y135.814 E14.92271
G0 F6000 X108.661 Y135.249
G1 F1200 X109.431 Y136.019 E14.95893
G0 F6000 X109.643 Y135.665
G1 F1200 X108.661 Y134.683 E15.00512
G0 F6000 X108.661 Y134.117
G1 F1200 X109.856 Y135.311 E15.0613
G0 F6000 X110.068 Y134.958
G1 F1200 X108.661 Y133.551 E15.12748
G0 F6000 X108.661 Y132.986
G1 F1200 X110.28 Y134.604 E15.20361
G0 F6000 X110.492 Y134.251
G1 F1200 X108.661 Y132.42 E15.28974
G0 F6000 X108.661 Y131.854
G1 F1200 X110.704 Y133.897 E15.38583
G0 F6000 X110.916 Y133.544
G1 F1200 X108.661 Y131.289 E15.4919
G0 F6000 X108.661 Y130.723
G1 F1200 X111.128 Y133.19 E15.60794
G0 F6000 X111.341 Y132.837
G1 F1200 X108.661 Y130.157 E15.734
G0 F6000 X108.661 Y129.592
G1 F1200 X111.553 Y132.483 E15.87001
G0 F6000 X111.764 Y132.129
G1 F1200 X108.661 Y129.026 E16.01597
G0 F6000 X108.661 Y128.46
G1 F1200 X111.976 Y131.775 E16.17189
G0 F6000 X112.188 Y131.422
G1 F1200 X108.661 Y127.895 E16.33779
G0 F6000 X108.661 Y127.329
G1 F1200 X112.4 Y131.068 E16.51366
G0 F6000 X112.613 Y130.715
G1 F1200 X108.73 Y126.832 E16.69631
G0 F6000 X108.929 Y126.466
G1 F1200 X112.825 Y130.361 E16.87954
G0 F6000 X113.037 Y130.007
G1 F1200 X109.129 Y126.1 E17.06334
G0 F6000 X109.329 Y125.734
G1 F1200 X113.249 Y129.654 E17.24772
G0 F6000 X113.461 Y129.3
G1 F1200 X109.529 Y125.368 E17.43267
G0 F6000 X109.728 Y125.002
G1 F1200 X113.673 Y128.947 E17.61823
G0 F6000 X113.885 Y128.593
G1 F1200 X109.928 Y124.636 E17.80436
G0 F6000 X110.128 Y124.27
G1 F1200 X114.098 Y128.24 E17.99109
G0 F6000 X114.309 Y127.885
G1 F1200 X110.327 Y123.904 E18.17837
G0 F6000 X110.527 Y123.538
G1 F1200 X114.521 Y127.532 E18.36624
G0 F6000 X114.733 Y127.178
G1 F1200 X110.727 Y123.172 E18.55467
G0 F6000 X110.927 Y122.806
G1 F1200 X114.945 Y126.825 E18.74368
G0 F6000 X115.157 Y126.471
G1 F1200 X111.126 Y122.44 E18.93329
G0 F6000 X111.326 Y122.074
G1 F1200 X115.37 Y126.118 E19.12351
G0 F6000 X115.582 Y125.764
G1 F1200 X111.526 Y121.708 E19.31429
G0 F6000 X111.725 Y121.342
G1 F1200 X115.794 Y125.411 E19.50568
G0 F6000 X116.006 Y125.057
G1 F1200 X111.925 Y120.976 E19.69764
G0 F6000 X112.125 Y120.61
G1 F1200 X116.218 Y124.703 E19.89016
G0 F6000 X116.43 Y124.35
G1 F1200 X112.325 Y120.244 E20.08327
G0 F6000 X112.524 Y119.878
G1 F1200 X116.642 Y123.996 E20.27697
G0 F6000 X116.884 Y123.672
G1 F1200 X112.724 Y119.512 E20.47264
G0 F6000 X112.924 Y119.146
G1 F1200 X117.226 Y123.449 E20.67502
G0 F6000 X117.699 Y123.356
G1 F1200 X113.123 Y118.78 E20.89026
G0 F6000 X113.323 Y118.414
G1 F1200 X126.34 Y131.431 E21.50254
G0 F6000 X126.34 Y131.997
G1 F1200 X119.258 Y124.915 E21.83566
G0 F6000 X118.855 Y125.138
G0 X119.567 Y126.415
G0 X119.971 Y126.193
G1 F1200 X126.34 Y132.562 E22.13524
G0 F6000 X126.34 Y133.128
G1 F1200 X120.684 Y127.472 E22.40128
G0 F6000 X120.28 Y127.694
G0 X120.993 Y128.973
G0 X121.396 Y128.75
G1 F1200 X126.34 Y133.694 E22.63383
G0 F6000 X126.34 Y134.259
G1 F1200 X122.11 Y130.029 E22.83279
G0 F6000 X121.707 Y130.253
G0 X122.42 Y131.532
G0 X122.823 Y131.308
G1 F1200 X126.34 Y134.825 E22.99822
G0 F6000 X126.34 Y135.391
G1 F1200 X123.535 Y132.586 E23.13016
G0 F6000 X123.132 Y132.809
G0 X123.845 Y134.088
G0 X124.248 Y133.865
G1 F1200 X126.34 Y135.956 E23.22854
G0 F6000 X126.157 Y136.339
G1 F1200 X124.961 Y135.143 E23.28479
G0 F6000 X124.558 Y135.367
G0 X125.395 Y136.734
G0 X126.728 Y136.728
G0 X126.8 Y130.865
G0 X126.34 Y130.865
G1 F1200 X113.523 Y118.048 E23.88767
G0 F6000 X113.641 Y117.601
G1 F1200 X126.34 Y130.299 E24.48497
G0 F6000 X126.34 Y129.734
G1 F1200 X113.497 Y116.891 E25.08906
G0 F6000 X113.095 Y117.112
G0 X112.413 Y115.863
G0 X112.816 Y115.644
G1 F1200 X126.34 Y129.168 E25.72519
G0 F6000 X126.34 Y128.602
G1 F1200 X112.135 Y114.397 E26.39335
G0 F6000 X111.73 Y114.617
G0 X111.051 Y113.37
G0 X111.454 Y113.151
G1 F1200 X126.34 Y128.037 E27.09354
G0 F6000 X126.34 Y127.471
G1 F1200 X110.772 Y111.903 E27.82581
G0 F6000 X110.369 Y112.122
G0 X109.688 Y110.876
G0 X110.091 Y110.657
G1 F1200 X126.34 Y126.905 E28.59009
G0 F6000 X126.163 Y126.163
G1 F1200 X109.41 Y109.41 E29.3781
G0 F6000 X109.006 Y109.628
G0 X108.325 Y108.383
G0 X108.728 Y108.163
G1 F1200 X125.691 Y125.125 E30.17596
G0 F6000 X126.11 Y124.937
G0 X125.636 Y123.898
G0 X125.218 Y124.087
G1 F1200 X108.659 Y107.528 E30.95485
G0 F6000 X108.659 Y106.962
G1 F1200 X124.746 Y123.049 E31.71153
G0 F6000 X125.164 Y122.859
G0 X124.691 Y121.822
G0 X124.274 Y122.011
G1 F1200 X108.659 Y106.396 E32.44601
G0 F6000 X108.659 Y105.831
G1 F1200 X123.801 Y120.973 E33.15825
G0 F6000 X124.22 Y120.785
G0 X123.747 Y119.746
G0 X123.329 Y119.935
G1 F1200 X108.659 Y105.265 E33.84828
G0 F6000 X108.659 Y104.699
G1 F1200 X122.856 Y118.897 E34.51609
G0 F6000 X123.275 Y118.709
G0 X122.892 Y117.868
G0 X122.388 Y117.862
G1 F1200 X108.659 Y104.134 E35.16183
G0 F6000 X108.659 Y103.568
G1 F1200 X122.367 Y117.276 E35.80661
G0 F6000 X122.516 Y116.86
G1 F1200 X117.297 Y111.64 E36.05212
G0 F6000 X117.77 Y111.547
G1 F1200 X122.693 Y116.471 E36.28371
G0 F6000 X122.87 Y116.082
G1 F1200 X118.111 Y111.323 E36.50756
G0 F6000 X118.356 Y111.002
G1 F1200 X123.047 Y115.693 E36.72821
G0 F6000 X123.223 Y115.304
G1 F1200 X118.568 Y110.648 E36.94719
G0 F6000 X118.779 Y110.294
G1 F1200 X123.4 Y114.915 E37.16455
G0 F6000 X123.577 Y114.526
G1 F1200 X118.991 Y109.94 E37.38026
G0 F6000 X119.204 Y109.587
G1 F1200 X123.754 Y114.137 E37.59428
G0 F6000 X123.931 Y113.748
G1 F1200 X119.416 Y109.233 E37.80665
G0 F6000 X119.628 Y108.88
G1 F1200 X124.107 Y113.359 E38.01733
G0 F6000 X124.284 Y112.97
G1 F1200 X119.84 Y108.526 E38.22636
G0 F6000 X120.052 Y108.173
G1 F1200 X124.461 Y112.582 E38.43374
G0 F6000 X124.638 Y112.193
G1 F1200 X120.264 Y107.819 E38.63948
G0 F6000 X120.476 Y107.466
G1 F1200 X124.814 Y111.804 E38.84353
G0 F6000 X124.991 Y111.415
G1 F1200 X120.688 Y107.111 E39.04595
G0 F6000 X120.9 Y106.758
G1 F1200 X125.168 Y111.026 E39.24671
G0 F6000 X125.345 Y110.637
G1 F1200 X121.112 Y106.404 E39.44581
G0 F6000 X121.324 Y106.051
G1 F1200 X125.522 Y110.248 E39.64325
G0 F6000 X125.698 Y109.859
G1 F1200 X121.536 Y105.697 E39.83902
G0 F6000 X121.748 Y105.344
G1 F1200 X125.875 Y109.47 E40.03312
G0 F6000 X126.052 Y109.081
G1 F1200 X121.961 Y104.99 E40.22555
G0 F6000 X122.173 Y104.636
G1 F1200 X126.229 Y108.692 E40.41633
G0 F6000 X126.339 Y108.237
G1 F1200 X122.385 Y104.283 E40.60231
G0 F6000 X122.596 Y103.929
G1 F1200 X126.339 Y107.671 E40.77835
G0 F6000 X126.339 Y107.106
G1 F1200 X122.808 Y103.575 E40.94443
G0 F6000 X123.021 Y103.222
G1 F1200 X126.339 Y106.54 E41.1005
G0 F6000 X126.339 Y105.974
G1 F1200 X123.233 Y102.868 E41.2466
G0 F6000 X123.445 Y102.514
G1 F1200 X126.339 Y105.409 E41.38275
G0 F6000 X126.339 Y104.843
G1 F1200 X123.657 Y102.161 E41.5089
G0 F6000 X123.869 Y101.807
G1 F1200 X126.339 Y104.277 E41.62508
G0 F6000 X126.339 Y103.712
G1 F1200 X124.081 Y101.454 E41.73129
G0 F6000 X124.293 Y101.1
G1 F1200 X126.339 Y103.146 E41.82753
G0 F6000 X126.339 Y102.58
G1 F1200 X124.505 Y100.746 E41.9138
G0 F6000 X124.717 Y100.392
G1 F1200 X126.339 Y102.015 E41.99011
G0 F6000 X126.339 Y101.449
G1 F1200 X124.929 Y100.039 E42.05644
G0 F6000 X125.141 Y99.685
G1 F1200 X126.339 Y100.883 E42.11279
G0 F6000 X126.339 Y100.317
G1 F1200 X125.353 Y99.332 E42.15914
G0 F6000 X125.565 Y98.978
G1 F1200 X126.339 Y99.752 E42.19555
G0 F6000 X126.339 Y99.186
G1 F1200 X125.813 Y98.66 E42.22029
G1 F2700 E37.22029
G0 F6000 X125.813 Y98.2
G0 X127.072 Y97.928
G0 X127.061 Y108.609
G0 X123.019 Y117.508
G0 X127.061 Y126.395
G0 X127.072 Y137.072
G0 X125.198 Y137.066
G0 X117.71 Y123.66
G0 X109.653 Y137.066
G0 X107.928 Y137.072
G0 X107.938 Y126.775
G0 X112.998 Y117.492
G0 X107.938 Y108.223
G0 X107.928 Y97.928
G0 X109.445 Y97.932
G0 X113.863 Y105.768
G1 F2700 E42.22029
G0 F6000 X113.599 Y106.245
G1 F1200 X108.659 Y101.305 E42.45265
G0 F6000 X108.659 Y100.74
G1 F1200 X112.886 Y104.967 E42.65148
G0 F6000 X113.291 Y104.742
G0 X112.579 Y103.465
G0 X112.174 Y103.688
G1 F1200 X108.659 Y100.174 E42.81679
G0 F6000 X108.659 Y99.608
G1 F1200 X111.461 Y102.41 E42.94858
G0 F6000 X111.866 Y102.187
G0 X111.153 Y100.907
G0 X110.748 Y101.131
G1 F1200 X108.659 Y99.043 E43.04682
G0 F6000 X108.843 Y98.661
G1 F1200 X110.035 Y99.853 E43.10289
G0 F6000 X110.44 Y99.629
G0 X109.605 Y98.266
G0 X108.272 Y98.272
G0 X108.2 Y101.871
G0 X108.659 Y101.871
G1 F1200 X114.311 Y107.523 E43.36874
G0 F6000 X114.716 Y107.299
G0 X115.429 Y108.577
G0 X115.024 Y108.801
G1 F1200 X108.659 Y102.437 E43.66811
G0 F6000 X108.659 Y103.002
G1 F1200 X115.737 Y110.08 E44.00104
G1 F2700 E39.00104
;MESH:NONMESH
G0 F300 X115.737 Y110.08 Z0.4
G0 F6000 X116.141 Y109.856
G0 X109.605 Y98.266
G0 X108.272 Y98.272
G0 X108.262 Y108.138
G0 X113.171 Y117.859
G0 X108.263 Y126.859
G0 X108.273 Y136.727
G0 X109.555 Y136.708
G1 F2700 E44.00104
G0 F6000 X109.559 Y136.899
;TIME_ELAPSED:86.448852
;LAYER:1
M106 S85
;TYPE:WALL-INNER
;MESH:LETRA X.stl
G1 F1350 X117.181 Y124.189 E44.49396
G1 X117.358 Y124.001 E44.50255
G1 X117.574 Y123.91 E44.51034
G1 X117.84 Y123.915 E44.51919
G1 X118.009 Y123.985 E44.52528
G1 X118.182 Y124.136 E44.53291
G1 X125.297 Y136.9 E45.01895
G1 X126.9 Y136.9 E45.07226
G1 X126.9 Y127.143 E45.39678
G1 X126.9 Y126.432 E45.42043
G1 X122.951 Y117.757 E45.73745
G1 X122.902 Y117.58 E45.74356
G1 X122.93 Y117.312 E45.75252
G1 X126.9 Y108.573 E46.07177
G1 X126.9 Y98.1 E46.4201
G1 X125.441 Y98.1 E46.46863
G1 X117.8 Y110.842 E46.96279
G1 X117.578 Y111.037 E46.97262
G1 X117.379 Y111.098 E46.97954
G1 X117.224 Y111.097 E46.98469
G1 X117.028 Y111.035 E46.99153
G1 X116.814 Y110.857 E47.00079
G1 X109.703 Y98.1 E47.48656
G1 X108.1 Y98.1 E47.53987
G1 X108.1 Y108.18 E47.87513
G1 X113.03 Y117.204 E48.21714
G1 X113.104 Y117.491 E48.227
G1 X113.06 Y117.726 E48.23495
G1 X108.101 Y126.817 E48.57938
G1 X108.101 Y136.899 E48.91471
G1 X109.559 Y136.899 E48.9632
G0 F7500 X109.785 Y137.299
;TYPE:WALL-OUTER
G1 F1350 X117.556 Y124.341 E49.46575
G1 X117.683 Y124.298 E49.47021
G1 X117.852 Y124.371 E49.47633
G1 X125.062 Y137.3 E49.9687
G1 X127.3 Y137.3 E50.04313
G1 X127.3 Y127.143 E50.38096
G1 X127.3 Y126.345 E50.4075
G1 X123.295 Y117.548 E50.72898
G1 X123.308 Y117.442 E50.73253
G1 X127.3 Y108.659 E51.05342
G1 X127.3 Y97.7 E51.41791
G1 X125.215 Y97.7 E51.48726
G1 X117.47 Y110.616 E51.98816
G1 X117.396 Y110.681 E51.99144
G1 X117.244 Y110.694 E51.99651
G1 X117.147 Y110.627 E52.00044
G1 X109.938 Y97.7 E52.49273
G1 X107.7 Y97.7 E52.56716
G1 X107.7 Y108.282 E52.91912
G1 X112.691 Y117.421 E53.26546
G1 X112.691 Y117.563 E53.27018
G1 X107.701 Y126.715 E53.61689
G1 X107.701 Y137.299 E53.96891
G1 X109.785 Y137.299 E54.03823
G0 F7500 X109.555 Y136.708
G0 X108.273 Y136.727
G0 X108.462 Y136.538
;TYPE:SKIN
G1 F1350 X109.354 Y136.538 E54.06789
G1 X116.949 Y123.875 E54.55901
G1 X117.196 Y123.681 E54.56946
G1 X117.495 Y123.555 E54.58025
G1 X117.924 Y123.563 E54.59452
G1 X118.206 Y123.681 E54.60469
G1 X118.471 Y123.914 E54.61643
G1 X125.511 Y136.54 E55.09724
G1 X126.54 Y136.54 E55.13146
G1 X126.54 Y127.143 E55.44401
G1 X126.54 Y126.51 E55.46506
G1 X122.58 Y117.805 E55.78314
G1 X122.541 Y117.397 E55.79677
G1 X122.617 Y117.122 E55.80626
G1 X126.54 Y108.493 E56.12153
G1 X126.54 Y98.46 E56.45523
G1 X125.645 Y98.46 E56.485
G1 X118.099 Y111.044 E56.97303
G1 X117.886 Y111.268 E56.98331
G1 X117.496 Y111.448 E56.99759
G1 X117.039 Y111.426 E57.01281
G1 X116.711 Y111.261 E57.02502
G1 X116.523 Y111.073 E57.03387
G1 X109.489 Y98.461 E57.51417
G1 X108.461 Y98.461 E57.54836
G1 X108.461 Y108.087 E57.86853
G1 X113.44 Y117.197 E58.21383
G1 X113.443 Y117.706 E58.23076
G1 X113.354 Y117.94 E58.23908
G1 X108.462 Y126.909 E58.57888
G1 X108.462 Y136.538 E58.89914
G1 F2700 E53.89914
G0 F7500 X108.201 Y136.538
G0 X109.464 Y136.733
G0 X109.953 Y136.563
G0 X117.71 Y123.66
G0 X125.041 Y136.783
G0 X126.138 Y136.8
G1 F2700 E58.89914
G0 F7500 X126.138 Y136.339
G1 F1350 X126.339 Y136.138 E58.9086
G0 F7500 X126.339 Y135.572
G1 F1350 X125.609 Y136.303 E58.94296
G0 F7500 X125.406 Y135.94
G1 F1350 X126.339 Y135.007 E58.98685
G0 F7500 X126.339 Y134.441
G1 F1350 X125.203 Y135.577 E59.04028
G0 F7500 X125 Y135.214
G1 F1350 X126.339 Y133.875 E59.10326
G0 F7500 X126.339 Y133.31
G1 F1350 X124.798 Y134.85 E59.17572
G0 F7500 X124.596 Y134.487
G1 F1350 X126.339 Y132.744 E59.25771
G0 F7500 X126.339 Y132.178
G1 F1350 X124.393 Y134.124 E59.34924
G0 F7500 X124.191 Y133.761
G1 F1350 X126.339 Y131.613 E59.45028
G0 F7500 X126.339 Y131.047
G1 F1350 X123.989 Y133.397 E59.56081
G0 F7500 X123.786 Y133.035
G1 F1350 X126.339 Y130.481 E59.68092
G0 F7500 X126.339 Y129.916
G1 F1350 X123.583 Y132.671 E59.81053
