;FLAVOR:Marlin
;TIME:467
;Filament used: 0.274681m
;Layer height: 0.2
;MINX:107.7
;MINY:97.701
;MINZ:0.2
;MAXX:127.3
;MAXY:137.3
;MAXZ:2
;Generated with Cura_SteamEngine 5.2.2
M140 S50
M105
M190 S50
M104 S200
M105
M109 S200
M82 ;absolute extrusion mode
; Ender 3 Custom Start G-code
G92 E0 ; Reset Extruder
G28 ; Home all axes
G1 Z2.0 F3000 ; Move Z Axis up little to prevent scratching of Heat Bed
G1 X0.1 Y20 Z0.3 F5000.0 ; Move to start position
G1 X0.1 Y200.0 Z0.3 F1500.0 E15 ; Draw the first line
G1 X0.4 Y200.0 Z0.3 F5000.0 ; Move to side a little
G1 X0.4 Y20 Z0.3 F1500.0 E30 ; Draw the second line
G92 E0 ; Reset Extruder
G1 Z2.0 F3000 ; Move Z Axis up little to prevent scratching of Heat Bed
G1 X5 Y20 Z0.3 F5000.0 ; Move over to prevent blob squish
G92 E0
G92 E0
G1 F2700 E-5
;LAYER_COUNT:10
;LAYER:0
M107
;MESH:LETRA F.stl
G0 F6000 X108.1 Y136.9 Z0.2
;TYPE:WALL-INNER
G1 F2700 E0
G1 F1200 X126.9 Y136.9 E0.62529
G1 X126.9 Y133.103 E0.75158
G1 X112.497 Y133.103 E1.23062
G1 X112.189 Y133.019 E1.24124
G1 X111.981 Y132.811 E1.25103
G1 X111.897 Y132.503 E1.26165
G1 X111.897 Y120.498 E1.66093
G1 X111.923 Y120.321 E1.66688
G1 X111.995 Y120.167 E1.67254
G1 X112.214 Y119.968 E1.68238
G1 X112.444 Y119.9 E1.69036
G1 X126.9 Y119.897 E2.17117
G1 X126.9 Y115.103 E2.33061
G1 X112.444 Y115.101 E2.81142
G1 X112.214 Y115.033 E2.8194
G1 X111.995 Y114.834 E2.82924
G1 X111.923 Y114.679 E2.83493
G1 X111.897 Y114.503 E2.84084
G1 X111.897 Y99.999 E3.32325
G1 X111.897 Y98.101 E3.38638
G1 X108.101 Y98.101 E3.51263
G1 X108.1 Y136.9 E4.80309
G0 F6000 X107.7 Y137.3
;TYPE:WALL-OUTER
G1 F1200 X127.3 Y137.3 E5.45499
G1 X127.3 Y132.703 E5.60789
G1 X112.454 Y132.703 E6.10167
G1 X112.355 Y132.645 E6.10548
G1 X112.299 Y132.538 E6.1095
G1 X112.297 Y120.456 E6.51135
G1 X112.42 Y120.298 E6.51801
G1 X127.3 Y120.297 E7.01292
G1 X127.3 Y114.703 E7.19898
G1 X112.479 Y114.703 E7.69193
G1 X112.329 Y114.614 E7.69773
G1 X112.299 Y114.538 E7.70044
G1 X112.297 Y99.999 E8.18401
G1 X112.297 Y97.701 E8.26045
G1 X107.701 Y97.701 E8.41331
G1 X107.7 Y137.3 E9.73038
G0 F6000 X107.97 Y137.03
G0 X108.461 Y136.8
G0 X108.461 Y136.54
;TYPE:SKIN
G1 F1200 X126.54 Y136.54 E10.33169
G1 X126.54 Y135.002 E10.38284
G1 X126.54 Y133.463 E10.43403
G1 X112.476 Y133.462 E10.9018
G1 X112.263 Y133.434 E10.90894
G1 X111.994 Y133.327 E10.91857
G1 X111.701 Y133.034 E10.93235
G1 X111.565 Y132.74 E10.94313
G1 X111.538 Y132.529 E10.9502
G1 X111.539 Y120.476 E11.35109
G1 X111.589 Y120.188 E11.36081
G1 X111.727 Y119.929 E11.37057
G1 X112.034 Y119.651 E11.38435
G1 X112.4 Y119.539 E11.39708
G1 X126.54 Y119.537 E11.86738
G1 X126.54 Y115.463 E12.00288
G1 X112.401 Y115.461 E12.47314
G1 X112.034 Y115.35 E12.48589
G1 X111.696 Y115.044 E12.50106
G1 X111.573 Y114.761 E12.51132
G1 X111.539 Y114.534 E12.51896
G1 X111.537 Y98.461 E13.05355
G1 X108.461 Y98.461 E13.15586
G1 X108.461 Y136.54 E14.42237
G0 F6000 X109.186 Y136.339
G1 F1200 X108.66 Y135.813 E14.44711
G0 F6000 X108.66 Y135.247
G1 F1200 X109.752 Y136.339 E14.49847
G0 F6000 X110.317 Y136.339
G1 F1200 X108.66 Y134.681 E14.57644
G0 F6000 X108.66 Y134.116
G1 F1200 X110.883 Y136.339 E14.681
G0 F6000 X111.449 Y136.339
G1 F1200 X108.66 Y133.55 E14.81219
G0 F6000 X108.66 Y132.984
G1 F1200 X112.014 Y136.339 E14.96997
G0 F6000 X112.58 Y136.339
G1 F1200 X108.66 Y132.419 E15.15436
G0 F6000 X108.66 Y131.853
G1 F1200 X113.146 Y136.339 E15.36536
G0 F6000 X113.711 Y136.339
G1 F1200 X108.66 Y131.287 E15.60297
G0 F6000 X108.66 Y130.722
G1 F1200 X114.277 Y136.339 E15.86718
G0 F6000 X114.843 Y136.339
G1 F1200 X112.075 Y133.571 E15.99738
G0 F6000 X112.729 Y133.66
G1 F1200 X115.409 Y136.339 E16.12341
G0 F6000 X115.974 Y136.339
G1 F1200 X113.295 Y133.66 E16.24942
G0 F6000 X113.861 Y133.66
G1 F1200 X116.54 Y136.339 E16.37544
G0 F6000 X117.106 Y136.339
G1 F1200 X114.426 Y133.66 E16.50147
G0 F6000 X114.992 Y133.66
G1 F1200 X117.671 Y136.339 E16.62748
G0 F6000 X118.237 Y136.339
G1 F1200 X115.558 Y133.66 E16.75349
G0 F6000 X116.124 Y133.66
G1 F1200 X118.803 Y136.339 E16.87951
G0 F6000 X119.368 Y136.339
G1 F1200 X116.69 Y133.66 E17.0055
G0 F6000 X117.255 Y133.66
G1 F1200 X119.934 Y136.339 E17.13151
G0 F6000 X120.5 Y136.339
G1 F1200 X117.821 Y133.66 E17.25752
G0 F6000 X118.387 Y133.66
G1 F1200 X121.065 Y136.339 E17.38351
G0 F6000 X121.631 Y136.339
G1 F1200 X118.953 Y133.66 E17.5095
G0 F6000 X119.519 Y133.661
G1 F1200 X122.197 Y136.339 E17.63546
G0 F6000 X122.762 Y136.339
G1 F1200 X120.085 Y133.661 E17.7614
G0 F6000 X120.65 Y133.661
G1 F1200 X123.328 Y136.339 E17.88737
G0 F6000 X123.894 Y136.339
G1 F1200 X121.216 Y133.661 E18.01333
G0 F6000 X121.782 Y133.661
G1 F1200 X124.459 Y136.339 E18.13927
G0 F6000 X125.025 Y136.339
G1 F1200 X122.347 Y133.661 E18.26524
G0 F6000 X122.914 Y133.662
G1 F1200 X125.591 Y136.339 E18.39116
G0 F6000 X126.157 Y136.339
G1 F1200 X123.479 Y133.662 E18.5171
G0 F6000 X124.045 Y133.662
G1 F1200 X126.339 Y135.956 E18.625
G0 F6000 X126.339 Y135.39
G1 F1200 X124.611 Y133.662 E18.70628
G0 F6000 X125.176 Y133.662
G1 F1200 X126.339 Y134.824 E18.76096
G0 F6000 X126.339 Y134.259
G1 F1200 X125.742 Y133.662 E18.78904
G1 F2700 E13.78904
G0 F6000 X125.742 Y133.203
G0 X112.069 Y132.931
G0 X112.069 Y120.07
G0 X125.559 Y119.797
G1 F2700 E18.78904
G0 F6000 X125.559 Y119.336
G1 F1200 X121.885 Y115.662 E18.96186
G0 F6000 X121.319 Y115.662
G1 F1200 X124.993 Y119.336 E19.13467
G0 F6000 X124.428 Y119.337
G1 F1200 X120.753 Y115.662 E19.30753
G0 F6000 X120.187 Y115.662
G1 F1200 X123.863 Y119.337 E19.48041
G0 F6000 X123.297 Y119.337
G1 F1200 X119.621 Y115.662 E19.6533
G0 F6000 X119.056 Y115.662
G1 F1200 X122.732 Y119.338 E19.82621
G0 F6000 X122.166 Y119.338
G1 F1200 X118.49 Y115.662 E19.99911
G0 F6000 X117.924 Y115.662
G1 F1200 X121.601 Y119.338 E20.17204
G0 F6000 X121.036 Y119.339
G1 F1200 X117.359 Y115.662 E20.345
G0 F6000 X116.792 Y115.661
G1 F1200 X120.47 Y119.339 E20.518
G0 F6000 X119.904 Y119.339
G1 F1200 X116.227 Y115.661 E20.69098
G0 F6000 X115.661 Y115.661
G1 F1200 X119.339 Y119.339 E20.86398
G0 F6000 X118.774 Y119.339
G1 F1200 X115.095 Y115.661 E21.03701
G0 F6000 X114.53 Y115.661
G1 F1200 X118.208 Y119.339 E21.21001
G0 F6000 X117.642 Y119.339
G1 F1200 X113.964 Y115.661 E21.38301
G0 F6000 X113.398 Y115.661
G1 F1200 X117.077 Y119.34 E21.55606
G0 F6000 X116.512 Y119.34
G1 F1200 X112.833 Y115.661 E21.72911
G0 F6000 X112.221 Y115.615
G1 F1200 X115.946 Y119.34 E21.90432
G0 F6000 X115.381 Y119.341
G1 F1200 X108.66 Y112.62 E22.22046
G0 F6000 X108.66 Y113.185
G1 F1200 X114.815 Y119.341 E22.50999
G0 F6000 X114.25 Y119.341
G1 F1200 X108.66 Y113.751 E22.77293
G0 F6000 X108.66 Y114.317
G1 F1200 X113.685 Y119.341 E23.00927
G0 F6000 X113.119 Y119.341
G1 F1200 X108.66 Y114.882 E23.219
G0 F6000 X108.66 Y115.448
G1 F1200 X112.553 Y119.341 E23.40212
G0 F6000 X112.074 Y119.428
G1 F1200 X108.66 Y116.014 E23.5627
G0 F6000 X108.66 Y116.579
G1 F1200 X111.733 Y119.653 E23.70727
G0 F6000 X111.476 Y119.962
G1 F1200 X108.66 Y117.145 E23.83975
G0 F6000 X108.66 Y117.711
G1 F1200 X111.35 Y120.401 E23.96628
G0 F6000 X111.338 Y120.954
G1 F1200 X108.66 Y118.277 E24.09222
G0 F6000 X108.66 Y118.842
G1 F1200 X111.338 Y121.52 E24.21819
G0 F6000 X111.338 Y122.086
G1 F1200 X108.66 Y119.408 E24.34415
G0 F6000 X108.66 Y119.974
G1 F1200 X111.338 Y122.651 E24.47009
G0 F6000 X111.338 Y123.217
G1 F1200 X108.66 Y120.539 E24.59606
G0 F6000 X108.66 Y121.105
G1 F1200 X111.338 Y123.783 E24.72202
G0 F6000 X111.338 Y124.348
G1 F1200 X108.66 Y121.671 E24.84796
G0 F6000 X108.66 Y122.236
G1 F1200 X111.338 Y124.915 E24.97395
G0 F6000 X111.338 Y125.481
G1 F1200 X108.66 Y122.802 E25.09994
G0 F6000 X108.66 Y123.368
G1 F1200 X111.338 Y126.046 E25.2259
G0 F6000 X111.338 Y126.612
G1 F1200 X108.66 Y123.933 E25.35189
G0 F6000 X108.66 Y124.499
G1 F1200 X111.338 Y127.178 E25.47788
G0 F6000 X111.338 Y127.743
G1 F1200 X108.66 Y125.065 E25.60385
G0 F6000 X108.66 Y125.63
G1 F1200 X111.338 Y128.309 E25.72984
G0 F6000 X111.339 Y128.875
G1 F1200 X108.66 Y126.196 E25.85585
G0 F6000 X108.66 Y126.762
G1 F1200 X111.339 Y129.441 E25.98186
G0 F6000 X111.339 Y130.007
G1 F1200 X108.66 Y127.328 E26.10787
G0 F6000 X108.66 Y127.893
G1 F1200 X111.339 Y130.572 E26.23388
G0 F6000 X111.339 Y131.138
G1 F1200 X108.66 Y128.459 E26.35989
G0 F6000 X108.66 Y129.025
G1 F1200 X111.339 Y131.704 E26.48591
G0 F6000 X111.339 Y132.269
G1 F1200 X108.66 Y129.59 E26.61192
G0 F6000 X108.66 Y130.156
G1 F1200 X111.425 Y132.921 E26.74198
G1 F2700 E21.74198
G0 F6000 X111.843 Y132.741
G0 X111.991 Y119.928
G0 X126.728 Y119.725
G0 X126.728 Y115.275
G0 X111.861 Y114.923
G0 X111.815 Y114.657
G1 F2700 E26.74198
G0 F6000 X111.372 Y114.766
G1 F1200 X108.66 Y112.054 E26.86954
G0 F6000 X108.66 Y111.488
G1 F1200 X111.34 Y114.168 E26.9956
G0 F6000 X111.34 Y113.603
G1 F1200 X108.66 Y110.923 E27.12166
G0 F6000 X108.66 Y110.357
G1 F1200 X111.34 Y113.037 E27.24772
G0 F6000 X111.34 Y112.471
G1 F1200 X108.66 Y109.791 E27.37378
G0 F6000 X108.66 Y109.226
G1 F1200 X111.34 Y111.906 E27.49983
G0 F6000 X111.339 Y111.339
G1 F1200 X108.66 Y108.66 E27.62585
G0 F6000 X108.66 Y108.094
G1 F1200 X111.339 Y110.773 E27.75186
G0 F6000 X111.339 Y110.208
G1 F1200 X108.66 Y107.529 E27.87787
G0 F6000 X108.66 Y106.963
G1 F1200 X111.339 Y109.642 E28.00388
G0 F6000 X111.339 Y109.076
G1 F1200 X108.66 Y106.397 E28.12989
G0 F6000 X108.66 Y105.831
G1 F1200 X111.339 Y108.511 E28.25593
G0 F6000 X111.338 Y107.944
G1 F1200 X108.66 Y105.266 E28.38189
G0 F6000 X108.66 Y104.7
G1 F1200 X111.338 Y107.379 E28.50788
G0 F6000 X111.338 Y106.813
G1 F1200 X108.66 Y104.134 E28.63387
G0 F6000 X108.66 Y103.569
G1 F1200 X111.338 Y106.247 E28.75984
G0 F6000 X111.338 Y105.682
G1 F1200 X108.66 Y103.003 E28.88583
G0 F6000 X108.66 Y102.437
G1 F1200 X111.338 Y105.116 E29.01181
G0 F6000 X111.338 Y104.549
G1 F1200 X108.66 Y101.872 E29.13776
G0 F6000 X108.66 Y101.306
G1 F1200 X111.338 Y103.984 E29.26372
G0 F6000 X111.338 Y103.418
G1 F1200 X108.66 Y100.74 E29.38968
G0 F6000 X108.66 Y100.175
G1 F1200 X111.338 Y102.852 E29.51563
G0 F6000 X111.338 Y102.287
G1 F1200 X108.66 Y99.609 E29.64159
G0 F6000 X108.66 Y99.043
G1 F1200 X111.337 Y101.72 E29.76751
G0 F6000 X111.337 Y101.155
G1 F1200 X108.843 Y98.661 E29.88482
G0 F6000 X109.409 Y98.661
G1 F1200 X111.337 Y100.589 E29.97551
G0 F6000 X111.337 Y100.023
G1 F1200 X109.974 Y98.661 E30.03959
G0 F6000 X110.54 Y98.661
G1 F1200 X111.337 Y99.458 E30.07708
G0 F6000 X111.337 Y98.892
G1 F1200 X111.106 Y98.661 E30.08795
G0 F6000 X111.106 Y98.201
G0 X111.725 Y98.273
G0 X112.069 Y114.931
G0 X122.451 Y115.203
G0 X122.451 Y115.662
G1 F1200 X126.125 Y119.336 E30.26076
G0 F6000 X126.338 Y118.984
G1 F1200 X123.016 Y115.662 E30.41702
G0 F6000 X123.582 Y115.662
G1 F1200 X126.338 Y118.419 E30.54668
G0 F6000 X126.338 Y117.853
G1 F1200 X124.148 Y115.662 E30.64971
G0 F6000 X124.713 Y115.662
G1 F1200 X126.338 Y117.287 E30.72615
G0 F6000 X126.338 Y116.722
G1 F1200 X125.279 Y115.662 E30.77598
G0 F6000 X125.845 Y115.662
G1 F1200 X126.338 Y116.156 E30.79919
G1 F2700 E25.79919
;MESH:NONMESH
G0 F300 X126.338 Y116.156 Z0.4
G0 F6000 X126.8 Y116.156
G0 X126.728 Y119.725
G0 X112.069 Y120.07
G0 X111.959 Y133.041
G0 X126.728 Y133.275
G0 X126.728 Y136.728
G0 X108.1 Y136.9
;TIME_ELAPSED:65.098393
;LAYER:1
M106 S85
;TYPE:WALL-INNER
;MESH:LETRA F.stl
G1 F2700 E30.79919
G1 F1350 X126.9 Y136.9 E31.42448
G1 X126.9 Y135.002 E31.48761
G1 X126.9 Y133.103 E31.55077
G1 X112.497 Y133.103 E32.02982
G1 X112.189 Y133.019 E32.04044
G1 X111.981 Y132.811 E32.05022
G1 X111.897 Y132.503 E32.06084
G1 X111.897 Y120.498 E32.46013
G1 X111.923 Y120.321 E32.46608
G1 X111.995 Y120.167 E32.47173
G1 X112.214 Y119.968 E32.48157
G1 X112.444 Y119.9 E32.48955
G1 X126.9 Y119.897 E32.97036
G1 X126.9 Y115.103 E33.12981
G1 X112.444 Y115.101 E33.61062
G1 X112.214 Y115.033 E33.61859
G1 X111.995 Y114.834 E33.62844
G1 X111.923 Y114.679 E33.63412
G1 X111.897 Y114.503 E33.64004
G1 X111.897 Y98.101 E34.18557
G1 X108.101 Y98.101 E34.31183
G1 X108.1 Y136.9 E35.60229
G0 F7500 X107.7 Y137.3
;TYPE:WALL-OUTER
G1 F1350 X127.3 Y137.3 E36.25418
G1 X127.3 Y135.002 E36.33062
G1 X127.3 Y132.703 E36.40708
G1 X112.454 Y132.703 E36.90086
G1 X112.355 Y132.645 E36.90468
G1 X112.299 Y132.538 E36.90869
G1 X112.297 Y120.456 E37.31054
G1 X112.42 Y120.298 E37.3172
G1 X127.3 Y120.297 E37.81211
G1 X127.3 Y114.703 E37.99817
G1 X112.479 Y114.703 E38.49112
G1 X112.329 Y114.614 E38.49692
G1 X112.299 Y114.538 E38.49964
G1 X112.297 Y97.701 E39.05964
G1 X107.701 Y97.701 E39.2125
G1 X107.7 Y137.3 E40.52957
G0 F7500 X107.97 Y137.03
G0 X108.461 Y136.8
G0 X108.461 Y136.54
;TYPE:SKIN
G1 F1350 X126.54 Y136.54 E41.13088
G1 X126.54 Y135.002 E41.18203
G1 X126.54 Y133.463 E41.23322
G1 X112.476 Y133.462 E41.70099
G1 X112.263 Y133.434 E41.70814
G1 X111.994 Y133.327 E41.71777
G1 X111.701 Y133.034 E41.73155
G1 X111.565 Y132.74 E41.74232
G1 X111.538 Y132.529 E41.7494
G1 X111.539 Y120.476 E42.15028
G1 X111.589 Y120.188 E42.16
G1 X111.727 Y119.929 E42.16976
G1 X112.034 Y119.651 E42.18354
G1 X112.4 Y119.539 E42.19627
G1 X126.54 Y119.537 E42.66657
G1 X126.54 Y115.463 E42.80207
G1 X112.401 Y115.461 E43.27234
G1 X112.034 Y115.35 E43.28509
G1 X111.696 Y115.044 E43.30025
G1 X111.573 Y114.761 E43.31052
G1 X111.539 Y114.534 E43.31815
G1 X111.537 Y98.461 E43.85274
G1 X108.461 Y98.461 E43.95505
G1 X108.461 Y136.54 E45.22156
G0 F7500 X108.461 Y136.8
G0 X126.138 Y136.8
G0 X126.138 Y136.339
G1 F1350 X126.339 Y136.138 E45.23102
G0 F7500 X126.339 Y135.572
G1 F1350 X125.572 Y136.339 E45.26709
G0 F7500 X125.007 Y136.339
G1 F1350 X126.339 Y135.007 E45.32975
G0 F7500 X126.339 Y134.441
G1 F1350 X124.441 Y136.339 E45.41902
G0 F7500 X123.875 Y136.339
G1 F1350 X126.339 Y133.875 E45.53492
G0 F7500 X125.988 Y133.661
G1 F1350 X123.31 Y136.339 E45.66089
G0 F7500 X122.744 Y136.339
G1 F1350 X125.422 Y133.661 E45.78685
G0 F7500 X124.856 Y133.661
G1 F1350 X122.178 Y136.339 E45.91282
G0 F7500 X121.613 Y136.339
G1 F1350 X124.29 Y133.661 E46.03876
G0 F7500 X123.725 Y133.661
G1 F1350 X121.047 Y136.339 E46.16472
G0 F7500 X120.481 Y136.339
G1 F1350 X123.159 Y133.661 E46.29069
G0 F7500 X122.594 Y133.66
G1 F1350 X119.916 Y136.339 E46.41668
G0 F7500 X119.35 Y136.339
G1 F1350 X122.028 Y133.66 E46.54266
G0 F7500 X121.463 Y133.66
G1 F1350 X118.784 Y136.339 E46.66868
G0 F7500 X118.219 Y136.339
G1 F1350 X120.897 Y133.66 E46.79466
G0 F7500 X120.331 Y133.66
G1 F1350 X117.653 Y136.339 E46.92065
G0 F7500 X117.087 Y136.339
G1 F1350 X119.766 Y133.66 E47.04666
G0 F7500 X119.201 Y133.66
G1 F1350 X116.522 Y136.339 E47.17268
G0 F7500 X115.956 Y136.339
G1 F1350 X118.635 Y133.66 E47.29869
G0 F7500 X118.069 Y133.66
G1 F1350 X115.39 Y136.339 E47.4247
G0 F7500 X114.824 Y136.339
G1 F1350 X117.504 Y133.66 E47.55074
G0 F7500 X116.938 Y133.66
G1 F1350 X114.259 Y136.339 E47.67675
G0 F7500 X113.693 Y136.339
G1 F1350 X116.372 Y133.66 E47.80276
G0 F7500 X115.807 Y133.659
G1 F1350 X113.127 Y136.339 E47.92882
G0 F7500 X112.562 Y136.339
G1 F1350 X115.242 Y133.659 E48.05488
G0 F7500 X114.676 Y133.659
G1 F1350 X111.996 Y136.339 E48.18094
G0 F7500 X111.43 Y136.339
G1 F1350 X114.11 Y133.659 E48.307
G0 F7500 X113.545 Y133.659
G1 F1350 X110.865 Y136.339 E48.43306
G0 F7500 X110.299 Y136.339
G1 F1350 X112.979 Y133.659 E48.55911
G0 F7500 X112.418 Y133.654
G1 F1350 X109.733 Y136.339 E48.68541
G0 F7500 X109.168 Y136.339
G1 F1350 X111.974 Y133.532 E48.81742
G0 F7500 X111.663 Y133.278
G1 F1350 X108.66 Y136.281 E48.95867
G0 F7500 X108.66 Y135.715
G1 F1350 X111.432 Y132.943 E49.08906
G0 F7500 X111.338 Y132.471
G1 F1350 X108.66 Y135.15 E49.21504
G0 F7500 X108.66 Y134.584
G1 F1350 X111.338 Y131.905 E49.34103
G0 F7500 X111.338 Y131.34
G1 F1350 X108.66 Y134.018 E49.467
G0 F7500 X108.66 Y133.452
G1 F1350 X111.338 Y130.774 E49.59296
G0 F7500 X111.338 Y130.208
G1 F1350 X108.66 Y132.887 E49.71895
G0 F7500 X108.66 Y132.321
G1 F1350 X111.338 Y129.643 E49.84492
G0 F7500 X111.338 Y129.077
G1 F1350 X108.66 Y131.755 E49.97088
G0 F7500 X108.66 Y131.19
G1 F1350 X111.338 Y128.512 E50.09685
G0 F7500 X111.338 Y127.946
G1 F1350 X108.66 Y130.624 E50.22281
G0 F7500 X108.66 Y130.058
G1 F1350 X111.338 Y127.381 E50.34875
G0 F7500 X111.338 Y126.815
G1 F1350 X108.66 Y129.493 E50.47472
G0 F7500 X108.66 Y128.927
