;FLAVOR:Marlin
;TIME:566
;Filament used: 0.3302m
;Layer height: 0.2
;MINX:107.701
;MINY:97.701
;MINZ:0.2
;MAXX:127.3
;MAXY:137.3
;MAXZ:2
;Generated with Cura_SteamEngine 5.2.2
M140 S50
M105
M190 S50
M104 S200
M105
M109 S200
M82 ;absolute extrusion mode
; Ender 3 Custom Start G-code
G92 E0 ; Reset Extruder
G28 ; Home all axes
G1 Z2.0 F3000 ; Move Z Axis up little to prevent scratching of Heat Bed
G1 X0.1 Y20 Z0.3 F5000.0 ; Move to start position
G1 X0.1 Y200.0 Z0.3 F1500.0 E15 ; Draw the first line
G1 X0.4 Y200.0 Z0.3 F5000.0 ; Move to side a little
G1 X0.4 Y20 Z0.3 F1500.0 E30 ; Draw the second line
G92 E0 ; Reset Extruder
G1 Z2.0 F3000 ; Move Z Axis up little to prevent scratching of Heat Bed
G1 X5 Y20 Z0.3 F5000.0 ; Move over to prevent blob squish
G92 E0
G92 E0
G1 F2700 E-5
;LAYER_COUNT:10
;LAYER:0
M107
;MESH:LETRA D.stl
G0 F6000 X111.388 Y133.103 Z0.2
;TYPE:WALL-INNER
G1 F2700 E0
G1 F1200 X111.2 Y133.025 E0.00677
G1 X111.053 Y132.908 E0.01302
G1 X110.897 Y132.58 E0.0251
G1 X110.897 Y103.498 E0.99237
G1 X110.935 Y103.285 E0.99957
G1 X111.038 Y103.11 E1.00632
G1 X111.315 Y102.925 E1.0174
G1 X111.497 Y102.898 E1.02352
G1 X123.503 Y102.898 E1.42284
G1 X123.714 Y102.936 E1.42997
G1 X123.848 Y103.006 E1.435
G1 X124.048 Y103.244 E1.44534
G1 X124.104 Y103.498 E1.45399
G1 X124.103 Y132.503 E2.4187
G1 X124.027 Y132.797 E2.4288
G1 X123.797 Y133.027 E2.43962
G1 X123.503 Y133.103 E2.44972
G1 X111.388 Y133.103 E2.85266
G0 F6000 X111.349 Y132.638
;TYPE:WALL-OUTER
G1 F1200 X111.299 Y132.538 E2.85638
G1 X111.297 Y103.442 E3.82412
G1 X111.389 Y103.329 E3.82897
G1 X111.462 Y103.3 E3.83158
G1 X123.555 Y103.298 E4.23379
G1 X123.645 Y103.356 E4.23736
G1 X123.704 Y103.498 E4.24247
G1 X123.703 Y132.576 E5.20961
G1 X123.601 Y132.678 E5.21441
G1 X123.503 Y132.703 E5.21777
G1 X111.458 Y132.703 E5.61839
G1 X111.349 Y132.638 E5.62261
G1 F2700 E0.62261
G0 F6000 X111.598 Y133.204
G0 X122.219 Y133.284
G0 X124.278 Y135.344
G0 X123.005 Y136.9
;TYPE:WALL-INNER
G1 F2700 E5.62261
G1 F1200 X126.9 Y133.006 E5.80579
G1 X126.9 Y102.614 E6.81664
G1 X126.9 Y101.995 E6.83722
G1 X123.005 Y98.101 E7.02041
G1 X108.101 Y98.101 E7.51612
G1 X108.101 Y136.899 E8.80655
G1 X123.005 Y136.9 E9.30225
G0 F6000 X123.171 Y137.3
;TYPE:WALL-OUTER
G1 F1200 X127.3 Y133.172 E9.49645
G1 X127.3 Y102.614 E10.51281
G1 X127.3 Y101.829 E10.53892
G1 X123.171 Y97.701 E10.73311
G1 X107.701 Y97.701 E11.24765
G1 X107.701 Y137.299 E12.56468
G1 X123.171 Y137.3 E13.07921
G0 F6000 X122.855 Y136.539
;TYPE:SKIN
G1 F1200 X126.54 Y132.856 E13.2525
G1 X126.54 Y102.616 E14.25828
G1 X126.54 Y102.145 E14.27395
G1 X122.855 Y98.462 E14.44723
G1 X108.461 Y98.461 E14.92598
G1 X108.461 Y136.539 E16.19246
G1 X122.855 Y136.539 E16.67121
G1 F2700 E11.67121
G0 F6000 X123.039 Y136.723
G0 X111.598 Y136.7
G0 X111.6 Y133.284
G0 X111.269 Y133.436
G1 F2700 E16.67121
G1 F1200 X111.045 Y133.352 E16.67916
G1 X110.786 Y133.151 E16.69007
G1 X110.604 Y132.864 E16.70137
G1 X110.539 Y132.634 E16.70932
G1 X110.54 Y103.463 E17.67955
G1 X110.597 Y103.156 E17.68994
G1 X110.759 Y102.876 E17.7007
G1 X110.957 Y102.704 E17.70942
G1 X111.206 Y102.583 E17.71863
G1 X111.471 Y102.54 E17.72756
G1 X123.535 Y102.54 E18.12881
G1 X123.847 Y102.595 E18.13934
G1 X124.163 Y102.798 E18.15184
G1 X124.378 Y103.093 E18.16398
G1 X124.46 Y103.455 E18.17632
G1 X124.464 Y132.521 E19.14306
G1 X124.359 Y132.927 E19.15701
G1 X124.185 Y133.181 E19.16725
G1 X123.928 Y133.357 E19.17761
G1 X123.525 Y133.463 E19.19147
G1 X111.478 Y133.462 E19.59215
G1 X111.269 Y133.436 E19.59916
G1 F2700 E14.59916
G0 F6000 X111.598 Y133.204
G0 X111.111 Y133.182
G0 X110.835 Y136.7
G0 X109.185 Y136.338
G1 F2700 E19.59916
G1 F1200 X108.66 Y135.813 E19.62385
G0 F6000 X108.66 Y135.247
G1 F1200 X109.751 Y136.338 E19.67517
G0 F6000 X110.317 Y136.338
G1 F1200 X108.66 Y134.681 E19.75311
G0 F6000 X108.66 Y134.116
G1 F1200 X110.882 Y136.338 E19.85763
G0 F6000 X111.448 Y136.338
G1 F1200 X108.66 Y133.55 E19.98877
G0 F6000 X108.66 Y132.984
G1 F1200 X112.014 Y136.338 E20.14653
G0 F6000 X112.579 Y136.338
G1 F1200 X108.66 Y132.419 E20.33087
G0 F6000 X108.66 Y131.853
G1 F1200 X113.145 Y136.338 E20.54183
G0 F6000 X113.711 Y136.338
G1 F1200 X110.749 Y133.377 E20.68113
G0 F6000 X110.594 Y133.221
G1 F1200 X108.66 Y131.287 E20.7721
G0 F6000 X108.66 Y130.722
G1 F1200 X110.342 Y132.404 E20.85121
G0 F6000 X110.342 Y131.838
G1 F1200 X108.66 Y130.156 E20.93033
G0 F6000 X108.66 Y129.59
G1 F1200 X110.342 Y131.272 E21.00944
G0 F6000 X110.342 Y130.707
G1 F1200 X108.66 Y129.025 E21.08856
G0 F6000 X108.66 Y128.459
G1 F1200 X110.342 Y130.141 E21.16768
G0 F6000 X110.342 Y129.575
G1 F1200 X108.66 Y127.893 E21.24679
G0 F6000 X108.66 Y127.328
G1 F1200 X110.341 Y129.009 E21.32586
G0 F6000 X110.341 Y128.443
G1 F1200 X108.66 Y126.762 E21.40493
G0 F6000 X108.66 Y126.196
G1 F1200 X110.341 Y127.878 E21.48402
G0 F6000 X110.341 Y127.312
G1 F1200 X108.66 Y125.63 E21.56312
G0 F6000 X108.66 Y125.065
G1 F1200 X110.341 Y126.746 E21.64219
G0 F6000 X110.341 Y126.181
G1 F1200 X108.66 Y124.499 E21.72128
G0 F6000 X108.66 Y123.933
G1 F1200 X110.341 Y125.614 E21.80035
G0 F6000 X110.341 Y125.049
G1 F1200 X108.66 Y123.368 E21.87942
G0 F6000 X108.66 Y122.802
G1 F1200 X110.341 Y124.483 E21.95849
G0 F6000 X110.341 Y123.917
G1 F1200 X108.66 Y122.236 E22.03755
G0 F6000 X108.66 Y121.671
G1 F1200 X110.341 Y123.351 E22.1166
G0 F6000 X110.34 Y122.785
G1 F1200 X108.66 Y121.105 E22.19562
G0 F6000 X108.66 Y120.539
G1 F1200 X110.34 Y122.219 E22.27464
G0 F6000 X110.34 Y121.654
G1 F1200 X108.66 Y119.974 E22.35367
G0 F6000 X108.66 Y119.408
G1 F1200 X110.34 Y121.088 E22.43269
G0 F6000 X110.34 Y120.522
G1 F1200 X108.66 Y118.842 E22.51171
G0 F6000 X108.66 Y118.277
G1 F1200 X110.34 Y119.957 E22.59073
G0 F6000 X110.339 Y119.39
G1 F1200 X108.66 Y117.711 E22.66971
G0 F6000 X108.66 Y117.145
G1 F1200 X110.339 Y118.825 E22.74871
G0 F6000 X110.339 Y118.259
G1 F1200 X108.66 Y116.579 E22.8277
G0 F6000 X108.66 Y116.014
G1 F1200 X110.339 Y117.693 E22.90668
G0 F6000 X110.339 Y117.127
G1 F1200 X108.66 Y115.448 E22.98565
G0 F6000 X108.66 Y114.882
G1 F1200 X110.339 Y116.562 E23.06465
G0 F6000 X110.339 Y115.995
G1 F1200 X108.66 Y114.317 E23.1436
G0 F6000 X108.66 Y113.751
G1 F1200 X110.339 Y115.43 E23.22258
G0 F6000 X110.339 Y114.864
G1 F1200 X108.66 Y113.185 E23.30155
G0 F6000 X108.66 Y112.62
G1 F1200 X110.339 Y114.298 E23.38051
G0 F6000 X110.339 Y113.733
G1 F1200 X108.66 Y112.054 E23.45948
G0 F6000 X108.66 Y111.488
G1 F1200 X110.338 Y113.166 E23.53841
G0 F6000 X110.338 Y112.601
G1 F1200 X108.66 Y110.923 E23.61734
G0 F6000 X108.66 Y110.357
G1 F1200 X110.338 Y112.035 E23.69626
G0 F6000 X110.338 Y111.469
G1 F1200 X108.66 Y109.791 E23.77519
G0 F6000 X108.66 Y109.226
G1 F1200 X110.338 Y110.904 E23.85412
G0 F6000 X110.338 Y110.338
G1 F1200 X108.66 Y108.66 E23.93305
G0 F6000 X108.66 Y108.094
G1 F1200 X110.337 Y109.771 E24.01193
G0 F6000 X110.337 Y109.206
G1 F1200 X108.66 Y107.529 E24.09081
G0 F6000 X108.66 Y106.963
G1 F1200 X110.337 Y108.64 E24.16969
G0 F6000 X110.337 Y108.074
G1 F1200 X108.66 Y106.397 E24.24857
G0 F6000 X108.66 Y105.831
G1 F1200 X110.337 Y107.509 E24.32748
G0 F6000 X110.337 Y106.943
G1 F1200 X108.66 Y105.266 E24.40636
G0 F6000 X108.66 Y104.7
G1 F1200 X110.336 Y106.377 E24.48522
G0 F6000 X110.336 Y105.811
G1 F1200 X108.66 Y104.134 E24.56407
G0 F6000 X108.66 Y103.569
G1 F1200 X110.336 Y105.245 E24.64291
G0 F6000 X110.336 Y104.68
G1 F1200 X108.66 Y103.003 E24.72176
G0 F6000 X108.66 Y102.437
G1 F1200 X110.336 Y104.114 E24.80062
G0 F6000 X110.336 Y103.548
G1 F1200 X108.66 Y101.872 E24.87946
G0 F6000 X108.66 Y101.306
G1 F1200 X110.418 Y103.065 E24.96217
G0 F6000 X110.635 Y102.715
G1 F1200 X108.66 Y100.74 E25.05507
G0 F6000 X108.66 Y100.175
G1 F1200 X110.959 Y102.473 E25.16318
G0 F6000 X111.399 Y102.348
G1 F1200 X108.66 Y99.609 E25.29202
G0 F6000 X108.66 Y99.043
G1 F1200 X111.959 Y102.342 E25.44719
G0 F6000 X112.524 Y102.342
G1 F1200 X108.843 Y98.661 E25.62033
G0 F6000 X109.409 Y98.661
G1 F1200 X113.09 Y102.342 E25.79348
G0 F6000 X113.656 Y102.342
G1 F1200 X109.974 Y98.661 E25.96664
G0 F6000 X110.54 Y98.661
G1 F1200 X114.221 Y102.342 E26.13979
G0 F6000 X114.787 Y102.342
G1 F1200 X111.106 Y98.661 E26.31293
G0 F6000 X111.671 Y98.661
G1 F1200 X115.353 Y102.342 E26.4861
G0 F6000 X115.918 Y102.342
G1 F1200 X112.237 Y98.661 E26.65924
G0 F6000 X112.803 Y98.661
G1 F1200 X116.484 Y102.342 E26.83238
G0 F6000 X117.05 Y102.342
G1 F1200 X113.369 Y98.661 E27.00552
G0 F6000 X113.934 Y98.661
G1 F1200 X117.615 Y102.342 E27.17867
G0 F6000 X118.181 Y102.342
G1 F1200 X114.5 Y98.661 E27.35181
G0 F6000 X115.066 Y98.661
G1 F1200 X118.747 Y102.342 E27.52495
G0 F6000 X119.312 Y102.342
G1 F1200 X115.631 Y98.661 E27.6981
G0 F6000 X116.198 Y98.661
G1 F1200 X119.878 Y102.342 E27.87122
G0 F6000 X120.444 Y102.342
G1 F1200 X116.763 Y98.661 E28.04436
G0 F6000 X117.329 Y98.661
G1 F1200 X121.01 Y102.342 E28.2175
G0 F6000 X121.575 Y102.342
G1 F1200 X117.895 Y98.661 E28.39062
G0 F6000 X118.46 Y98.661
G1 F1200 X122.141 Y102.342 E28.56376
G0 F6000 X122.707 Y102.342
G1 F1200 X119.026 Y98.661 E28.73691
G0 F6000 X119.592 Y98.661
G1 F1200 X123.272 Y102.342 E28.91003
G0 F6000 X123.895 Y102.399
G1 F1200 X120.157 Y98.661 E29.08585
G0 F6000 X120.723 Y98.661
G1 F1200 X126.339 Y104.277 E29.35001
G0 F6000 X126.339 Y103.712
G1 F1200 X121.289 Y98.661 E29.58757
G0 F6000 X121.855 Y98.661
G1 F1200 X126.339 Y103.146 E29.79851
G0 F6000 X126.339 Y102.58
G1 F1200 X122.42 Y98.661 E29.98284
G1 F2700 E24.98284
G0 F6000 X122.42 Y98.201
G0 X122.885 Y98.258
G0 X126.479 Y101.318
G0 X124.142 Y103.049
G0 X124.579 Y103.083
G1 F2700 E29.98284
G1 F1200 X126.339 Y104.843 E30.06563
G0 F6000 X126.339 Y105.409
G1 F1200 X124.662 Y103.732 E30.14451
G0 F6000 X124.662 Y104.298
G1 F1200 X126.339 Y105.974 E30.22337
G0 F6000 X126.339 Y106.54
G1 F1200 X124.662 Y104.863 E30.30225
G0 F6000 X124.662 Y105.429
G1 F1200 X126.339 Y107.106 E30.38113
G0 F6000 X126.339 Y107.671
G1 F1200 X124.662 Y105.995 E30.45999
G0 F6000 X124.662 Y106.56
G1 F1200 X126.339 Y108.237 E30.53887
G0 F6000 X126.339 Y108.803
G1 F1200 X124.662 Y107.126 E30.61775
G0 F6000 X124.662 Y107.692
G1 F1200 X126.339 Y109.368 E30.69661
G0 F6000 X126.339 Y109.934
G1 F1200 X124.662 Y108.258 E30.77546
G0 F6000 X124.662 Y108.823
G1 F1200 X126.339 Y110.5 E30.85435
G0 F6000 X126.339 Y111.065
G1 F1200 X124.662 Y109.389 E30.9332
G0 F6000 X124.662 Y109.955
G1 F1200 X126.339 Y111.631 E31.01206
G0 F6000 X126.339 Y112.197
G1 F1200 X124.662 Y110.52 E31.09094
G0 F6000 X124.662 Y111.086
G1 F1200 X126.339 Y112.763 E31.16982
G0 F6000 X126.339 Y113.328
G1 F1200 X124.662 Y111.652 E31.24868
G0 F6000 X124.662 Y112.217
G1 F1200 X126.339 Y113.894 E31.32756
G0 F6000 X126.339 Y114.46
G1 F1200 X124.662 Y112.783 E31.40644
G0 F6000 X124.662 Y113.349
G1 F1200 X126.339 Y115.025 E31.4853
G0 F6000 X126.339 Y115.591
G1 F1200 X124.662 Y113.914 E31.56418
G0 F6000 X124.662 Y114.48
G1 F1200 X126.339 Y116.157 E31.64306
G0 F6000 X126.339 Y116.722
G1 F1200 X124.662 Y115.046 E31.72192
G0 F6000 X124.662 Y115.611
G1 F1200 X126.339 Y117.288 E31.8008
G0 F6000 X126.34 Y117.854
G1 F1200 X124.662 Y116.177 E31.8797
G0 F6000 X124.662 Y116.743
G1 F1200 X126.34 Y118.42 E31.95861
G0 F6000 X126.34 Y118.986
G1 F1200 X124.662 Y117.309 E32.03751
G0 F6000 X124.662 Y117.874
G1 F1200 X126.34 Y119.551 E32.11642
G0 F6000 X126.34 Y120.117
G1 F1200 X124.663 Y118.441 E32.19527
G0 F6000 X124.663 Y119.006
G1 F1200 X126.34 Y120.683 E32.27416
G0 F6000 X126.34 Y121.249
G1 F1200 X124.663 Y119.572 E32.35304
G0 F6000 X124.663 Y120.138
G1 F1200 X126.34 Y121.814 E32.43189
G0 F6000 X126.34 Y122.38
G1 F1200 X124.663 Y120.703 E32.51077
G0 F6000 X124.663 Y121.269
G1 F1200 X126.34 Y122.946 E32.58966
G0 F6000 X126.34 Y123.511
G1 F1200 X124.663 Y121.835 E32.66851
G0 F6000 X124.663 Y122.4
G1 F1200 X126.34 Y124.077 E32.74739
G0 F6000 X126.34 Y124.643
G1 F1200 X124.663 Y122.966 E32.82627
G0 F6000 X124.663 Y123.532
G1 F1200 X126.34 Y125.208 E32.90513
G0 F6000 X126.34 Y125.774
G1 F1200 X124.663 Y124.097 E32.98401
G0 F6000 X124.663 Y124.663
G1 F1200 X126.34 Y126.34 E33.06289
G0 F6000 X126.34 Y126.905
G1 F1200 X124.663 Y125.229 E33.14175
G0 F6000 X124.663 Y125.795
G1 F1200 X126.34 Y127.471 E33.22061
G0 F6000 X126.34 Y128.037
G1 F1200 X124.663 Y126.36 E33.29949
G0 F6000 X124.663 Y126.926
G1 F1200 X126.34 Y128.602 E33.37835
G0 F6000 X126.34 Y129.168
G1 F1200 X124.663 Y127.492 E33.4572
G0 F6000 X124.663 Y128.057
G1 F1200 X126.34 Y129.734 E33.53609
G0 F6000 X126.34 Y130.299
G1 F1200 X124.663 Y128.623 E33.61494
G0 F6000 X124.663 Y129.189
G1 F1200 X126.34 Y130.865 E33.6938
G0 F6000 X126.34 Y131.431
G1 F1200 X124.663 Y129.754 E33.77268
G0 F6000 X124.663 Y130.32
G1 F1200 X126.34 Y131.997 E33.85156
G0 F6000 X126.34 Y132.562
G1 F1200 X124.663 Y130.886 E33.93042
G0 F6000 X124.663 Y131.451
G1 F1200 X126.161 Y132.949 E34.00088
G0 F6000 X125.878 Y133.232
G1 F1200 X124.663 Y132.017 E34.05803
G0 F6000 X124.656 Y132.576
G1 F1200 X125.595 Y133.515 E34.1022
G0 F6000 X125.312 Y133.798
G1 F1200 X124.529 Y133.014 E34.13905
G0 F6000 X124.289 Y133.34
G1 F1200 X125.029 Y134.08 E34.17386
G0 F6000 X124.747 Y134.363
G1 F1200 X123.942 Y133.559 E34.2117
G0 F6000 X123.479 Y133.662
G1 F1200 X124.464 Y134.646 E34.25801
G0 F6000 X124.181 Y134.929
G1 F1200 X122.914 Y133.662 E34.3176
G0 F6000 X122.348 Y133.662
G1 F1200 X123.898 Y135.212 E34.39051
G0 F6000 X123.615 Y135.495
G1 F1200 X121.782 Y133.662 E34.47673
G0 F6000 X121.217 Y133.662
G1 F1200 X123.332 Y135.777 E34.57621
G0 F6000 X123.05 Y136.06
G1 F1200 X120.651 Y133.662 E34.68903
G0 F6000 X120.085 Y133.662
G1 F1200 X122.762 Y136.338 E34.81493
G0 F6000 X122.196 Y136.338
G1 F1200 X119.52 Y133.662 E34.9408
G0 F6000 X118.953 Y133.661
G1 F1200 X121.63 Y136.338 E35.06671
G0 F6000 X121.065 Y136.338
G1 F1200 X118.388 Y133.661 E35.19263
G0 F6000 X117.822 Y133.661
G1 F1200 X120.499 Y136.338 E35.31855
G0 F6000 X119.933 Y136.338
G1 F1200 X117.256 Y133.661 E35.44447
G0 F6000 X116.691 Y133.661
G1 F1200 X119.368 Y136.338 E35.57039
G0 F6000 X118.802 Y136.338
G1 F1200 X116.125 Y133.661 E35.6963
G0 F6000 X115.559 Y133.661
G1 F1200 X118.236 Y136.338 E35.82222
G0 F6000 X117.671 Y136.338
G1 F1200 X114.993 Y133.66 E35.94819
G0 F6000 X114.427 Y133.66
G1 F1200 X117.105 Y136.338 E36.07415
G0 F6000 X116.539 Y136.338
G1 F1200 X113.861 Y133.66 E36.20012
G0 F6000 X113.296 Y133.66
G1 F1200 X115.973 Y136.338 E36.32606
G0 F6000 X115.408 Y136.338
G1 F1200 X112.73 Y133.66 E36.45202
G0 F6000 X112.164 Y133.66
G1 F1200 X114.842 Y136.338 E36.57799
G0 F6000 X114.276 Y136.338
G1 F1200 X111.599 Y133.66 E36.70393
;MESH:NONMESH
G0 F300 X111.599 Y133.66 Z0.4
G0 F6000 X111.388 Y133.103
;TIME_ELAPSED:75.081555
;LAYER:1
M106 S85
;TYPE:WALL-INNER
;MESH:LETRA D.stl
G1 F1350 X111.2 Y133.025 E36.7107
G1 X111.053 Y132.908 E36.71695
G1 X110.897 Y132.58 E36.72903
G1 X110.897 Y103.498 E37.6963
G1 X110.935 Y103.285 E37.7035
G1 X111.038 Y103.11 E37.71025
G1 X111.315 Y102.925 E37.72133
G1 X111.497 Y102.898 E37.72745
G1 X123.503 Y102.898 E38.12677
G1 X123.714 Y102.936 E38.1339
G1 X123.848 Y103.006 E38.13893
G1 X124.048 Y103.244 E38.14927
G1 X124.104 Y103.498 E38.15792
G1 X124.103 Y132.503 E39.12263
G1 X124.027 Y132.797 E39.13273
G1 X123.797 Y133.027 E39.14355
G1 X123.503 Y133.103 E39.15365
G1 X111.388 Y133.103 E39.55659
G0 F7500 X111.349 Y132.638
;TYPE:WALL-OUTER
G1 F1350 X111.299 Y132.538 E39.56031
G1 X111.297 Y103.442 E40.52805
G1 X111.389 Y103.329 E40.5329
G1 X111.462 Y103.3 E40.53551
G1 X123.555 Y103.298 E40.93772
G1 X123.645 Y103.356 E40.94128
G1 X123.704 Y103.498 E40.9464
G1 X123.703 Y132.576 E41.91354
G1 X123.601 Y132.678 E41.91833
G1 X123.503 Y132.703 E41.9217
G1 X111.458 Y132.703 E42.32232
G1 X111.349 Y132.638 E42.32654
G1 F2700 E37.32654
G0 F7500 X111.598 Y133.204
G0 X122.219 Y133.284
G0 X124.278 Y135.344
G0 X123.005 Y136.9
;TYPE:WALL-INNER
G1 F2700 E42.32654
G1 F1350 X126.9 Y133.006 E42.50972
G1 X126.9 Y102.614 E43.52057
G1 X126.9 Y101.995 E43.54115
G1 X123.005 Y98.101 E43.72434
G1 X108.101 Y98.101 E44.22005
G1 X108.101 Y136.899 E45.51047
G1 X123.005 Y136.9 E46.00618
G0 F7500 X123.171 Y137.3
;TYPE:WALL-OUTER
G1 F1350 X127.3 Y133.172 E46.20038
G1 X127.3 Y102.614 E47.21674
