;FLAVOR:Marlin
;TIME:811
;Filament used: 0.479369m
;Layer height: 0.2
;MINX:106.189
;MINY:87.546
;MINZ:0.2
;MAXX:128.61
;MAXY:147
;MAXZ:2
;Generated with Cura_SteamEngine 5.2.2
M140 S50
M105
M190 S50
M104 S200
M105
M109 S200
M82 ;absolute extrusion mode
; Ender 3 Custom Start G-code
G92 E0 ; Reset Extruder
G28 ; Home all axes
G1 Z2.0 F3000 ; Move Z Axis up little to prevent scratching of Heat Bed
G1 X0.1 Y20 Z0.3 F5000.0 ; Move to start position
G1 X0.1 Y200.0 Z0.3 F1500.0 E15 ; Draw the first line
G1 X0.4 Y200.0 Z0.3 F5000.0 ; Move to side a little
G1 X0.4 Y20 Z0.3 F1500.0 E30 ; Draw the second line
G92 E0 ; Reset Extruder
G1 Z2.0 F3000 ; Move Z Axis up little to prevent scratching of Heat Bed
G1 X5 Y20 Z0.3 F5000.0 ; Move over to prevent blob squish
G92 E0
G92 E0
G1 F2700 E-5
;LAYER_COUNT:10
;LAYER:0
M107
;MESH:LETRA ??.stl
G0 F6000 X121.095 Y119.939 Z0.2
;TYPE:WALL-INNER
G1 F2700 E0
G1 F1200 X120.991 Y119.947 E0.00347
G1 X110.985 Y119.947 E0.33627
G1 X110.726 Y119.889 E0.3451
G1 X110.493 Y119.692 E0.35525
G1 X110.385 Y119.42 E0.36498
G1 X110.385 Y109.342 E0.70018
G1 X110.42 Y109.138 E0.70706
G1 X110.515 Y108.967 E0.71357
G1 X110.644 Y108.848 E0.7194
G1 X110.932 Y108.744 E0.72959
G1 X121.066 Y108.742 E1.06665
G1 X121.333 Y108.848 E1.0762
G1 X121.461 Y108.967 E1.08201
G1 X121.556 Y109.138 E1.08852
G1 X121.592 Y109.342 E1.09541
G1 X121.592 Y119.347 E1.42818
G1 X121.563 Y119.532 E1.43441
G1 X121.372 Y119.812 E1.44568
G1 X121.095 Y119.939 E1.45581
G0 F6000 X121.155 Y119.462
;TYPE:WALL-OUTER
G1 F1200 X121.026 Y119.545 E1.46092
G1 X110.938 Y119.542 E1.79644
G1 X110.858 Y119.502 E1.79942
G1 X110.787 Y119.382 E1.80406
G1 X110.785 Y109.288 E2.13978
G1 X110.871 Y109.177 E2.14445
G1 X110.967 Y109.142 E2.14785
G1 X121.027 Y109.145 E2.48245
G1 X121.105 Y109.177 E2.48525
G1 X121.192 Y109.29 E2.49
G1 X121.192 Y119.347 E2.82449
G1 X121.155 Y119.462 E2.82851
G1 F2700 E-2.17149
G0 F6000 X121.692 Y119.259
G0 X121.487 Y119.951
G0 X125.188 Y119.951
G0 X125.388 Y126.745
;TYPE:WALL-INNER
G1 F2700 E2.82851
G1 F1200 X125.388 Y89.844 E4.05585
G1 X125.388 Y87.946 E4.11897
G1 X121.592 Y87.946 E4.24523
G1 X121.592 Y102.418 E4.72657
G1 X121.461 Y102.722 E4.73758
G1 X121.197 Y102.911 E4.74838
G1 X120.991 Y102.948 E4.75534
G1 X110.985 Y102.948 E5.08814
G1 X110.779 Y102.911 E5.0951
G1 X110.515 Y102.722 E5.1059
G1 X110.385 Y102.421 E5.11681
G1 X110.385 Y87.946 E5.59825
G1 X106.589 Y87.946 E5.7245
G1 X106.589 Y126.744 E7.01493
G1 X125.388 Y126.745 E7.64019
G0 F6000 X125.788 Y127.145
;TYPE:WALL-OUTER
G1 F1200 X125.788 Y89.844 E8.88082
G1 X125.788 Y87.546 E8.95725
G1 X121.192 Y87.546 E9.11012
G1 X121.189 Y102.382 E9.60356
G1 X121.148 Y102.472 E9.60685
G1 X121.042 Y102.548 E9.61119
G1 X110.967 Y102.547 E9.94629
G1 X110.871 Y102.512 E9.94969
G1 X110.787 Y102.382 E9.95483
G1 X110.785 Y87.546 E10.44828
G1 X106.189 Y87.546 E10.60115
G1 X106.189 Y127.144 E11.91818
G1 X125.788 Y127.145 E12.57005
G0 F6000 X125.518 Y126.875
G0 X125.288 Y126.385
G0 X125.028 Y126.385
;TYPE:SKIN
G1 F1200 X125.028 Y89.844 E13.7854
G1 X125.028 Y88.306 E13.83656
G1 X121.952 Y88.306 E13.93887
G1 X121.95 Y102.47 E14.40996
G1 X121.901 Y102.655 E14.41633
G1 X121.744 Y102.95 E14.42744
G1 X121.517 Y103.149 E14.43748
G1 X121.315 Y103.251 E14.44501
G1 X120.995 Y103.308 E14.45582
G1 X110.848 Y103.307 E14.79331
G1 X110.438 Y103.142 E14.80801
G1 X110.217 Y102.921 E14.81841
G1 X110.027 Y102.579 E14.83142
G1 X110.025 Y88.306 E15.30614
G1 X106.949 Y88.306 E15.40845
G1 X106.949 Y126.384 E16.67493
G1 X125.028 Y126.385 E17.27624
G1 F2700 E12.27624
G0 F6000 X125.288 Y126.385
G0 X125.188 Y119.985
G0 X121.761 Y119.482
G0 X121.36 Y120.23
G1 F2700 E17.27624
G1 F1200 X121.021 Y120.305 E17.28779
G1 X110.811 Y120.307 E17.62737
G1 X110.373 Y120.093 E17.64359
G1 X110.184 Y119.876 E17.65316
G1 X110.063 Y119.613 E17.66279
G1 X110.027 Y119.378 E17.67069
G1 X110.027 Y109.31 E18.00556
G1 X110.078 Y109.014 E18.01555
G1 X110.217 Y108.767 E18.02497
G1 X110.414 Y108.571 E18.03422
G1 X110.661 Y108.438 E18.04355
G1 X110.902 Y108.384 E18.05176
G1 X121.118 Y108.383 E18.39155
G1 X121.501 Y108.532 E18.40521
G1 X121.721 Y108.717 E18.41477
G1 X121.899 Y109.013 E18.42626
G1 X121.95 Y109.312 E18.43635
G1 X121.952 Y119.344 E18.77002
G1 X121.913 Y119.613 E18.77906
G1 X121.792 Y119.876 E18.78869
G1 X121.586 Y120.101 E18.79883
G1 X121.36 Y120.23 E18.80749
G1 F2700 E13.80749
G0 F6000 X121.277 Y119.985
G0 X110.986 Y120.128
G0 X110.043 Y126.544
G0 X107.515 Y126.183
G1 F2700 E18.80749
G1 F1200 X107.148 Y125.816 E18.82475
G0 F6000 X107.148 Y125.25
G1 F1200 X108.081 Y126.183 E18.86864
G0 F6000 X108.646 Y126.183
G1 F1200 X107.148 Y124.684 E18.93912
G0 F6000 X107.148 Y124.119
G1 F1200 X109.212 Y126.183 E19.0362
G0 F6000 X109.778 Y126.183
G1 F1200 X107.148 Y123.553 E19.15991
G0 F6000 X107.148 Y122.987
G1 F1200 X110.344 Y126.183 E19.31024
G0 F6000 X110.909 Y126.183
G1 F1200 X107.148 Y122.422 E19.48715
G0 F6000 X107.148 Y121.856
G1 F1200 X111.475 Y126.183 E19.69068
G0 F6000 X112.041 Y126.183
G1 F1200 X107.148 Y121.29 E19.92083
G0 F6000 X107.148 Y120.725
G1 F1200 X112.606 Y126.183 E20.17756
G0 F6000 X113.172 Y126.183
G1 F1200 X107.148 Y120.159 E20.46091
G0 F6000 X107.148 Y119.593
G1 F1200 X113.738 Y126.183 E20.77088
G0 F6000 X114.303 Y126.183
G1 F1200 X107.148 Y119.027 E21.10745
G0 F6000 X107.148 Y118.462
G1 F1200 X114.869 Y126.183 E21.47062
G0 F6000 X115.435 Y126.183
G1 F1200 X107.148 Y117.896 E21.86042
G0 F6000 X107.148 Y117.33
G1 F1200 X116 Y126.183 E22.27681
G0 F6000 X116.566 Y126.183
G1 F1200 X110.889 Y120.506 E22.54384
G0 F6000 X111.455 Y120.506
G1 F1200 X117.132 Y126.183 E22.81087
G0 F6000 X117.697 Y126.183
G1 F1200 X112.021 Y120.506 E23.07788
G0 F6000 X112.586 Y120.505
G1 F1200 X118.263 Y126.183 E23.34493
G0 F6000 X118.829 Y126.183
G1 F1200 X113.151 Y120.505 E23.612
G0 F6000 X113.717 Y120.505
G1 F1200 X119.394 Y126.183 E23.87906
G0 F6000 X119.96 Y126.183
G1 F1200 X114.282 Y120.505 E24.14613
G0 F6000 X114.848 Y120.505
G1 F1200 X120.526 Y126.183 E24.41321
G0 F6000 X121.092 Y126.183
G1 F1200 X115.413 Y120.505 E24.68031
G0 F6000 X115.978 Y120.504
G1 F1200 X121.657 Y126.183 E24.94743
G0 F6000 X122.223 Y126.183
G1 F1200 X116.544 Y120.504 E25.21455
G0 F6000 X117.11 Y120.504
G1 F1200 X122.789 Y126.183 E25.48168
G0 F6000 X123.354 Y126.183
G1 F1200 X117.675 Y120.503 E25.74882
G0 F6000 X118.24 Y120.503
G1 F1200 X123.92 Y126.183 E26.01599
G0 F6000 X124.486 Y126.183
G1 F1200 X118.806 Y120.503 E26.28316
G0 F6000 X119.371 Y120.503
G1 F1200 X124.827 Y125.959 E26.5398
G0 F6000 X124.827 Y125.393
G1 F1200 X119.937 Y120.503 E26.76981
G0 F6000 X120.503 Y120.503
G1 F1200 X124.827 Y124.827 E26.97319
G0 F6000 X124.827 Y124.261
G1 F1200 X121.065 Y120.5 E27.15012
G0 F6000 X121.502 Y120.371
G1 F1200 X124.827 Y123.696 E27.30652
G0 F6000 X124.827 Y123.13
G1 F1200 X121.83 Y120.133 E27.44749
G0 F6000 X122.052 Y119.79
G1 F1200 X124.827 Y122.564 E27.57799
G0 F6000 X124.827 Y121.999
G1 F1200 X122.15 Y119.322 E27.70391
G0 F6000 X122.15 Y118.756
G1 F1200 X124.827 Y121.433 E27.82983
G0 F6000 X124.827 Y120.867
G1 F1200 X122.15 Y118.19 E27.95575
G0 F6000 X122.149 Y117.624
G1 F1200 X124.827 Y120.302 E28.08171
G0 F6000 X124.827 Y119.736
G1 F1200 X122.149 Y117.058 E28.20768
G0 F6000 X122.149 Y116.493
G1 F1200 X124.827 Y119.17 E28.33362
G0 F6000 X124.827 Y118.605
G1 F1200 X122.149 Y115.926 E28.45961
G0 F6000 X122.149 Y115.36
G1 F1200 X124.827 Y118.039 E28.5856
G0 F6000 X124.827 Y117.473
G1 F1200 X122.148 Y114.794 E28.71161
G0 F6000 X122.148 Y114.228
G1 F1200 X124.827 Y116.908 E28.83764
G0 F6000 X124.827 Y116.342
G1 F1200 X122.148 Y113.663 E28.96366
G0 F6000 X122.147 Y113.096
G1 F1200 X124.827 Y115.776 E29.08971
G0 F6000 X124.827 Y115.211
G1 F1200 X122.147 Y112.531 E29.21577
G0 F6000 X122.147 Y111.964
G1 F1200 X124.827 Y114.645 E29.34186
G0 F6000 X124.827 Y114.079
G1 F1200 X122.147 Y111.399 E29.46791
G0 F6000 X122.147 Y110.833
G1 F1200 X124.827 Y113.513 E29.59397
G0 F6000 X124.827 Y112.948
G1 F1200 X122.146 Y110.266 E29.7201
G0 F6000 X122.146 Y109.701
G1 F1200 X124.827 Y112.382 E29.84621
G0 F6000 X124.827 Y111.816
G1 F1200 X122.116 Y109.105 E29.97373
G0 F6000 X121.692 Y109.436
G0 X121.118 Y108.652
G0 X121.214 Y108.203
G1 F1200 X116.518 Y103.507 E30.19461
G0 F6000 X115.952 Y103.507
G1 F1200 X120.626 Y108.181 E30.41446
G0 F6000 X120.061 Y108.181
G1 F1200 X115.387 Y103.507 E30.63431
G0 F6000 X114.821 Y103.507
G1 F1200 X119.496 Y108.182 E30.85421
G0 F6000 X118.93 Y108.182
G1 F1200 X114.255 Y103.507 E31.07411
G0 F6000 X113.69 Y103.507
G1 F1200 X118.364 Y108.182 E31.29398
G0 F6000 X117.799 Y108.183
G1 F1200 X113.124 Y103.507 E31.5139
G0 F6000 X112.558 Y103.507
G1 F1200 X117.234 Y108.183 E31.73385
G0 F6000 X116.669 Y108.183
G1 F1200 X111.992 Y103.507 E31.95382
G0 F6000 X111.427 Y103.507
G1 F1200 X116.103 Y108.183 E32.17376
G0 F6000 X115.537 Y108.183
G1 F1200 X110.861 Y103.507 E32.39371
G0 F6000 X111.067 Y103.048
G0 X110.293 Y102.439
G0 X109.829 Y102.475
G1 F1200 X107.147 Y99.793 E32.51986
G0 F6000 X107.147 Y99.228
G1 F1200 X109.829 Y101.909 E32.64599
G0 F6000 X109.829 Y101.343
G1 F1200 X107.147 Y98.662 E32.77212
G0 F6000 X107.147 Y98.096
G1 F1200 X109.829 Y100.778 E32.89827
G0 F6000 X109.828 Y100.211
G1 F1200 X107.147 Y97.531 E33.02435
G0 F6000 X107.147 Y96.965
G1 F1200 X109.828 Y99.646 E33.15046
G0 F6000 X109.828 Y99.08
G1 F1200 X107.147 Y96.399 E33.27657
G0 F6000 X107.147 Y95.834
G1 F1200 X109.827 Y98.514 E33.40263
G0 F6000 X109.827 Y97.948
G1 F1200 X107.147 Y95.268 E33.52868
G0 F6000 X107.147 Y94.702
G1 F1200 X109.827 Y97.382 E33.65474
G0 F6000 X109.827 Y96.817
G1 F1200 X107.147 Y94.137 E33.7808
G0 F6000 X107.147 Y93.571
G1 F1200 X109.827 Y96.25 E33.90684
G0 F6000 X109.827 Y95.684
G1 F1200 X107.147 Y93.005 E34.03287
G0 F6000 X107.147 Y92.44
G1 F1200 X109.827 Y95.119 E34.15891
G0 F6000 X109.826 Y94.552
G1 F1200 X107.147 Y91.874 E34.2849
G0 F6000 X107.147 Y91.308
G1 F1200 X109.826 Y93.987 E34.41091
G0 F6000 X109.826 Y93.421
G1 F1200 X107.147 Y90.743 E34.5369
G0 F6000 X107.147 Y90.177
G1 F1200 X109.826 Y92.855 E34.66289
G0 F6000 X109.825 Y92.289
G1 F1200 X107.147 Y89.611 E34.78885
G0 F6000 X107.147 Y89.045
G1 F1200 X109.825 Y91.723 E34.91482
G0 F6000 X109.825 Y91.158
G1 F1200 X107.174 Y88.506 E35.03953
G0 F6000 X107.739 Y88.506
G1 F1200 X109.825 Y90.592 E35.13765
G0 F6000 X109.824 Y90.026
G1 F1200 X108.305 Y88.506 E35.20913
G0 F6000 X108.871 Y88.506
G1 F1200 X109.824 Y89.46 E35.25398
G0 F6000 X109.824 Y88.894
G1 F1200 X109.436 Y88.506 E35.27223
G0 F6000 X109.436 Y88.046
G0 X106.761 Y88.118
G0 X106.689 Y100.359
G0 X107.147 Y100.359
G1 F1200 X114.972 Y108.184 E35.64029
G0 F6000 X114.407 Y108.184
G1 F1200 X107.147 Y100.925 E35.98175
G0 F6000 X107.147 Y101.491
G1 F1200 X113.841 Y108.184 E36.2966
G0 F6000 X113.276 Y108.185
G1 F1200 X107.147 Y102.056 E36.58489
G0 F6000 X107.147 Y102.622
G1 F1200 X112.71 Y108.185 E36.84655
G0 F6000 X112.145 Y108.185
G1 F1200 X107.147 Y103.188 E37.08162
G0 F6000 X107.147 Y103.753
G1 F1200 X111.58 Y108.185 E37.29011
G0 F6000 X111.014 Y108.185
G1 F1200 X107.147 Y104.319 E37.47198
G0 F6000 X107.147 Y104.885
G1 F1200 X110.538 Y108.275 E37.63146
G0 F6000 X110.199 Y108.502
G1 F1200 X107.147 Y105.45 E37.77501
G0 F6000 X107.147 Y106.016
G1 F1200 X109.957 Y108.826 E37.90719
G0 F6000 X109.831 Y109.265
G1 F1200 X107.147 Y106.582 E38.03341
G0 F6000 X107.147 Y107.147
G1 F1200 X109.829 Y109.829 E38.15956
G0 F6000 X109.829 Y110.394
G1 F1200 X107.148 Y107.714 E38.28565
G0 F6000 X107.148 Y108.279
G1 F1200 X109.829 Y110.96 E38.41175
G0 F6000 X109.829 Y111.526
G1 F1200 X107.148 Y108.845 E38.53786
G0 F6000 X107.148 Y109.411
G1 F1200 X109.829 Y112.091 E38.66394
G0 F6000 X109.829 Y112.657
G1 F1200 X107.148 Y109.977 E38.79002
G0 F6000 X107.148 Y110.542
G1 F1200 X109.829 Y113.223 E38.91613
G0 F6000 X109.829 Y113.789
G1 F1200 X107.148 Y111.108 E39.04224
G0 F6000 X107.148 Y111.674
G1 F1200 X109.829 Y114.354 E39.16832
G0 F6000 X109.829 Y114.92
G1 F1200 X107.148 Y112.239 E39.29442
G0 F6000 X107.148 Y112.805
G1 F1200 X109.829 Y115.486 E39.42053
G0 F6000 X109.829 Y116.051
G1 F1200 X107.148 Y113.371 E39.54661
G0 F6000 X107.148 Y113.936
G1 F1200 X109.829 Y116.617 E39.67272
G0 F6000 X109.829 Y117.183
G1 F1200 X107.148 Y114.502 E39.79882
G0 F6000 X107.148 Y115.068
G1 F1200 X109.829 Y117.748 E39.92491
G0 F6000 X109.829 Y118.314
G1 F1200 X107.148 Y115.633 E40.05101
G0 F6000 X107.148 Y116.199
G1 F1200 X109.829 Y118.88 E40.17712
G0 F6000 X109.835 Y119.452
G1 F1200 X107.148 Y116.765 E40.30351
G1 F2700 E35.30351
G0 F6000 X106.689 Y116.765
G0 X106.761 Y88.118
G0 X110.213 Y88.118
G0 X110.553 Y102.974
G0 X117.084 Y103.048
G1 F2700 E40.30351
G0 F6000 X117.084 Y103.507
G1 F1200 X124.827 Y111.251 E40.66774
G0 F6000 X124.827 Y110.685
G1 F1200 X117.649 Y103.507 E41.00537
G0 F6000 X118.215 Y103.507
G1 F1200 X124.827 Y110.119 E41.31638
G0 F6000 X124.827 Y109.554
G1 F1200 X118.781 Y103.507 E41.60079
G0 F6000 X119.346 Y103.507
G1 F1200 X124.827 Y108.988 E41.8586
G0 F6000 X124.827 Y108.422
G1 F1200 X119.912 Y103.507 E42.08978
G0 F6000 X120.478 Y103.507
G1 F1200 X124.827 Y107.857 E42.29437
G0 F6000 X124.827 Y107.291
G1 F1200 X121.037 Y103.501 E42.47264
G0 F6000 X121.488 Y103.386
G1 F1200 X124.827 Y106.725 E42.6297
G0 F6000 X124.827 Y106.16
G1 F1200 X121.818 Y103.15 E42.77125
G0 F6000 X122.047 Y102.814
G1 F1200 X124.827 Y105.594 E42.90202
G0 F6000 X124.827 Y105.028
G1 F1200 X122.146 Y102.347 E43.02812
G0 F6000 X122.146 Y101.781
G1 F1200 X124.827 Y104.463 E43.15425
G0 F6000 X124.827 Y103.897
G1 F1200 X122.146 Y101.215 E43.28038
G0 F6000 X122.146 Y100.65
G1 F1200 X124.827 Y103.331 E43.40649
G0 F6000 X124.827 Y102.765
G1 F1200 X122.147 Y100.085 E43.53255
G0 F6000 X122.147 Y99.519
G1 F1200 X124.827 Y102.2 E43.65863
G0 F6000 X124.827 Y101.634
G1 F1200 X122.147 Y98.953 E43.78471
G0 F6000 X122.147 Y98.388
G1 F1200 X124.827 Y101.068 E43.91077
G0 F6000 X124.827 Y100.503
G1 F1200 X122.147 Y97.823 E44.03683
G0 F6000 X122.147 Y97.257
G1 F1200 X124.827 Y99.937 E44.16289
G0 F6000 X124.827 Y99.371
G1 F1200 X122.147 Y96.691 E44.28895
G0 F6000 X122.148 Y96.126
G1 F1200 X124.827 Y98.806 E44.41498
G0 F6000 X124.827 Y98.24
G1 F1200 X122.148 Y95.561 E44.54099
G0 F6000 X122.148 Y94.995
G1 F1200 X124.827 Y97.674 E44.66701
G0 F6000 X124.827 Y97.109
G1 F1200 X122.149 Y94.43 E44.79299
G0 F6000 X122.149 Y93.864
G1 F1200 X124.827 Y96.543 E44.91898
G0 F6000 X124.827 Y95.977
G1 F1200 X122.149 Y93.299 E45.04495
G0 F6000 X122.149 Y92.733
G1 F1200 X124.827 Y95.412 E45.17094
G0 F6000 X124.827 Y94.846
G1 F1200 X122.149 Y92.168 E45.2969
G0 F6000 X122.149 Y91.602
G1 F1200 X124.827 Y94.28 E45.42287
G0 F6000 X124.827 Y93.714
G1 F1200 X122.149 Y91.037 E45.54881
G0 F6000 X122.15 Y90.472
G1 F1200 X124.827 Y93.149 E45.67473
G0 F6000 X124.827 Y92.583
G1 F1200 X122.15 Y89.906 E45.80064
G0 F6000 X122.15 Y89.34
G1 F1200 X124.827 Y92.017 E45.92656
G0 F6000 X124.827 Y91.452
G1 F1200 X122.15 Y88.775 E46.05248
G0 F6000 X122.446 Y88.505
G1 F1200 X124.827 Y90.886 E46.16447
G0 F6000 X124.827 Y90.32
G1 F1200 X123.012 Y88.505 E46.24985
G0 F6000 X123.578 Y88.505
G1 F1200 X124.827 Y89.755 E46.30862
G0 F6000 X124.827 Y89.189
G1 F1200 X124.143 Y88.505 E46.34079
G0 F6000 X124.709 Y88.505
G1 F1200 X124.827 Y88.623 E46.34634
G1 F2700 E41.34634
G0 F6000 X124.827 Y88.046
G0 X125.216 Y88.118
G0 X125.216 Y126.573
G0 X118.205 Y126.925
G0 X118.205 Y128.01
G0 X117.03 Y132.135
G0 X118.153 Y146.31
;TYPE:WALL-INNER
G1 F2700 E46.34634
G1 F1200 X123.02 Y143.136 E46.5396
G1 X127.852 Y139.986 E46.73145
G1 X116.718 Y133.419 E47.16138
G1 X118.153 Y146.31 E47.59279
G0 F6000 X117.827 Y147
;TYPE:WALL-OUTER
G1 F1200 X123.238 Y143.471 E47.80765
G1 X128.61 Y139.969 E48.02094
G1 X116.232 Y132.668 E48.49891
G1 X117.827 Y147 E48.97854
G0 F6000 X118.032 Y146.565
G0 X118.188 Y145.718
G0 X118.446 Y145.689
;TYPE:SKIN
G1 F1200 X122.824 Y142.834 E49.15238
G1 X127.17 Y140.001 E49.32492
G1 X117.159 Y134.098 E49.71147
G1 X118.446 Y145.689 E50.09935
G0 F6000 X118.697 Y145.284
G1 F1200 X118.59 Y145.177 E50.10439
G0 F6000 X119.04 Y145.061
G1 F1200 X118.519 Y144.541 E50.12887
G0 F6000 X118.448 Y143.904
G1 F1200 X119.382 Y144.838 E50.1728
G0 F6000 X119.724 Y144.614
