;FLAVOR:Marlin
;TIME:561
;Filament used: 0.331193m
;Layer height: 0.2
;MINX:107.7
;MINY:97.7
;MINZ:0.2
;MAXX:127.3
;MAXY:137.3
;MAXZ:2
;Generated with Cura_SteamEngine 5.2.2
M140 S50
M105
M190 S50
M104 S200
M105
M109 S200
M82 ;absolute extrusion mode
; Ender 3 Custom Start G-code
G92 E0 ; Reset Extruder
G28 ; Home all axes
G1 Z2.0 F3000 ; Move Z Axis up little to prevent scratching of Heat Bed
G1 X0.1 Y20 Z0.3 F5000.0 ; Move to start position
G1 X0.1 Y200.0 Z0.3 F1500.0 E15 ; Draw the first line
G1 X0.4 Y200.0 Z0.3 F5000.0 ; Move to side a little
G1 X0.4 Y20 Z0.3 F1500.0 E30 ; Draw the second line
G92 E0 ; Reset Extruder
G1 Z2.0 F3000 ; Move Z Axis up little to prevent scratching of Heat Bed
G1 X5 Y20 Z0.3 F5000.0 ; Move over to prevent blob squish
G92 E0
G92 E0
G1 F2700 E-5
;LAYER_COUNT:10
;LAYER:0
M107
;MESH:LETRA E.stl
G0 F6000 X108.1 Y136.9 Z0.2
;TYPE:WALL-INNER
G1 F2700 E0
G1 F1200 X126.9 Y136.9 E0.62529
G1 X126.9 Y135.002 E0.68842
G1 X126.9 Y133.103 E0.75158
G1 X112.497 Y133.103 E1.23062
G1 X112.189 Y133.019 E1.24124
G1 X111.981 Y132.811 E1.25103
G1 X111.897 Y132.503 E1.26165
G1 X111.897 Y120.498 E1.66093
G1 X111.923 Y120.321 E1.66688
G1 X111.995 Y120.167 E1.67254
G1 X112.214 Y119.968 E1.68238
G1 X112.444 Y119.9 E1.69036
G1 X126.9 Y119.897 E2.17117
G1 X126.9 Y115.103 E2.33061
G1 X112.444 Y115.101 E2.81142
G1 X112.214 Y115.033 E2.8194
G1 X111.995 Y114.834 E2.82924
G1 X111.923 Y114.679 E2.83493
G1 X111.897 Y114.503 E2.84084
G1 X111.897 Y102.497 E3.24016
G1 X111.981 Y102.189 E3.25078
G1 X112.189 Y101.981 E3.26057
G1 X112.497 Y101.897 E3.27119
G1 X126.9 Y101.897 E3.75023
G1 X126.9 Y98.1 E3.87652
G1 X108.1 Y98.1 E4.50181
G1 X108.1 Y136.9 E5.7923
G0 F6000 X107.7 Y137.3
;TYPE:WALL-OUTER
G1 F1200 X127.3 Y137.3 E6.4442
G1 X127.3 Y135.002 E6.52063
G1 X127.3 Y132.703 E6.5971
G1 X112.454 Y132.703 E7.09088
G1 X112.355 Y132.645 E7.09469
G1 X112.299 Y132.538 E7.09871
G1 X112.297 Y120.456 E7.50056
G1 X112.42 Y120.298 E7.50722
G1 X127.3 Y120.297 E8.00213
G1 X127.3 Y114.703 E8.18819
G1 X112.479 Y114.703 E8.68114
G1 X112.329 Y114.614 E8.68694
G1 X112.299 Y114.538 E8.68966
G1 X112.297 Y102.454 E9.09157
G1 X112.355 Y102.355 E9.09539
G1 X112.462 Y102.299 E9.0994
G1 X127.3 Y102.297 E9.59292
G1 X127.3 Y97.7 E9.74581
G1 X107.7 Y97.7 E10.39771
G1 X107.7 Y137.3 E11.71481
G0 F6000 X107.97 Y137.03
G0 X108.2 Y136.54
G0 X108.46 Y136.54
;TYPE:SKIN
G1 F1200 X126.54 Y136.54 E12.31616
G1 X126.54 Y133.463 E12.4185
G1 X112.476 Y133.462 E12.88627
G1 X112.263 Y133.434 E12.89342
G1 X111.994 Y133.327 E12.90304
G1 X111.701 Y133.034 E12.91683
G1 X111.565 Y132.74 E12.9276
G1 X111.538 Y132.529 E12.93468
G1 X111.539 Y120.476 E13.33556
G1 X111.589 Y120.188 E13.34528
G1 X111.727 Y119.929 E13.35504
G1 X112.034 Y119.651 E13.36882
G1 X112.4 Y119.539 E13.38155
G1 X126.54 Y119.537 E13.85185
G1 X126.54 Y115.463 E13.98735
G1 X112.401 Y115.461 E14.45761
G1 X112.034 Y115.35 E14.47037
G1 X111.727 Y115.072 E14.48414
G1 X111.68 Y115.007 E14.48681
G1 X111.573 Y114.761 E14.49573
G1 X111.539 Y114.534 E14.50337
G1 X111.538 Y102.476 E14.90442
G1 X111.566 Y102.263 E14.91156
G1 X111.673 Y101.994 E14.92119
G1 X111.994 Y101.673 E14.93629
G1 X112.319 Y101.539 E14.94798
G1 X126.54 Y101.537 E15.42097
G1 X126.54 Y98.461 E15.52328
G1 X108.46 Y98.46 E16.12463
G1 X108.46 Y136.54 E17.39117
G0 F6000 X109.186 Y136.339
G1 F1200 X108.659 Y135.812 E17.41596
G0 F6000 X108.659 Y135.246
G1 F1200 X109.752 Y136.339 E17.46737
G0 F6000 X110.317 Y136.339
G1 F1200 X108.659 Y134.681 E17.54536
G0 F6000 X108.659 Y134.115
G1 F1200 X110.883 Y136.339 E17.64997
G0 F6000 X111.449 Y136.339
G1 F1200 X108.659 Y133.549 E17.7812
G0 F6000 X108.659 Y132.984
G1 F1200 X112.014 Y136.339 E17.93901
G0 F6000 X112.58 Y136.339
G1 F1200 X108.659 Y132.418 E18.12344
G0 F6000 X108.659 Y131.852
G1 F1200 X113.146 Y136.339 E18.3345
G0 F6000 X113.711 Y136.339
G1 F1200 X108.659 Y131.287 E18.57213
G0 F6000 X108.659 Y130.721
G1 F1200 X114.277 Y136.339 E18.83638
G0 F6000 X114.843 Y136.339
G1 F1200 X112.075 Y133.571 E18.96658
G0 F6000 X112.729 Y133.66
G1 F1200 X115.409 Y136.339 E19.09262
G0 F6000 X115.974 Y136.339
G1 F1200 X113.295 Y133.66 E19.21863
G0 F6000 X113.861 Y133.66
G1 F1200 X116.54 Y136.339 E19.34464
G0 F6000 X117.106 Y136.339
G1 F1200 X114.426 Y133.66 E19.47067
G0 F6000 X114.992 Y133.66
G1 F1200 X117.671 Y136.339 E19.59669
G0 F6000 X118.237 Y136.339
G1 F1200 X115.558 Y133.66 E19.7227
G0 F6000 X116.124 Y133.66
G1 F1200 X118.803 Y136.339 E19.84871
G0 F6000 X119.368 Y136.339
G1 F1200 X116.69 Y133.66 E19.9747
G0 F6000 X117.255 Y133.66
G1 F1200 X119.934 Y136.339 E20.10071
G0 F6000 X120.5 Y136.339
G1 F1200 X117.821 Y133.66 E20.22672
G0 F6000 X118.387 Y133.66
G1 F1200 X121.065 Y136.339 E20.35271
G0 F6000 X121.631 Y136.339
G1 F1200 X118.953 Y133.66 E20.4787
G0 F6000 X119.519 Y133.661
G1 F1200 X122.197 Y136.339 E20.60466
G0 F6000 X122.762 Y136.339
G1 F1200 X120.085 Y133.661 E20.73061
G0 F6000 X120.65 Y133.661
G1 F1200 X123.328 Y136.339 E20.85657
G0 F6000 X123.894 Y136.339
G1 F1200 X121.216 Y133.661 E20.98254
G0 F6000 X121.782 Y133.661
G1 F1200 X124.459 Y136.339 E21.10848
G0 F6000 X125.025 Y136.339
G1 F1200 X122.347 Y133.661 E21.23444
G0 F6000 X122.914 Y133.662
G1 F1200 X125.591 Y136.339 E21.36036
G0 F6000 X126.157 Y136.339
G1 F1200 X123.479 Y133.662 E21.4863
G0 F6000 X124.045 Y133.662
G1 F1200 X126.339 Y135.956 E21.5942
G0 F6000 X126.339 Y135.39
G1 F1200 X124.611 Y133.662 E21.67548
G0 F6000 X125.176 Y133.662
G1 F1200 X126.339 Y134.824 E21.73016
G0 F6000 X126.339 Y134.259
G1 F1200 X125.742 Y133.662 E21.75825
G1 F2700 E16.75825
G0 F6000 X125.742 Y133.203
G0 X112.069 Y132.931
G0 X112.069 Y120.07
G0 X125.559 Y119.797
G1 F2700 E21.75825
G0 F6000 X125.559 Y119.336
G1 F1200 X121.885 Y115.662 E21.93106
G0 F6000 X121.319 Y115.662
G1 F1200 X124.993 Y119.336 E22.10387
G0 F6000 X124.428 Y119.337
G1 F1200 X120.753 Y115.662 E22.27673
G0 F6000 X120.187 Y115.662
G1 F1200 X123.863 Y119.337 E22.44962
G0 F6000 X123.297 Y119.337
G1 F1200 X119.621 Y115.662 E22.6225
G0 F6000 X119.056 Y115.662
G1 F1200 X122.732 Y119.338 E22.79541
G0 F6000 X122.166 Y119.338
G1 F1200 X118.49 Y115.662 E22.96832
G0 F6000 X117.924 Y115.662
G1 F1200 X121.601 Y119.338 E23.14125
G0 F6000 X121.036 Y119.339
G1 F1200 X117.359 Y115.662 E23.3142
G0 F6000 X116.792 Y115.661
G1 F1200 X120.47 Y119.339 E23.48721
G0 F6000 X119.904 Y119.339
G1 F1200 X116.227 Y115.661 E23.66018
G0 F6000 X115.661 Y115.661
G1 F1200 X119.339 Y119.339 E23.83319
G0 F6000 X118.774 Y119.339
G1 F1200 X115.095 Y115.661 E24.00621
G0 F6000 X114.53 Y115.661
G1 F1200 X118.208 Y119.339 E24.17921
G0 F6000 X117.642 Y119.339
G1 F1200 X113.964 Y115.661 E24.35221
G0 F6000 X113.398 Y115.661
G1 F1200 X117.077 Y119.34 E24.52526
G0 F6000 X116.512 Y119.34
G1 F1200 X112.833 Y115.661 E24.69831
G0 F6000 X112.221 Y115.615
G1 F1200 X115.946 Y119.34 E24.87352
G0 F6000 X115.381 Y119.341
G1 F1200 X108.659 Y112.619 E25.18971
G0 F6000 X108.659 Y113.185
G1 F1200 X114.815 Y119.341 E25.47927
G0 F6000 X114.25 Y119.341
G1 F1200 X108.659 Y113.75 E25.74225
G0 F6000 X108.659 Y114.316
G1 F1200 X113.685 Y119.341 E25.97863
G0 F6000 X113.119 Y119.341
G1 F1200 X108.659 Y114.882 E26.1884
G0 F6000 X108.659 Y115.447
G1 F1200 X112.553 Y119.341 E26.37156
G0 F6000 X112.074 Y119.428
G1 F1200 X108.659 Y116.013 E26.53219
G0 F6000 X108.659 Y116.579
G1 F1200 X111.733 Y119.653 E26.67678
G0 F6000 X111.476 Y119.962
G1 F1200 X108.659 Y117.144 E26.80931
G0 F6000 X108.659 Y117.71
G1 F1200 X111.35 Y120.401 E26.93588
G0 F6000 X111.338 Y120.954
G1 F1200 X108.659 Y118.276 E27.06187
G0 F6000 X108.659 Y118.842
G1 F1200 X111.338 Y121.52 E27.18786
G0 F6000 X111.338 Y122.086
G1 F1200 X108.659 Y119.407 E27.31387
G0 F6000 X108.659 Y119.973
G1 F1200 X111.338 Y122.651 E27.43986
G0 F6000 X111.338 Y123.217
G1 F1200 X108.659 Y120.539 E27.56585
G0 F6000 X108.659 Y121.104
G1 F1200 X111.338 Y123.783 E27.69186
G0 F6000 X111.338 Y124.348
G1 F1200 X108.659 Y121.67 E27.81785
G0 F6000 X108.659 Y122.236
G1 F1200 X111.338 Y124.915 E27.94386
G0 F6000 X111.338 Y125.481
G1 F1200 X108.659 Y122.801 E28.0699
G0 F6000 X108.659 Y123.367
G1 F1200 X111.338 Y126.046 E28.19591
G0 F6000 X111.338 Y126.612
G1 F1200 X108.659 Y123.933 E28.32192
G0 F6000 X108.659 Y124.498
G1 F1200 X111.338 Y127.178 E28.44796
G0 F6000 X111.338 Y127.743
G1 F1200 X108.659 Y125.064 E28.57397
G0 F6000 X108.659 Y125.63
G1 F1200 X111.338 Y128.309 E28.69998
G0 F6000 X111.339 Y128.875
G1 F1200 X108.659 Y126.195 E28.82604
G0 F6000 X108.659 Y126.761
G1 F1200 X111.339 Y129.441 E28.9521
G0 F6000 X111.339 Y130.007
G1 F1200 X108.659 Y127.327 E29.07816
G0 F6000 X108.659 Y127.892
G1 F1200 X111.339 Y130.572 E29.20422
G0 F6000 X111.339 Y131.138
G1 F1200 X108.659 Y128.458 E29.33027
G0 F6000 X108.659 Y129.024
G1 F1200 X111.339 Y131.704 E29.45633
G0 F6000 X111.339 Y132.269
G1 F1200 X108.659 Y129.59 E29.58237
G0 F6000 X108.659 Y130.155
G1 F1200 X111.425 Y132.921 E29.71247
G1 F2700 E24.71247
G0 F6000 X111.843 Y132.741
G0 X111.991 Y119.928
G0 X126.728 Y119.725
G0 X126.728 Y115.275
G0 X111.861 Y114.923
G0 X111.815 Y114.657
G1 F2700 E29.71247
G0 F6000 X111.372 Y114.766
G1 F1200 X108.659 Y112.053 E29.84008
G0 F6000 X108.659 Y111.488
G1 F1200 X111.34 Y114.168 E29.96617
G0 F6000 X111.34 Y113.603
G1 F1200 X108.659 Y110.922 E30.09227
G0 F6000 X108.659 Y110.356
G1 F1200 X111.34 Y113.037 E30.21838
G0 F6000 X111.34 Y112.471
G1 F1200 X108.659 Y109.791 E30.34446
G0 F6000 X108.659 Y109.225
G1 F1200 X111.34 Y111.906 E30.47057
G0 F6000 X111.34 Y111.34
G1 F1200 X108.659 Y108.659 E30.59667
G0 F6000 X108.659 Y108.093
G1 F1200 X111.34 Y110.774 E30.72278
G0 F6000 X111.34 Y110.208
G1 F1200 X108.659 Y107.528 E30.84886
G0 F6000 X108.659 Y106.962
G1 F1200 X111.34 Y109.643 E30.97497
G0 F6000 X111.34 Y109.077
G1 F1200 X108.659 Y106.396 E31.10107
G0 F6000 X108.659 Y105.831
G1 F1200 X111.34 Y108.511 E31.22716
G0 F6000 X111.34 Y107.946
G1 F1200 X108.659 Y105.265 E31.35326
G0 F6000 X108.659 Y104.699
G1 F1200 X111.34 Y107.38 E31.47937
G0 F6000 X111.34 Y106.814
G1 F1200 X108.659 Y104.134 E31.60545
G0 F6000 X108.659 Y103.568
G1 F1200 X111.34 Y106.249 E31.73156
G0 F6000 X111.34 Y105.683
G1 F1200 X108.659 Y103.002 E31.85766
G0 F6000 X108.659 Y102.437
G1 F1200 X111.34 Y105.117 E31.98375
G0 F6000 X111.34 Y104.552
G1 F1200 X108.659 Y101.871 E32.10985
G0 F6000 X108.659 Y101.305
G1 F1200 X111.34 Y103.986 E32.23596
G0 F6000 X111.34 Y103.42
G1 F1200 X108.659 Y100.74 E32.36204
G0 F6000 X108.659 Y100.174
G1 F1200 X111.34 Y102.855 E32.48815
G0 F6000 X111.358 Y102.307
G1 F1200 X108.659 Y99.608 E32.6151
G0 F6000 X108.659 Y99.043
G1 F1200 X111.5 Y101.883 E32.74871
G0 F6000 X111.782 Y101.6
G1 F1200 X108.842 Y98.66 E32.887
G0 F6000 X109.408 Y98.66
G1 F1200 X112.14 Y101.392 E33.0155
G0 F6000 X112.655 Y101.341
G1 F1200 X109.974 Y98.66 E33.14161
G0 F6000 X110.539 Y98.66
G1 F1200 X113.221 Y101.341 E33.26774
G0 F6000 X113.786 Y101.341
G1 F1200 X111.105 Y98.66 E33.39384
G0 F6000 X111.671 Y98.66
G1 F1200 X114.351 Y101.341 E33.51992
G0 F6000 X114.917 Y101.341
G1 F1200 X112.236 Y98.66 E33.64603
G0 F6000 X112.802 Y98.66
G1 F1200 X115.483 Y101.341 E33.77214
G0 F6000 X116.048 Y101.34
G1 F1200 X113.368 Y98.66 E33.8982
G0 F6000 X113.933 Y98.66
G1 F1200 X116.613 Y101.34 E34.02425
G0 F6000 X117.179 Y101.34
G1 F1200 X114.499 Y98.66 E34.15031
G0 F6000 X115.065 Y98.66
G1 F1200 X117.744 Y101.339 E34.27633
G0 F6000 X118.31 Y101.339
G1 F1200 X115.631 Y98.66 E34.40234
G0 F6000 X116.196 Y98.66
G1 F1200 X118.875 Y101.339 E34.52835
G0 F6000 X119.44 Y101.339
G1 F1200 X116.762 Y98.66 E34.65434
G0 F6000 X117.328 Y98.66
G1 F1200 X120.006 Y101.339 E34.78033
G0 F6000 X120.572 Y101.339
G1 F1200 X117.893 Y98.66 E34.90634
G0 F6000 X118.459 Y98.66
G1 F1200 X121.137 Y101.338 E35.0323
G0 F6000 X121.702 Y101.338
G1 F1200 X119.025 Y98.66 E35.15824
G0 F6000 X119.59 Y98.66
G1 F1200 X122.268 Y101.338 E35.28421
G0 F6000 X122.833 Y101.337
G1 F1200 X120.156 Y98.66 E35.41013
G0 F6000 X120.722 Y98.66
G1 F1200 X123.399 Y101.337 E35.53605
G0 F6000 X123.965 Y101.337
G1 F1200 X121.287 Y98.66 E35.66199
G0 F6000 X121.853 Y98.66
G1 F1200 X124.53 Y101.337 E35.7879
G0 F6000 X125.095 Y101.336
G1 F1200 X122.419 Y98.66 E35.91378
G0 F6000 X122.984 Y98.66
G1 F1200 X125.661 Y101.336 E36.03967
G0 F6000 X126.227 Y101.336
G1 F1200 X123.55 Y98.66 E36.16556
G0 F6000 X124.116 Y98.66
G1 F1200 X126.339 Y100.883 E36.27013
G0 F6000 X126.339 Y100.317
G1 F1200 X124.682 Y98.66 E36.34807
G0 F6000 X125.247 Y98.66
G1 F1200 X126.339 Y99.752 E36.39943
G0 F6000 X126.339 Y99.186
G1 F1200 X125.813 Y98.66 E36.42417
G1 F2700 E31.42417
G0 F6000 X125.813 Y98.2
G0 X126.728 Y98.272
G0 X126.728 Y101.725
G0 X112.069 Y102.069
G0 X112.069 Y114.931
G0 X125.845 Y115.203
G1 F2700 E36.42417
G0 F6000 X125.845 Y115.662
G1 F1200 X126.338 Y116.156 E36.44739
G0 F6000 X126.338 Y116.722
G1 F1200 X125.279 Y115.662 E36.49722
G0 F6000 X124.713 Y115.662
G1 F1200 X126.338 Y117.287 E36.57366
G0 F6000 X126.338 Y117.853
G1 F1200 X124.148 Y115.662 E36.67669
G0 F6000 X123.582 Y115.662
G1 F1200 X126.338 Y118.419 E36.80635
G0 F6000 X126.338 Y118.984
G1 F1200 X123.016 Y115.662 E36.9626
G0 F6000 X122.451 Y115.662
G1 F1200 X126.125 Y119.336 E37.13542
G1 F2700 E32.13542
;MESH:NONMESH
G0 F300 X126.125 Y119.336 Z0.4
G0 F6000 X126.125 Y119.797
G0 X112.069 Y120.07
G0 X112.073 Y133.128
G0 X126.728 Y133.275
G0 X126.728 Y136.728
G0 X108.1 Y136.9
;TIME_ELAPSED:77.158731
;LAYER:1
M106 S85
;TYPE:WALL-INNER
;MESH:LETRA E.stl
G1 F2700 E37.13542
G1 F1350 X126.9 Y136.9 E37.76071
G1 X126.9 Y135.002 E37.82384
G1 X126.9 Y133.103 E37.887
G1 X112.497 Y133.103 E38.36604
G1 X112.189 Y133.019 E38.37666
G1 X111.981 Y132.811 E38.38645
G1 X111.897 Y132.503 E38.39706
G1 X111.897 Y120.498 E38.79635
G1 X111.923 Y120.321 E38.8023
G1 X111.995 Y120.167 E38.80796
G1 X112.214 Y119.968 E38.8178
G1 X112.444 Y119.9 E38.82578
G1 X126.9 Y119.897 E39.30658
G1 X126.9 Y115.103 E39.46603
G1 X112.444 Y115.101 E39.94684
G1 X112.214 Y115.033 E39.95482
G1 X111.995 Y114.834 E39.96466
G1 X111.923 Y114.679 E39.97034
G1 X111.897 Y114.503 E39.97626
G1 X111.897 Y102.497 E40.37558
G1 X111.981 Y102.189 E40.3862
G1 X112.189 Y101.981 E40.39599
G1 X112.497 Y101.897 E40.4066
G1 X126.9 Y101.897 E40.88565
G1 X126.9 Y98.1 E41.01194
G1 X108.1 Y98.1 E41.63723
G1 X108.1 Y136.9 E42.92772
G0 F7500 X107.7 Y137.3
;TYPE:WALL-OUTER
G1 F1350 X127.3 Y137.3 E43.57962
G1 X127.3 Y135.002 E43.65605
G1 X127.3 Y132.703 E43.73252
G1 X112.454 Y132.703 E44.2263
G1 X112.355 Y132.645 E44.23011
G1 X112.299 Y132.538 E44.23413
G1 X112.297 Y120.456 E44.63598
G1 X112.42 Y120.298 E44.64264
G1 X127.3 Y120.297 E45.13755
G1 X127.3 Y114.703 E45.32361
G1 X112.479 Y114.703 E45.81656
G1 X112.329 Y114.614 E45.82236
G1 X112.299 Y114.538 E45.82507
G1 X112.297 Y102.454 E46.22699
G1 X112.355 Y102.355 E46.23081
G1 X112.462 Y102.299 E46.23482
G1 X127.3 Y102.297 E46.72834
G1 X127.3 Y97.7 E46.88123
G1 X107.7 Y97.7 E47.53313
G1 X107.7 Y137.3 E48.85023
G0 F7500 X107.97 Y137.03
G0 X108.2 Y136.54
G0 X108.46 Y136.54
;TYPE:SKIN
G1 F1350 X126.54 Y136.54 E49.45158
G1 X126.54 Y135.002 E49.50273
G1 X126.54 Y133.463 E49.55392
G1 X112.476 Y133.462 E50.02169
G1 X112.263 Y133.434 E50.02883
G1 X111.994 Y133.327 E50.03846
G1 X111.701 Y133.034 E50.05224
G1 X111.565 Y132.74 E50.06302
G1 X111.538 Y132.529 E50.07009
G1 X111.539 Y120.476 E50.47098
G1 X111.589 Y120.188 E50.4807
G1 X111.727 Y119.929 E50.49046
G1 X112.034 Y119.651 E50.50424
G1 X112.4 Y119.539 E50.51697
G1 X126.54 Y119.537 E50.98727
G1 X126.54 Y115.463 E51.12277
G1 X112.401 Y115.461 E51.59303
G1 X112.034 Y115.35 E51.60578
G1 X111.696 Y115.044 E51.62095
G1 X111.573 Y114.761 E51.63121
G1 X111.539 Y114.534 E51.63885
G1 X111.538 Y102.476 E52.0399
G1 X111.566 Y102.263 E52.04704
G1 X111.673 Y101.994 E52.05667
G1 X111.994 Y101.673 E52.07177
G1 X112.319 Y101.539 E52.08346
G1 X126.54 Y101.537 E52.55646
G1 X126.54 Y98.461 E52.65876
G1 X108.46 Y98.46 E53.26011
G1 X108.46 Y136.54 E54.52665
G0 F7500 X108.2 Y136.54
G0 X126.138 Y136.8
G0 X126.138 Y136.339
G1 F1350 X126.339 Y136.138 E54.53611
G0 F7500 X126.339 Y135.572
G1 F1350 X125.572 Y136.339 E54.57218
G0 F7500 X125.007 Y136.339
G1 F1350 X126.339 Y135.007 E54.63484
G0 F7500 X126.339 Y134.441
