;FLAVOR:Marlin
;TIME:726
;Filament used: 0.403008m
;Layer height: 0.2
;MINX:107.7
;MINY:97.7
;MINZ:0.2
;MAXX:127.3
;MAXY:137.3
;MAXZ:2
;Generated with Cura_SteamEngine 5.2.2
M140 S50
M105
M190 S50
M104 S200
M105
M109 S200
M82 ;absolute extrusion mode
; Ender 3 Custom Start G-code
G92 E0 ; Reset Extruder
G28 ; Home all axes
G1 Z2.0 F3000 ; Move Z Axis up little to prevent scratching of Heat Bed
G1 X0.1 Y20 Z0.3 F5000.0 ; Move to start position
G1 X0.1 Y200.0 Z0.3 F1500.0 E15 ; Draw the first line
G1 X0.4 Y200.0 Z0.3 F5000.0 ; Move to side a little
G1 X0.4 Y20 Z0.3 F1500.0 E30 ; Draw the second line
G92 E0 ; Reset Extruder
G1 Z2.0 F3000 ; Move Z Axis up little to prevent scratching of Heat Bed
G1 X5 Y20 Z0.3 F5000.0 ; Move over to prevent blob squish
G92 E0
G92 E0
G1 F2700 E-5
;LAYER_COUNT:10
;LAYER:0
M107
;MESH:LETRA W.stl
G0 F6000 X116.103 Y136.9 Z0.2
;TYPE:WALL-INNER
G1 F2700 E0
G1 F1200 X118.897 Y136.9 E0.09293
G1 X118.897 Y103.498 E1.20388
G1 X118.927 Y103.307 E1.21031
G1 X118.997 Y103.164 E1.21561
G1 X119.137 Y103.017 E1.22236
G1 X119.423 Y102.898 E1.23266
G1 X123.503 Y102.898 E1.36837
G1 X123.826 Y102.991 E1.37955
G1 X123.962 Y103.11 E1.38556
G1 X124.065 Y103.285 E1.39231
G1 X124.104 Y103.498 E1.39951
G1 X124.104 Y136.9 E2.51047
G1 X126.9 Y136.9 E2.60346
G1 X126.9 Y100.571 E3.81177
G1 X126.9 Y98.1 E3.89396
G1 X108.101 Y98.101 E4.51921
G1 X108.1 Y136.9 E5.80967
G1 X110.897 Y136.9 E5.9027
G1 X110.897 Y103.498 E7.01366
G1 X110.935 Y103.285 E7.02085
G1 X111.038 Y103.11 E7.02761
G1 X111.315 Y102.925 E7.03869
G1 X111.497 Y102.898 E7.04481
G1 X115.502 Y102.898 E7.17801
G1 X115.697 Y102.93 E7.18458
G1 X115.862 Y103.017 E7.19079
G1 X116.002 Y103.164 E7.19754
G1 X116.072 Y103.307 E7.20284
G1 X116.103 Y103.498 E7.20927
G1 X116.103 Y136.9 E8.32023
G0 F6000 X115.703 Y137.3
;TYPE:WALL-OUTER
G1 F1200 X119.297 Y137.3 E8.43976
G1 X119.297 Y103.498 E9.56402
G1 X119.33 Y103.386 E9.56791
G1 X119.462 Y103.3 E9.57315
G1 X123.55 Y103.298 E9.70911
G1 X123.656 Y103.368 E9.71334
G1 X123.704 Y103.498 E9.71795
G1 X123.704 Y137.3 E10.84221
G1 X127.3 Y137.3 E10.96181
G1 X127.3 Y100.571 E12.18342
G1 X127.3 Y97.7 E12.27891
G1 X107.701 Y97.701 E12.93078
G1 X107.7 Y137.3 E14.24784
G1 X111.297 Y137.3 E14.36748
G1 X111.297 Y103.442 E15.4936
G1 X111.389 Y103.329 E15.49845
G1 X111.462 Y103.3 E15.50106
G1 X115.548 Y103.298 E15.63696
G1 X115.669 Y103.386 E15.64194
G1 X115.703 Y103.498 E15.64583
G1 X115.703 Y137.3 E16.77009
G0 F6000 X115.972 Y137.03
G0 X116.203 Y136.54
G0 X116.463 Y136.54
;TYPE:SKIN
G1 F1200 X118.537 Y136.54 E16.83907
G1 X118.539 Y103.467 E17.93909
G1 X118.585 Y103.198 E17.94816
G1 X118.705 Y102.953 E17.95724
G1 X118.933 Y102.715 E17.9682
G1 X119.373 Y102.54 E17.98395
G1 X123.526 Y102.54 E18.12208
G1 X123.82 Y102.592 E18.13201
G1 X123.996 Y102.674 E18.13847
G1 X124.242 Y102.875 E18.14903
G1 X124.404 Y103.156 E18.15982
G1 X124.461 Y103.463 E18.1702
G1 X124.464 Y136.54 E19.27035
G1 X126.54 Y136.54 E19.3394
G1 X126.54 Y100.571 E20.53573
G1 X126.54 Y98.461 E20.60591
G1 X108.461 Y98.461 E21.20722
G1 X108.461 Y136.54 E22.47373
G1 X110.537 Y136.54 E22.54278
G1 X110.54 Y103.463 E23.64293
G1 X110.597 Y103.156 E23.65331
G1 X110.759 Y102.876 E23.66407
G1 X110.957 Y102.704 E23.67279
G1 X111.206 Y102.583 E23.682
G1 X111.471 Y102.54 E23.69093
G1 X115.531 Y102.54 E23.82597
G1 X115.82 Y102.587 E23.83571
G1 X116.078 Y102.728 E23.84549
G1 X116.294 Y102.953 E23.85586
G1 X116.415 Y103.198 E23.86495
G1 X116.461 Y103.467 E23.87402
G1 X116.463 Y136.54 E24.97404
G1 F2700 E19.97404
G0 F6000 X116.203 Y136.54
G0 X115.93 Y103.07
G0 X111.069 Y103.07
G0 X111.057 Y136.73
G0 X109.185 Y136.8
G1 F2700 E24.97404
G0 F6000 X109.185 Y136.338
G1 F1200 X108.66 Y135.813 E24.99873
G0 F6000 X108.66 Y135.247
G1 F1200 X109.751 Y136.338 E25.05005
G0 F6000 X110.317 Y136.338
G1 F1200 X108.66 Y134.681 E25.12799
G0 F6000 X108.66 Y134.116
G1 F1200 X110.336 Y135.792 E25.20682
G0 F6000 X110.336 Y135.227
G1 F1200 X108.66 Y133.55 E25.28568
G0 F6000 X108.66 Y132.984
G1 F1200 X110.336 Y134.661 E25.36454
G0 F6000 X110.336 Y134.095
G1 F1200 X108.66 Y132.419 E25.44337
G0 F6000 X108.66 Y131.853
G1 F1200 X110.336 Y133.53 E25.52223
G0 F6000 X110.336 Y132.964
G1 F1200 X108.66 Y131.287 E25.60109
G0 F6000 X108.66 Y130.722
G1 F1200 X110.336 Y132.398 E25.67992
G0 F6000 X110.336 Y131.832
G1 F1200 X108.66 Y130.156 E25.75875
G0 F6000 X108.66 Y129.59
G1 F1200 X110.336 Y131.267 E25.83761
G0 F6000 X110.336 Y130.701
G1 F1200 X108.66 Y129.025 E25.91645
G0 F6000 X108.66 Y128.459
G1 F1200 X110.336 Y130.135 E25.99528
G0 F6000 X110.336 Y129.57
G1 F1200 X108.66 Y127.893 E26.07414
G0 F6000 X108.66 Y127.328
G1 F1200 X110.336 Y129.004 E26.15297
G0 F6000 X110.336 Y128.438
G1 F1200 X108.66 Y126.762 E26.2318
G0 F6000 X108.66 Y126.196
G1 F1200 X110.336 Y127.873 E26.31066
G0 F6000 X110.336 Y127.307
G1 F1200 X108.66 Y125.63 E26.38952
G0 F6000 X108.66 Y125.065
G1 F1200 X110.336 Y126.741 E26.46835
G0 F6000 X110.336 Y126.176
G1 F1200 X108.66 Y124.499 E26.54721
G0 F6000 X108.66 Y123.933
G1 F1200 X110.336 Y125.61 E26.62607
G0 F6000 X110.336 Y125.044
G1 F1200 X108.66 Y123.368 E26.7049
G0 F6000 X108.66 Y122.802
G1 F1200 X110.336 Y124.479 E26.78376
G0 F6000 X110.336 Y123.913
G1 F1200 X108.66 Y122.236 E26.86262
G0 F6000 X108.66 Y121.671
G1 F1200 X110.336 Y123.347 E26.94145
G0 F6000 X110.336 Y122.782
G1 F1200 X108.66 Y121.105 E27.02031
G0 F6000 X108.66 Y120.539
G1 F1200 X110.336 Y122.216 E27.09917
G0 F6000 X110.336 Y121.65
G1 F1200 X108.66 Y119.974 E27.178
G0 F6000 X108.66 Y119.408
G1 F1200 X110.336 Y121.084 E27.25683
G0 F6000 X110.336 Y120.519
G1 F1200 X108.66 Y118.842 E27.33569
G0 F6000 X108.66 Y118.277
G1 F1200 X110.336 Y119.953 E27.41452
G0 F6000 X110.336 Y119.387
G1 F1200 X108.66 Y117.711 E27.49336
G0 F6000 X108.66 Y117.145
G1 F1200 X110.336 Y118.822 E27.57222
G0 F6000 X110.336 Y118.256
G1 F1200 X108.66 Y116.579 E27.65107
G0 F6000 X108.66 Y116.014
G1 F1200 X110.336 Y117.69 E27.72991
G0 F6000 X110.336 Y117.125
G1 F1200 X108.66 Y115.448 E27.80876
G0 F6000 X108.66 Y114.882
G1 F1200 X110.336 Y116.559 E27.88762
G0 F6000 X110.336 Y115.993
G1 F1200 X108.66 Y114.317 E27.96646
G0 F6000 X108.66 Y113.751
G1 F1200 X110.336 Y115.428 E28.04531
G0 F6000 X110.336 Y114.862
G1 F1200 X108.66 Y113.185 E28.12417
G0 F6000 X108.66 Y112.62
G1 F1200 X110.336 Y114.296 E28.203
G0 F6000 X110.336 Y113.731
G1 F1200 X108.66 Y112.054 E28.28186
G0 F6000 X108.66 Y111.488
G1 F1200 X110.336 Y113.165 E28.36072
G0 F6000 X110.336 Y112.599
G1 F1200 X108.66 Y110.923 E28.43955
G0 F6000 X108.66 Y110.357
G1 F1200 X110.336 Y112.033 E28.51839
G0 F6000 X110.336 Y111.468
G1 F1200 X108.66 Y109.791 E28.59725
G0 F6000 X108.66 Y109.226
G1 F1200 X110.336 Y110.902 E28.67608
G0 F6000 X110.336 Y110.336
G1 F1200 X108.66 Y108.66 E28.75491
G0 F6000 X108.66 Y108.094
G1 F1200 X110.336 Y109.771 E28.83377
G0 F6000 X110.336 Y109.205
G1 F1200 X108.66 Y107.529 E28.9126
G0 F6000 X108.66 Y106.963
G1 F1200 X110.336 Y108.639 E28.99144
G0 F6000 X110.336 Y108.074
G1 F1200 X108.66 Y106.397 E29.0703
G0 F6000 X108.66 Y105.831
G1 F1200 X110.336 Y107.508 E29.14915
G0 F6000 X110.336 Y106.942
G1 F1200 X108.66 Y105.266 E29.22799
G0 F6000 X108.66 Y104.7
G1 F1200 X110.336 Y106.377 E29.30684
G0 F6000 X110.336 Y105.811
G1 F1200 X108.66 Y104.134 E29.3857
G0 F6000 X108.66 Y103.569
G1 F1200 X110.336 Y105.245 E29.46454
G0 F6000 X110.336 Y104.68
G1 F1200 X108.66 Y103.003 E29.54339
G0 F6000 X108.66 Y102.437
G1 F1200 X110.336 Y104.114 E29.62225
G0 F6000 X110.336 Y103.548
G1 F1200 X108.66 Y101.872 E29.70108
G0 F6000 X108.66 Y101.306
G1 F1200 X110.418 Y103.065 E29.7838
G0 F6000 X110.635 Y102.715
G1 F1200 X108.66 Y100.74 E29.8767
G0 F6000 X108.66 Y100.175
G1 F1200 X110.959 Y102.473 E29.98481
G0 F6000 X111.399 Y102.348
G1 F1200 X108.66 Y99.609 E30.11365
G0 F6000 X108.66 Y99.043
G1 F1200 X111.959 Y102.342 E30.26882
G0 F6000 X112.524 Y102.342
G1 F1200 X108.842 Y98.66 E30.44201
G0 F6000 X109.408 Y98.66
G1 F1200 X113.09 Y102.342 E30.6152
G0 F6000 X113.656 Y102.342
G1 F1200 X109.974 Y98.66 E30.78839
G0 F6000 X110.539 Y98.66
G1 F1200 X114.221 Y102.342 E30.96158
G0 F6000 X114.787 Y102.342
G1 F1200 X111.105 Y98.66 E31.13477
G0 F6000 X111.671 Y98.66
G1 F1200 X115.353 Y102.342 E31.30796
G0 F6000 X116.085 Y102.508
G1 F1200 X112.236 Y98.66 E31.48898
G0 F6000 X112.802 Y98.66
G1 F1200 X118.336 Y104.194 E31.74928
G0 F6000 X118.336 Y104.759
G1 F1200 X116.507 Y102.931 E31.83529
G0 F6000 X116.662 Y103.651
G1 F1200 X118.336 Y105.325 E31.91403
G0 F6000 X118.336 Y105.891
G1 F1200 X116.662 Y104.216 E31.99279
G0 F6000 X116.662 Y104.782
G1 F1200 X118.336 Y106.457 E32.07156
G0 F6000 X118.336 Y107.022
G1 F1200 X116.662 Y105.348 E32.1503
G0 F6000 X116.662 Y105.913
G1 F1200 X118.336 Y107.588 E32.22906
G0 F6000 X118.336 Y108.154
G1 F1200 X116.662 Y106.479 E32.30782
G0 F6000 X116.662 Y107.045
G1 F1200 X118.336 Y108.719 E32.38656
G0 F6000 X118.336 Y109.285
G1 F1200 X116.662 Y107.611 E32.4653
G0 F6000 X116.662 Y108.176
G1 F1200 X118.336 Y109.851 E32.54407
G0 F6000 X118.336 Y110.416
G1 F1200 X116.662 Y108.742 E32.62281
G0 F6000 X116.662 Y109.308
G1 F1200 X118.336 Y110.982 E32.70155
G0 F6000 X118.336 Y111.548
G1 F1200 X116.662 Y109.873 E32.78031
G0 F6000 X116.662 Y110.439
G1 F1200 X118.336 Y112.113 E32.85905
G0 F6000 X118.336 Y112.679
G1 F1200 X116.662 Y111.005 E32.93779
G0 F6000 X116.662 Y111.57
G1 F1200 X118.336 Y113.245 E33.01655
G0 F6000 X118.336 Y113.81
G1 F1200 X116.662 Y112.136 E33.09529
G0 F6000 X116.662 Y112.702
G1 F1200 X118.336 Y114.376 E33.17403
G0 F6000 X118.336 Y114.942
G1 F1200 X116.662 Y113.267 E33.2528
G0 F6000 X116.662 Y113.833
G1 F1200 X118.336 Y115.508 E33.33156
G0 F6000 X118.336 Y116.073
G1 F1200 X116.662 Y114.399 E33.4103
G0 F6000 X116.662 Y114.964
G1 F1200 X118.336 Y116.639 E33.48906
G0 F6000 X118.336 Y117.205
G1 F1200 X116.662 Y115.53 E33.56783
G0 F6000 X116.662 Y116.096
G1 F1200 X118.336 Y117.77 E33.64657
G0 F6000 X118.336 Y118.336
G1 F1200 X116.662 Y116.662 E33.72531
G0 F6000 X116.662 Y117.227
G1 F1200 X118.336 Y118.902 E33.80407
G0 F6000 X118.336 Y119.467
G1 F1200 X116.662 Y117.793 E33.88281
G0 F6000 X116.662 Y118.359
G1 F1200 X118.336 Y120.033 E33.96155
G0 F6000 X118.336 Y120.599
G1 F1200 X116.662 Y118.924 E34.04031
G0 F6000 X116.662 Y119.49
G1 F1200 X118.336 Y121.164 E34.11905
G0 F6000 X118.336 Y121.73
G1 F1200 X116.662 Y120.056 E34.19779
G0 F6000 X116.662 Y120.622
G1 F1200 X118.336 Y122.296 E34.27653
G0 F6000 X118.336 Y122.861
G1 F1200 X116.662 Y121.188 E34.35525
G0 F6000 X116.662 Y121.753
G1 F1200 X118.336 Y123.427 E34.43399
G0 F6000 X118.336 Y123.993
G1 F1200 X116.662 Y122.319 E34.51273
G0 F6000 X116.662 Y122.885
G1 F1200 X118.336 Y124.558 E34.59144
G0 F6000 X118.336 Y125.124
G1 F1200 X116.662 Y123.45 E34.67018
G0 F6000 X116.662 Y124.016
G1 F1200 X118.336 Y125.69 E34.74892
G0 F6000 X118.336 Y126.256
G1 F1200 X116.662 Y124.582 E34.82766
G0 F6000 X116.662 Y125.148
G1 F1200 X118.336 Y126.821 E34.90638
G0 F6000 X118.336 Y127.387
G1 F1200 X116.662 Y125.713 E34.98512
G0 F6000 X116.662 Y126.279
G1 F1200 X118.336 Y127.953 E35.06386
G0 F6000 X118.336 Y128.518
G1 F1200 X116.662 Y126.845 E35.14258
G0 F6000 X116.662 Y127.41
G1 F1200 X118.336 Y129.084 E35.22132
G0 F6000 X118.336 Y129.65
G1 F1200 X116.662 Y127.976 E35.30006
G0 F6000 X116.662 Y128.542
G1 F1200 X118.336 Y130.215 E35.37877
G0 F6000 X118.336 Y130.781
G1 F1200 X116.662 Y129.107 E35.45751
G0 F6000 X116.662 Y129.673
G1 F1200 X118.336 Y131.347 E35.53625
G0 F6000 X118.336 Y131.912
G1 F1200 X116.662 Y130.239 E35.61497
G0 F6000 X116.662 Y130.804
G1 F1200 X118.336 Y132.478 E35.69371
G0 F6000 X118.336 Y133.044
G1 F1200 X116.662 Y131.37 E35.77245
G0 F6000 X116.662 Y131.936
G1 F1200 X118.336 Y133.609 E35.85116
G0 F6000 X118.336 Y134.175
G1 F1200 X116.662 Y132.501 E35.9299
G0 F6000 X116.662 Y133.067
G1 F1200 X118.336 Y134.741 E36.00864
G0 F6000 X118.336 Y135.307
G1 F1200 X116.662 Y133.633 E36.08738
G0 F6000 X116.662 Y134.198
G1 F1200 X118.336 Y135.872 E36.16612
G0 F6000 X118.237 Y136.339
G1 F1200 X116.662 Y134.764 E36.24021
G0 F6000 X116.662 Y135.33
G1 F1200 X117.671 Y136.339 E36.28767
G0 F6000 X117.106 Y136.339
G1 F1200 X116.662 Y135.896 E36.30853
G1 F2700 E31.30853
G0 F6000 X116.203 Y135.896
G0 X116.275 Y136.728
G0 X118.725 Y136.728
G0 X119.069 Y103.07
G0 X123.931 Y103.07
G0 X124.204 Y135.976
G1 F2700 E36.30853
G0 F6000 X124.662 Y135.976
G1 F1200 X125.025 Y136.339 E36.3256
G0 F6000 X125.591 Y136.339
G1 F1200 X124.662 Y135.41 E36.3693
G0 F6000 X124.662 Y134.845
G1 F1200 X126.157 Y136.339 E36.4396
G0 F6000 X126.339 Y135.956
G1 F1200 X124.662 Y134.279 E36.51848
G0 F6000 X124.662 Y133.713
G1 F1200 X126.339 Y135.39 E36.59736
G0 F6000 X126.339 Y134.824
G1 F1200 X124.662 Y133.148 E36.67621
G0 F6000 X124.662 Y132.582
G1 F1200 X126.339 Y134.259 E36.7551
G0 F6000 X126.339 Y133.693
G1 F1200 X124.662 Y132.016 E36.83398
G0 F6000 X124.662 Y131.451
G1 F1200 X126.339 Y133.127 E36.91283
G0 F6000 X126.339 Y132.562
G1 F1200 X124.662 Y130.885 E36.99172
G0 F6000 X124.662 Y130.319
G1 F1200 X126.339 Y131.996 E37.0706
G0 F6000 X126.339 Y131.43
G1 F1200 X124.662 Y129.754 E37.14945
G0 F6000 X124.662 Y129.188
G1 F1200 X126.339 Y130.864 E37.22831
G0 F6000 X126.339 Y130.299
G1 F1200 X124.662 Y128.622 E37.30719
G0 F6000 X124.662 Y128.057
G1 F1200 X126.339 Y129.733 E37.38605
G0 F6000 X126.339 Y129.167
G1 F1200 X124.662 Y127.491 E37.46491
G0 F6000 X124.662 Y126.925
G1 F1200 X126.339 Y128.602 E37.54379
G0 F6000 X126.339 Y128.036
G1 F1200 X124.662 Y126.359 E37.62267
G0 F6000 X124.662 Y125.794
G1 F1200 X126.339 Y127.47 E37.70153
G0 F6000 X126.339 Y126.905
G1 F1200 X124.662 Y125.228 E37.78041
G0 F6000 X124.662 Y124.662
G1 F1200 X126.339 Y126.339 E37.85929
G0 F6000 X126.339 Y125.773
G1 F1200 X124.662 Y124.097 E37.93815
G0 F6000 X124.662 Y123.531
G1 F1200 X126.339 Y125.208 E38.01703
G0 F6000 X126.339 Y124.642
G1 F1200 X124.662 Y122.965 E38.09591
G0 F6000 X124.662 Y122.4
G1 F1200 X126.339 Y124.076 E38.17476
G0 F6000 X126.339 Y123.511
G1 F1200 X124.662 Y121.834 E38.25365
G0 F6000 X124.662 Y121.268
G1 F1200 X126.339 Y122.945 E38.33253
G0 F6000 X126.339 Y122.379
G1 F1200 X124.662 Y120.703 E38.41138
G0 F6000 X124.662 Y120.137
G1 F1200 X126.339 Y121.813 E38.49024
G0 F6000 X126.339 Y121.248
G1 F1200 X124.662 Y119.571 E38.56912
G0 F6000 X124.662 Y119.006
G1 F1200 X126.339 Y120.682 E38.64798
G0 F6000 X126.339 Y120.116
G1 F1200 X124.662 Y118.44 E38.72684
G0 F6000 X124.662 Y117.874
G1 F1200 X126.339 Y119.551 E38.80572
G0 F6000 X126.339 Y118.985
G1 F1200 X124.662 Y117.309 E38.88458
G0 F6000 X124.662 Y116.743
G1 F1200 X126.339 Y118.419 E38.96343
G0 F6000 X126.339 Y117.854
G1 F1200 X124.662 Y116.177 E39.04231
G0 F6000 X124.662 Y115.611
G1 F1200 X126.339 Y117.288 E39.12119
G0 F6000 X126.339 Y116.722
G1 F1200 X124.662 Y115.046 E39.20005
G0 F6000 X124.662 Y114.48
G1 F1200 X126.339 Y116.157 E39.27893
G0 F6000 X126.339 Y115.591
G1 F1200 X124.662 Y113.914 E39.35781
G0 F6000 X124.662 Y113.349
G1 F1200 X126.339 Y115.025 E39.43667
G0 F6000 X126.339 Y114.46
G1 F1200 X124.662 Y112.783 E39.51555
G0 F6000 X124.662 Y112.217
G1 F1200 X126.339 Y113.894 E39.59443
G0 F6000 X126.339 Y113.328
G1 F1200 X124.662 Y111.652 E39.67329
G0 F6000 X124.662 Y111.086
G1 F1200 X126.339 Y112.763 E39.75217
G0 F6000 X126.339 Y112.197
G1 F1200 X124.662 Y110.52 E39.83105
G0 F6000 X124.662 Y109.955
G1 F1200 X126.339 Y111.631 E39.90991
G0 F6000 X126.339 Y111.065
G1 F1200 X124.662 Y109.389 E39.98877
G0 F6000 X124.662 Y108.823
G1 F1200 X126.339 Y110.5 E40.06765
G0 F6000 X126.339 Y109.934
G1 F1200 X124.662 Y108.258 E40.14651
G0 F6000 X124.662 Y107.692
G1 F1200 X126.339 Y109.368 E40.22536
G0 F6000 X126.339 Y108.803
G1 F1200 X124.662 Y107.126 E40.30424
G0 F6000 X124.662 Y106.56
G1 F1200 X126.339 Y108.237 E40.38313
G0 F6000 X126.339 Y107.671
G1 F1200 X124.662 Y105.995 E40.46198
G0 F6000 X124.662 Y105.429
G1 F1200 X126.339 Y107.106 E40.54086
G0 F6000 X126.339 Y106.54
G1 F1200 X124.662 Y104.863 E40.61974
G0 F6000 X124.662 Y104.298
G1 F1200 X126.339 Y105.974 E40.6986
G0 F6000 X126.339 Y105.409
G1 F1200 X124.662 Y103.732 E40.77748
G0 F6000 X124.596 Y103.1
G1 F1200 X126.339 Y104.843 E40.85947
G0 F6000 X126.339 Y104.277
G1 F1200 X120.722 Y98.66 E41.12367
