;FLAVOR:Marlin
;TIME:721
;Filament used: 0.40278m
;Layer height: 0.2
;MINX:107.7
;MINY:97.7
;MINZ:0.2
;MAXX:127.3
;MAXY:137.3
;MAXZ:2
;Generated with Cura_SteamEngine 5.2.2
M140 S50
M105
M190 S50
M104 S200
M105
M109 S200
M82 ;absolute extrusion mode
; Ender 3 Custom Start G-code
G92 E0 ; Reset Extruder
G28 ; Home all axes
G1 Z2.0 F3000 ; Move Z Axis up little to prevent scratching of Heat Bed
G1 X0.1 Y20 Z0.3 F5000.0 ; Move to start position
G1 X0.1 Y200.0 Z0.3 F1500.0 E15 ; Draw the first line
G1 X0.4 Y200.0 Z0.3 F5000.0 ; Move to side a little
G1 X0.4 Y20 Z0.3 F1500.0 E30 ; Draw the second line
G92 E0 ; Reset Extruder
G1 Z2.0 F3000 ; Move Z Axis up little to prevent scratching of Heat Bed
G1 X5 Y20 Z0.3 F5000.0 ; Move over to prevent blob squish
G92 E0
G92 E0
G1 F2700 E-5
;LAYER_COUNT:10
;LAYER:0
M107
;MESH:LETRA M.stl
G0 F6000 X108.1 Y136.9 Z0.2
;TYPE:WALL-INNER
G1 F2700 E0
G1 F1200 X126.9 Y136.9 E0.62529
G1 X126.9 Y99.499 E1.86925
G1 X126.9 Y98.101 E1.91575
G1 X124.104 Y98.101 E2.00875
G1 X124.104 Y131.574 E3.12206
G1 X123.962 Y131.891 E3.13362
G1 X123.685 Y132.076 E3.14469
G1 X123.503 Y132.103 E3.15081
G1 X119.497 Y132.103 E3.28405
G1 X119.302 Y132.071 E3.29063
G1 X119.137 Y131.984 E3.29683
G1 X118.997 Y131.837 E3.30358
G1 X118.899 Y131.556 E3.31348
G1 X118.897 Y98.1 E4.42623
G1 X116.103 Y98.1 E4.51916
G1 X116.1 Y131.556 E5.63191
G1 X116.002 Y131.837 E5.64181
G1 X115.862 Y131.984 E5.64856
G1 X115.576 Y132.103 E5.65886
G1 X111.497 Y132.103 E5.79453
G1 X111.315 Y132.076 E5.80065
G1 X111.038 Y131.891 E5.81173
G1 X110.897 Y131.578 E5.82315
G1 X110.897 Y98.101 E6.9366
G1 X108.101 Y98.101 E7.02959
G1 X108.1 Y136.9 E8.32005
G0 F6000 X107.7 Y137.3
;TYPE:WALL-OUTER
G1 F1200 X127.3 Y137.3 E8.97195
G1 X127.3 Y99.499 E10.22922
G1 X127.3 Y97.701 E10.28902
G1 X123.704 Y97.701 E10.40862
G1 X123.701 Y131.538 E11.53405
G1 X123.656 Y131.633 E11.53754
G1 X123.538 Y131.701 E11.54207
G1 X119.451 Y131.703 E11.67801
G1 X119.33 Y131.615 E11.68298
G1 X119.297 Y131.521 E11.6863
G1 X119.297 Y97.7 E12.81119
G1 X115.703 Y97.7 E12.93072
G1 X115.702 Y131.521 E14.05562
G1 X115.669 Y131.615 E14.05893
G1 X115.537 Y131.701 E14.06417
G1 X111.45 Y131.703 E14.2001
G1 X111.344 Y131.633 E14.20433
G1 X111.299 Y131.538 E14.20782
G1 X111.297 Y97.701 E15.33325
G1 X107.701 Y97.701 E15.45285
G1 X107.7 Y137.3 E16.76992
G0 F6000 X107.97 Y137.03
G0 X108.2 Y136.54
G0 X108.46 Y136.54
;TYPE:SKIN
G1 F1200 X126.54 Y136.54 E17.37126
G1 X126.54 Y99.499 E18.60325
G1 X126.54 Y98.461 E18.63778
G1 X124.464 Y98.461 E18.70682
G1 X124.462 Y131.625 E19.80986
G1 X124.388 Y131.873 E19.81847
G1 X124.26 Y132.095 E19.82699
G1 X124.042 Y132.297 E19.83688
G1 X123.794 Y132.418 E19.84606
G1 X123.529 Y132.461 E19.85499
G1 X119.468 Y132.461 E19.99006
G1 X119.179 Y132.414 E19.99979
G1 X118.921 Y132.273 E20.00957
G1 X118.7 Y132.039 E20.02028
G1 X118.539 Y131.604 E20.03571
G1 X118.537 Y98.46 E21.13808
G1 X116.463 Y98.46 E21.20706
G1 X116.459 Y131.605 E22.30947
G1 X116.299 Y132.039 E22.32485
G1 X116.066 Y132.286 E22.33615
G1 X115.626 Y132.461 E22.3519
G1 X111.474 Y132.461 E22.48999
G1 X111.18 Y132.409 E22.49992
G1 X111.004 Y132.327 E22.50638
G1 X110.758 Y132.126 E22.51695
G1 X110.613 Y131.874 E22.52662
G1 X110.539 Y131.627 E22.53519
G1 X110.537 Y98.461 E23.6383
G1 X108.461 Y98.461 E23.70735
G1 X108.46 Y136.54 E24.97386
G0 F6000 X109.186 Y136.339
G1 F1200 X108.66 Y135.813 E24.9986
G0 F6000 X108.66 Y135.247
G1 F1200 X109.752 Y136.339 E25.04996
G0 F6000 X110.317 Y136.339
G1 F1200 X108.66 Y134.681 E25.12793
G0 F6000 X108.66 Y134.116
G1 F1200 X110.883 Y136.339 E25.23249
G0 F6000 X111.449 Y136.339
G1 F1200 X108.66 Y133.55 E25.36368
G0 F6000 X108.66 Y132.984
G1 F1200 X112.014 Y136.339 E25.52146
G0 F6000 X112.58 Y136.339
G1 F1200 X108.66 Y132.419 E25.70585
G0 F6000 X108.66 Y131.853
G1 F1200 X113.146 Y136.339 E25.91685
G0 F6000 X113.711 Y136.339
G1 F1200 X108.66 Y131.287 E26.15446
G0 F6000 X108.66 Y130.722
G1 F1200 X114.277 Y136.339 E26.41867
G0 F6000 X114.843 Y136.339
G1 F1200 X111.087 Y132.583 E26.59534
G0 F6000 X111.727 Y132.658
G1 F1200 X115.409 Y136.339 E26.76851
G0 F6000 X115.974 Y136.339
G1 F1200 X112.293 Y132.658 E26.94165
G0 F6000 X112.859 Y132.658
G1 F1200 X116.54 Y136.339 E27.11479
G0 F6000 X117.106 Y136.339
G1 F1200 X113.424 Y132.658 E27.28796
G0 F6000 X113.99 Y132.658
G1 F1200 X117.671 Y136.339 E27.4611
G0 F6000 X118.237 Y136.339
G1 F1200 X114.556 Y132.658 E27.63424
G0 F6000 X115.121 Y132.658
G1 F1200 X118.803 Y136.339 E27.80741
G0 F6000 X119.368 Y136.339
G1 F1200 X115.686 Y132.657 E27.9806
G0 F6000 X116.087 Y132.492
G1 F1200 X119.934 Y136.339 E28.16155
G0 F6000 X120.5 Y136.339
G1 F1200 X116.393 Y132.232 E28.35473
G0 F6000 X116.581 Y131.854
G1 F1200 X121.065 Y136.339 E28.56567
G0 F6000 X121.631 Y136.339
G1 F1200 X116.657 Y131.365 E28.79963
G0 F6000 X116.657 Y130.799
G1 F1200 X122.197 Y136.339 E29.06022
G0 F6000 X122.762 Y136.339
G1 F1200 X118.925 Y132.501 E29.24072
G0 F6000 X118.492 Y132.069
G1 F1200 X116.657 Y130.234 E29.32703
G0 F6000 X116.657 Y129.668
G1 F1200 X118.339 Y131.35 E29.40615
G0 F6000 X118.339 Y130.785
G1 F1200 X116.657 Y129.102 E29.48529
G0 F6000 X116.657 Y128.537
G1 F1200 X118.339 Y130.219 E29.5644
G0 F6000 X118.339 Y129.653
G1 F1200 X116.657 Y127.971 E29.64352
G0 F6000 X116.657 Y127.405
G1 F1200 X118.339 Y129.087 E29.72264
G0 F6000 X118.339 Y128.522
G1 F1200 X116.658 Y126.84 E29.80173
G0 F6000 X116.658 Y126.275
G1 F1200 X118.339 Y127.956 E29.8808
G0 F6000 X118.339 Y127.39
G1 F1200 X116.658 Y125.709 E29.95987
G0 F6000 X116.658 Y125.143
G1 F1200 X118.339 Y126.825 E30.03896
G0 F6000 X118.339 Y126.259
G1 F1200 X116.658 Y124.578 E30.11803
G0 F6000 X116.658 Y124.012
G1 F1200 X118.339 Y125.693 E30.1971
G0 F6000 X118.339 Y125.128
G1 F1200 X116.658 Y123.446 E30.27619
G0 F6000 X116.658 Y122.881
G1 F1200 X118.339 Y124.561 E30.35524
G0 F6000 X118.339 Y123.996
G1 F1200 X116.658 Y122.315 E30.43431
G0 F6000 X116.659 Y121.75
G1 F1200 X118.339 Y123.43 E30.51333
G0 F6000 X118.339 Y122.864
G1 F1200 X116.659 Y121.184 E30.59235
G0 F6000 X116.659 Y120.618
G1 F1200 X118.339 Y122.299 E30.6714
G0 F6000 X118.339 Y121.733
G1 F1200 X116.659 Y120.053 E30.75042
G0 F6000 X116.659 Y119.487
G1 F1200 X118.339 Y121.167 E30.82944
G0 F6000 X118.339 Y120.602
G1 F1200 X116.659 Y118.921 E30.90848
G0 F6000 X116.659 Y118.356
G1 F1200 X118.339 Y120.036 E30.98751
G0 F6000 X118.339 Y119.47
G1 F1200 X116.659 Y117.79 E31.06653
G0 F6000 X116.659 Y117.225
G1 F1200 X118.339 Y118.904 E31.14553
G0 F6000 X118.338 Y118.338
G1 F1200 X116.659 Y116.659 E31.2245
G0 F6000 X116.659 Y116.094
G1 F1200 X118.338 Y117.772 E31.30345
G0 F6000 X118.338 Y117.207
G1 F1200 X116.659 Y115.528 E31.38243
G0 F6000 X116.659 Y114.962
G1 F1200 X118.338 Y116.641 E31.4614
G0 F6000 X118.338 Y116.075
G1 F1200 X116.659 Y114.397 E31.54036
G0 F6000 X116.659 Y113.831
G1 F1200 X118.338 Y115.51 E31.61933
G0 F6000 X118.338 Y114.944
G1 F1200 X116.659 Y113.265 E31.69831
G0 F6000 X116.66 Y112.7
G1 F1200 X118.338 Y114.378 E31.77723
G0 F6000 X118.338 Y113.813
G1 F1200 X116.66 Y112.135 E31.85616
G0 F6000 X116.66 Y111.569
G1 F1200 X118.338 Y113.247 E31.93509
G0 F6000 X118.338 Y112.681
G1 F1200 X116.66 Y111.003 E32.01402
G0 F6000 X116.66 Y110.438
G1 F1200 X118.338 Y112.116 E32.09295
G0 F6000 X118.337 Y111.549
G1 F1200 X116.66 Y109.872 E32.17183
G0 F6000 X116.66 Y109.306
G1 F1200 X118.337 Y110.983 E32.25071
G0 F6000 X118.337 Y110.418
G1 F1200 X116.66 Y108.741 E32.32959
G0 F6000 X116.66 Y108.175
G1 F1200 X118.337 Y109.852 E32.40847
G0 F6000 X118.337 Y109.286
G1 F1200 X116.661 Y107.61 E32.4873
G0 F6000 X116.661 Y107.044
G1 F1200 X118.337 Y108.721 E32.56616
G0 F6000 X118.337 Y108.155
G1 F1200 X116.661 Y106.478 E32.64502
G0 F6000 X116.661 Y105.913
G1 F1200 X118.337 Y107.589 E32.72385
G0 F6000 X118.337 Y107.024
G1 F1200 X116.661 Y105.347 E32.80271
G0 F6000 X116.661 Y104.781
G1 F1200 X118.337 Y106.458 E32.88157
G0 F6000 X118.337 Y105.892
G1 F1200 X116.661 Y104.216 E32.9604
G0 F6000 X116.661 Y103.65
G1 F1200 X118.337 Y105.327 E33.03926
G0 F6000 X118.337 Y104.76
G1 F1200 X116.662 Y103.085 E33.11804
G0 F6000 X116.662 Y102.519
G1 F1200 X118.337 Y104.195 E33.19686
G0 F6000 X118.337 Y103.629
G1 F1200 X116.662 Y101.954 E33.27564
G0 F6000 X116.662 Y101.388
G1 F1200 X118.337 Y103.063 E33.35443
G0 F6000 X118.337 Y102.497
G1 F1200 X116.662 Y100.822 E33.43322
G0 F6000 X116.662 Y100.257
G1 F1200 X118.337 Y101.932 E33.512
G0 F6000 X118.337 Y101.366
G1 F1200 X116.662 Y99.691 E33.59079
G0 F6000 X116.662 Y99.125
G1 F1200 X118.337 Y100.8 E33.66958
G0 F6000 X118.337 Y100.235
G1 F1200 X116.762 Y98.66 E33.74366
G0 F6000 X117.328 Y98.66
G1 F1200 X118.337 Y99.669 E33.79112
G0 F6000 X118.337 Y99.103
G1 F1200 X117.893 Y98.66 E33.81198
G1 F2700 E28.81198
G0 F6000 X117.893 Y98.2
G0 X119.056 Y98.199
G0 X119.069 Y131.931
G0 X123.931 Y131.931
G0 X123.943 Y98.2
G0 X124.682 Y98.201
G1 F2700 E33.81198
G0 F6000 X124.682 Y98.661
G1 F1200 X126.339 Y100.317 E33.8899
G0 F6000 X126.339 Y99.752
G1 F1200 X125.248 Y98.661 E33.94121
G0 F6000 X125.814 Y98.661
G1 F1200 X126.339 Y99.186 E33.96591
G0 F6000 X126.8 Y99.186
G0 X126.728 Y98.273
G0 X124.276 Y98.273
G0 X124.204 Y99.206
G0 X124.662 Y99.206
G1 F1200 X126.339 Y100.883 E34.04479
G0 F6000 X126.339 Y101.449
G1 F1200 X124.662 Y99.772 E34.12367
G0 F6000 X124.662 Y100.337
G1 F1200 X126.339 Y102.015 E34.20258
G0 F6000 X126.339 Y102.58
G1 F1200 X124.662 Y100.903 E34.28146
G0 F6000 X124.662 Y101.469
G1 F1200 X126.339 Y103.146 E34.36034
G0 F6000 X126.339 Y103.712
G1 F1200 X124.662 Y102.034 E34.43924
G0 F6000 X124.662 Y102.6
G1 F1200 X126.339 Y104.277 E34.51812
G0 F6000 X126.339 Y104.843
G1 F1200 X124.662 Y103.166 E34.597
G0 F6000 X124.662 Y103.731
G1 F1200 X126.339 Y105.409 E34.67591
G0 F6000 X126.339 Y105.974
G1 F1200 X124.662 Y104.297 E34.75479
G0 F6000 X124.662 Y104.863
G1 F1200 X126.339 Y106.54 E34.83367
G0 F6000 X126.339 Y107.106
G1 F1200 X124.661 Y105.428 E34.9126
G0 F6000 X124.661 Y105.993
G1 F1200 X126.339 Y107.671 E34.99153
G0 F6000 X126.339 Y108.237
G1 F1200 X124.661 Y106.559 E35.07045
G0 F6000 X124.661 Y107.125
G1 F1200 X126.339 Y108.803 E35.14938
G0 F6000 X126.339 Y109.368
G1 F1200 X124.661 Y107.69 E35.22831
G0 F6000 X124.661 Y108.256
G1 F1200 X126.339 Y109.934 E35.30724
G0 F6000 X126.339 Y110.5
G1 F1200 X124.661 Y108.822 E35.38617
G0 F6000 X124.661 Y109.388
G1 F1200 X126.339 Y111.065 E35.46507
G0 F6000 X126.339 Y111.631
G1 F1200 X124.661 Y109.953 E35.544
G0 F6000 X124.661 Y110.519
G1 F1200 X126.339 Y112.197 E35.62293
G0 F6000 X126.339 Y112.763
G1 F1200 X124.661 Y111.085 E35.70185
G0 F6000 X124.661 Y111.65
G1 F1200 X126.339 Y113.328 E35.78078
G0 F6000 X126.339 Y113.894
G1 F1200 X124.66 Y112.215 E35.85976
G0 F6000 X124.66 Y112.781
G1 F1200 X126.339 Y114.46 E35.93873
G0 F6000 X126.339 Y115.025
G1 F1200 X124.66 Y113.347 E36.01768
G0 F6000 X124.66 Y113.912
G1 F1200 X126.339 Y115.591 E36.09666
G0 F6000 X126.339 Y116.157
G1 F1200 X124.66 Y114.478 E36.17563
G0 F6000 X124.66 Y115.044
G1 F1200 X126.339 Y116.722 E36.25459
G0 F6000 X126.339 Y117.288
G1 F1200 X124.66 Y115.609 E36.33356
G0 F6000 X124.66 Y116.175
G1 F1200 X126.339 Y117.854 E36.41254
G0 F6000 X126.339 Y118.419
G1 F1200 X124.66 Y116.741 E36.49149
G0 F6000 X124.66 Y117.306
G1 F1200 X126.339 Y118.985 E36.57046
G0 F6000 X126.339 Y119.551
G1 F1200 X124.66 Y117.872 E36.64944
G0 F6000 X124.66 Y118.438
G1 F1200 X126.339 Y120.116 E36.72839
G0 F6000 X126.339 Y120.682
G1 F1200 X124.66 Y119.003 E36.80736
G0 F6000 X124.66 Y119.568
G1 F1200 X126.339 Y121.248 E36.88636
G0 F6000 X126.339 Y121.813
G1 F1200 X124.66 Y120.134 E36.96534
G0 F6000 X124.66 Y120.7
G1 F1200 X126.339 Y122.379 E37.04431
G0 F6000 X126.339 Y122.945
G1 F1200 X124.66 Y121.265 E37.12331
G0 F6000 X124.66 Y121.831
G1 F1200 X126.339 Y123.511 E37.20231
G0 F6000 X126.339 Y124.076
G1 F1200 X124.66 Y122.397 E37.28128
G0 F6000 X124.66 Y122.963
G1 F1200 X126.339 Y124.642 E37.36026
G0 F6000 X126.339 Y125.208
G1 F1200 X124.66 Y123.528 E37.43926
G0 F6000 X124.66 Y124.094
G1 F1200 X126.339 Y125.773 E37.51823
G0 F6000 X126.339 Y126.339
G1 F1200 X124.66 Y124.66 E37.59721
G0 F6000 X124.659 Y125.225
G1 F1200 X126.339 Y126.905 E37.67623
G0 F6000 X126.339 Y127.47
G1 F1200 X124.659 Y125.79 E37.75525
G0 F6000 X124.659 Y126.356
G1 F1200 X126.339 Y128.036 E37.83427
G0 F6000 X126.339 Y128.602
G1 F1200 X124.659 Y126.922 E37.9133
G0 F6000 X124.659 Y127.487
G1 F1200 X126.339 Y129.167 E37.99232
G0 F6000 X126.339 Y129.733
G1 F1200 X124.659 Y128.053 E38.07134
G0 F6000 X124.659 Y128.619
G1 F1200 X126.339 Y130.299 E38.15036
G0 F6000 X126.339 Y130.864
G1 F1200 X124.659 Y129.184 E38.22938
G0 F6000 X124.659 Y129.75
G1 F1200 X126.339 Y131.43 E38.30841
G0 F6000 X126.339 Y131.996
G1 F1200 X124.659 Y130.316 E38.38743
G0 F6000 X124.659 Y130.881
G1 F1200 X126.339 Y132.562 E38.46647
G0 F6000 X126.339 Y133.127
G1 F1200 X124.659 Y131.447 E38.5455
G0 F6000 X124.573 Y131.927
G1 F1200 X126.339 Y133.693 E38.62856
G0 F6000 X126.339 Y134.259
G1 F1200 X124.364 Y132.284 E38.72146
G0 F6000 X124.04 Y132.525
G1 F1200 X126.339 Y134.824 E38.8296
G0 F6000 X126.339 Y135.39
G1 F1200 X123.6 Y132.651 E38.95843
G0 F6000 X123.042 Y132.658
G1 F1200 X126.339 Y135.956 E39.11354
G0 F6000 X126.157 Y136.339
G1 F1200 X122.476 Y132.658 E39.28668
G0 F6000 X121.91 Y132.658
G1 F1200 X125.591 Y136.339 E39.45982
G0 F6000 X125.025 Y136.339
G1 F1200 X121.345 Y132.658 E39.63294
G0 F6000 X120.779 Y132.658
G1 F1200 X124.459 Y136.339 E39.80606
G0 F6000 X123.894 Y136.339
G1 F1200 X120.213 Y132.658 E39.9792
G0 F6000 X119.648 Y132.658
G1 F1200 X123.328 Y136.339 E40.15232
G1 F2700 E35.15232
G0 F6000 X123.328 Y136.8
G0 X108.272 Y136.728
G0 X108.273 Y98.273
G0 X110.725 Y98.273
G0 X110.84 Y131.749
G1 F2700 E40.15232
G0 F6000 X110.407 Y131.903
G1 F1200 X108.66 Y130.156 E40.2345
G0 F6000 X108.66 Y129.59
G1 F1200 X110.341 Y131.272 E40.31359
G0 F6000 X110.341 Y130.706
G1 F1200 X108.66 Y129.025 E40.39266
G0 F6000 X108.66 Y128.459
G1 F1200 X110.341 Y130.14 E40.47173
G0 F6000 X110.341 Y129.575
G1 F1200 X108.66 Y127.893 E40.55082
G0 F6000 X108.66 Y127.328
G1 F1200 X110.341 Y129.009 E40.62989
G0 F6000 X110.341 Y128.443
G1 F1200 X108.66 Y126.762 E40.70896
G0 F6000 X108.66 Y126.196
G1 F1200 X110.341 Y127.878 E40.78805
G0 F6000 X110.341 Y127.311
G1 F1200 X108.66 Y125.63 E40.86712
G0 F6000 X108.66 Y125.065
G1 F1200 X110.341 Y126.746 E40.94619
G0 F6000 X110.341 Y126.18
G1 F1200 X108.66 Y124.499 E41.02526
G0 F6000 X108.66 Y123.933
G1 F1200 X110.341 Y125.614 E41.10433
G0 F6000 X110.341 Y125.049
G1 F1200 X108.66 Y123.368 E41.1834
G0 F6000 X108.66 Y122.802
G1 F1200 X110.341 Y124.483 E41.26247
G0 F6000 X110.341 Y123.917
G1 F1200 X108.66 Y122.236 E41.34154
G0 F6000 X108.66 Y121.671
G1 F1200 X110.34 Y123.351 E41.42056
G0 F6000 X110.34 Y122.785
G1 F1200 X108.66 Y121.105 E41.49958
G0 F6000 X108.66 Y120.539
G1 F1200 X110.34 Y122.219 E41.5786
G0 F6000 X110.34 Y121.654
G1 F1200 X108.66 Y119.974 E41.65762
G0 F6000 X108.66 Y119.408
G1 F1200 X110.34 Y121.088 E41.73665
G0 F6000 X110.34 Y120.522
G1 F1200 X108.66 Y118.842 E41.81567
G0 F6000 X108.66 Y118.277
G1 F1200 X110.34 Y119.957 E41.89469
G0 F6000 X110.34 Y119.391
G1 F1200 X108.66 Y117.711 E41.97371
G0 F6000 X108.66 Y117.145
G1 F1200 X110.339 Y118.825 E42.05271
G0 F6000 X110.339 Y118.259
G1 F1200 X108.66 Y116.579 E42.13171
G0 F6000 X108.66 Y116.014
G1 F1200 X110.339 Y117.693 E42.21068
G0 F6000 X110.339 Y117.127
G1 F1200 X108.66 Y115.448 E42.28966
G0 F6000 X108.66 Y114.882
G1 F1200 X110.339 Y116.562 E42.36866
G0 F6000 X110.339 Y115.996
G1 F1200 X108.66 Y114.317 E42.44763
G0 F6000 X108.66 Y113.751
G1 F1200 X110.339 Y115.43 E42.52661
G0 F6000 X110.339 Y114.864
G1 F1200 X108.66 Y113.185 E42.60558
G0 F6000 X108.66 Y112.62
G1 F1200 X110.339 Y114.298 E42.68453
G0 F6000 X110.339 Y113.733
G1 F1200 X108.66 Y112.054 E42.76351
G0 F6000 X108.66 Y111.488
G1 F1200 X110.339 Y113.167 E42.84248
G0 F6000 X110.339 Y112.601
G1 F1200 X108.66 Y110.923 E42.92144
G0 F6000 X108.66 Y110.357
G1 F1200 X110.339 Y112.036 E43.00041
G0 F6000 X110.339 Y111.47
G1 F1200 X108.66 Y109.791 E43.07939
G0 F6000 X108.66 Y109.226
G1 F1200 X110.338 Y110.904 E43.15831
G0 F6000 X110.338 Y110.338
G1 F1200 X108.66 Y108.66 E43.23724
