;FLAVOR:Marlin
;TIME:552
;Filament used: 0.305112m
;Layer height: 0.2
;MINX:106.688
;MINY:97.829
;MINZ:0.2
;MAXX:128.221
;MAXY:137.328
;MAXZ:2
;Generated with Cura_SteamEngine 5.2.2
M140 S50
M105
M190 S50
M104 S200
M105
M109 S200
M82 ;absolute extrusion mode
; Ender 3 Custom Start G-code
G92 E0 ; Reset Extruder
G28 ; Home all axes
G1 Z2.0 F3000 ; Move Z Axis up little to prevent scratching of Heat Bed
G1 X0.1 Y20 Z0.3 F5000.0 ; Move to start position
G1 X0.1 Y200.0 Z0.3 F1500.0 E15 ; Draw the first line
G1 X0.4 Y200.0 Z0.3 F5000.0 ; Move to side a little
G1 X0.4 Y20 Z0.3 F1500.0 E30 ; Draw the second line
G92 E0 ; Reset Extruder
G1 Z2.0 F3000 ; Move Z Axis up little to prevent scratching of Heat Bed
G1 X5 Y20 Z0.3 F5000.0 ; Move over to prevent blob squish
G92 E0
G92 E0
G1 F2700 E-5
;LAYER_COUNT:10
;LAYER:0
M107
;MESH:LETRA Q.stl
G0 F6000 X121.568 Y134.131 Z0.2
;TYPE:WALL-INNER
G1 F2700 E0
G1 F1200 X110.485 Y134.131 E0.36862
G1 X110.246 Y134.082 E0.37674
G1 X110.06 Y133.956 E0.38421
G1 X109.934 Y133.77 E0.39168
G1 X109.885 Y133.609 E0.39728
G1 X109.885 Y104.526 E1.36458
G1 X109.934 Y104.287 E1.3727
G1 X110.06 Y104.101 E1.38017
G1 X110.247 Y103.975 E1.38767
G1 X110.407 Y103.926 E1.39324
G1 X121.49 Y103.926 E1.76186
G1 X121.805 Y104.014 E1.77274
G1 X121.959 Y104.15 E1.77957
G1 X122.046 Y104.3 E1.78534
G1 X122.09 Y104.519 E1.79277
G1 X122.09 Y133.608 E2.76027
G1 X122.042 Y133.77 E2.76589
G1 X121.915 Y133.955 E2.77335
G1 X121.729 Y134.082 E2.78084
G1 X121.568 Y134.131 E2.78644
G0 F6000 X121.632 Y133.673
;TYPE:WALL-OUTER
G1 F1200 X121.525 Y133.729 E2.79046
G1 X110.485 Y133.731 E3.15765
G1 X110.343 Y133.673 E3.16275
G1 X110.287 Y133.566 E3.16677
G1 X110.285 Y104.526 E4.13264
G1 X110.343 Y104.384 E4.13774
G1 X110.45 Y104.328 E4.14176
G1 X121.49 Y104.326 E4.50895
G1 X121.595 Y104.355 E4.51258
G1 X121.69 Y104.466 E4.51744
G1 X121.688 Y133.566 E5.48531
G1 X121.632 Y133.673 E5.48932
G1 F2700 E0.48932
G0 F6000 X121.99 Y133.673
G0 X122.042 Y134.083
G0 X122.042 Y136.728
G0 X124.888 Y136.928
;TYPE:WALL-INNER
G1 F2700 E5.48932
G1 F1200 X124.888 Y104.503 E6.56778
G1 X124.929 Y104.283 E6.57523
G1 X125.015 Y104.132 E6.58101
G1 X126.626 Y102.319 E6.66167
G1 X127.685 Y101.128 E6.71468
G1 X125.288 Y98.431 E6.83469
G1 X123.018 Y100.985 E6.94834
G1 X122.699 Y101.128 E6.95997
G1 X107.089 Y101.129 E7.47916
G1 X107.088 Y136.928 E8.66984
G1 X124.888 Y136.928 E9.26187
G0 F6000 X125.288 Y137.328
;TYPE:WALL-OUTER
G1 F1200 X125.288 Y104.426 E10.35619
G1 X126.925 Y102.585 E10.43813
G1 X128.221 Y101.128 E10.50299
G1 X125.288 Y97.829 E10.64981
G1 X122.746 Y100.685 E10.77697
G1 X122.669 Y100.728 E10.77991
G1 X106.689 Y100.729 E11.3114
G1 X106.688 Y137.328 E12.52869
G1 X125.288 Y137.328 E13.14733
G0 F6000 X125.018 Y137.058
G0 X124.788 Y136.568
G0 X124.528 Y136.568
;TYPE:SKIN
G1 F1200 X124.531 Y104.466 E14.21505
G1 X124.595 Y104.149 E14.2258
G1 X124.734 Y103.908 E14.23506
G1 X127.204 Y101.129 E14.35872
G1 X126.358 Y100.178 E14.40105
G1 X125.289 Y98.975 E14.45458
G1 X123.251 Y101.264 E14.55652
G1 X122.982 Y101.418 E14.56683
G1 X122.741 Y101.488 E14.57517
G1 X107.449 Y101.489 E15.08379
G1 X107.449 Y136.567 E16.25049
G1 X124.528 Y136.568 E16.81854
G1 F2700 E11.81854
G0 F6000 X124.788 Y136.568
G0 X121.602 Y136.728
G0 X121.49 Y134.312
G0 X121.622 Y134.489
G1 F2700 E16.81854
G1 F1200 X110.449 Y134.488 E17.19015
G1 X110.101 Y134.415 E17.20198
G1 X109.806 Y134.21 E17.21393
G1 X109.62 Y133.944 E17.22472
G1 X109.527 Y133.663 E17.23457
G1 X109.525 Y104.531 E18.2035
G1 X109.6 Y104.143 E18.21664
G1 X109.806 Y103.847 E18.22864
G1 X110.072 Y103.661 E18.23943
G1 X110.353 Y103.568 E18.24928
G1 X121.515 Y103.566 E18.62053
G1 X121.988 Y103.7 E18.63688
G1 X122.241 Y103.923 E18.6481
G1 X122.38 Y104.162 E18.65729
G1 X122.447 Y104.481 E18.66813
G1 X122.448 Y133.663 E19.63873
G1 X122.355 Y133.944 E19.64858
G1 X122.169 Y134.21 E19.65937
G1 X121.903 Y134.396 E19.67017
G1 X121.622 Y134.489 E19.68001
G1 F2700 E14.68001
G0 F6000 X121.602 Y134.221
G0 X110.487 Y134.312
G0 X110.487 Y136.728
G0 X108.081 Y136.366
G1 F2700 E19.68001
G1 F1200 X107.648 Y135.932 E19.7004
G0 F6000 X107.648 Y135.367
G1 F1200 X108.647 Y136.366 E19.74739
G0 F6000 X109.213 Y136.366
G1 F1200 X107.648 Y134.801 E19.82101
G0 F6000 X107.648 Y134.235
G1 F1200 X109.779 Y136.366 E19.92124
G0 F6000 X110.344 Y136.366
G1 F1200 X107.648 Y133.67 E20.04805
G0 F6000 X107.648 Y133.104
G1 F1200 X110.91 Y136.366 E20.20149
G0 F6000 X111.476 Y136.366
G1 F1200 X107.648 Y132.538 E20.38154
G0 F6000 X107.648 Y131.972
G1 F1200 X109.33 Y133.654 E20.46066
G0 F6000 X109.33 Y133.088
G1 F1200 X107.648 Y131.407 E20.53975
G0 F6000 X107.648 Y130.841
G1 F1200 X109.33 Y132.523 E20.61887
G0 F6000 X109.33 Y131.957
G1 F1200 X107.648 Y130.275 E20.69799
G0 F6000 X107.648 Y129.71
G1 F1200 X109.33 Y131.391 E20.77708
G0 F6000 X109.33 Y130.826
G1 F1200 X107.648 Y129.144 E20.85619
G0 F6000 X107.648 Y128.578
G1 F1200 X109.33 Y130.26 E20.93531
G0 F6000 X109.329 Y129.693
G1 F1200 X107.648 Y128.013 E21.01436
G0 F6000 X107.648 Y127.447
G1 F1200 X109.329 Y129.128 E21.09342
G0 F6000 X109.329 Y128.562
G1 F1200 X107.648 Y126.881 E21.17249
G0 F6000 X107.648 Y126.316
G1 F1200 X109.329 Y127.996 E21.25154
G0 F6000 X109.329 Y127.431
G1 F1200 X107.648 Y125.75 E21.33061
G0 F6000 X107.648 Y125.184
G1 F1200 X109.329 Y126.865 E21.40968
G0 F6000 X109.328 Y126.299
G1 F1200 X107.648 Y124.619 E21.4887
G0 F6000 X107.648 Y124.053
G1 F1200 X109.328 Y125.733 E21.56772
G0 F6000 X109.328 Y125.167
G1 F1200 X107.648 Y123.487 E21.64674
G0 F6000 X107.648 Y122.922
G1 F1200 X109.328 Y124.602 E21.72577
G0 F6000 X109.328 Y124.036
G1 F1200 X107.648 Y122.356 E21.80479
G0 F6000 X107.648 Y121.79
G1 F1200 X109.328 Y123.47 E21.88381
G0 F6000 X109.328 Y122.905
G1 F1200 X107.648 Y121.224 E21.96286
G0 F6000 X107.648 Y120.659
G1 F1200 X109.327 Y122.338 E22.04183
G0 F6000 X109.327 Y121.772
G1 F1200 X107.648 Y120.093 E22.12081
G0 F6000 X107.648 Y119.527
G1 F1200 X109.327 Y121.207 E22.1998
G0 F6000 X109.327 Y120.641
G1 F1200 X107.648 Y118.962 E22.27878
G0 F6000 X107.648 Y118.396
G1 F1200 X109.327 Y120.075 E22.35775
G0 F6000 X109.327 Y119.51
G1 F1200 X107.648 Y117.83 E22.43675
G0 F6000 X107.648 Y117.265
G1 F1200 X109.327 Y118.943 E22.5157
G0 F6000 X109.327 Y118.378
G1 F1200 X107.648 Y116.699 E22.59468
G0 F6000 X107.648 Y116.133
G1 F1200 X109.327 Y117.812 E22.67365
G0 F6000 X109.327 Y117.246
G1 F1200 X107.648 Y115.568 E22.75261
G0 F6000 X107.648 Y115.002
G1 F1200 X109.327 Y116.681 E22.83158
G0 F6000 X109.327 Y116.115
G1 F1200 X107.648 Y114.436 E22.91056
G0 F6000 X107.648 Y113.871
G1 F1200 X109.327 Y115.549 E22.98951
G0 F6000 X109.326 Y114.983
G1 F1200 X107.648 Y113.305 E23.06844
G0 F6000 X107.648 Y112.739
G1 F1200 X109.326 Y114.417 E23.14736
G0 F6000 X109.326 Y113.851
G1 F1200 X107.648 Y112.174 E23.22627
G0 F6000 X107.648 Y111.608
G1 F1200 X109.326 Y113.286 E23.3052
G0 F6000 X109.326 Y112.72
G1 F1200 X107.648 Y111.042 E23.38412
G0 F6000 X107.648 Y110.476
G1 F1200 X109.326 Y112.154 E23.46305
G0 F6000 X109.325 Y111.588
G1 F1200 X107.648 Y109.911 E23.54193
G0 F6000 X107.648 Y109.345
G1 F1200 X109.325 Y111.022 E23.62081
G0 F6000 X109.325 Y110.457
G1 F1200 X107.648 Y108.779 E23.69972
G0 F6000 X107.648 Y108.214
G1 F1200 X109.325 Y109.891 E23.7786
G0 F6000 X109.325 Y109.325
G1 F1200 X107.648 Y107.648 E23.85748
G0 F6000 X107.648 Y107.082
G1 F1200 X109.325 Y108.76 E23.93638
G0 F6000 X109.325 Y108.194
G1 F1200 X107.648 Y106.517 E24.01527
G0 F6000 X107.648 Y105.951
G1 F1200 X109.325 Y107.628 E24.09415
G0 F6000 X109.325 Y107.062
G1 F1200 X107.648 Y105.385 E24.17303
G0 F6000 X107.648 Y104.82
G1 F1200 X109.325 Y106.496 E24.25188
G0 F6000 X109.325 Y105.93
G1 F1200 X107.648 Y104.254 E24.33074
G0 F6000 X107.648 Y103.688
G1 F1200 X109.325 Y105.365 E24.40962
G0 F6000 X109.325 Y104.799
G1 F1200 X107.648 Y103.123 E24.48848
G0 F6000 X107.648 Y102.557
G1 F1200 X109.368 Y104.277 E24.56938
G0 F6000 X109.537 Y103.88
G1 F1200 X107.648 Y101.991 E24.65824
G0 F6000 X107.911 Y101.689
G1 F1200 X109.815 Y103.592 E24.74777
G0 F6000 X110.194 Y103.406
G1 F1200 X108.477 Y101.689 E24.82853
G0 F6000 X109.042 Y101.689
G1 F1200 X110.724 Y103.37 E24.90763
G0 F6000 X111.29 Y103.37
G1 F1200 X109.608 Y101.689 E24.98672
G0 F6000 X110.174 Y101.689
G1 F1200 X111.855 Y103.37 E25.06579
G0 F6000 X112.42 Y103.369
G1 F1200 X110.739 Y101.689 E25.14483
G0 F6000 X111.305 Y101.689
G1 F1200 X112.986 Y103.369 E25.22388
G0 F6000 X113.551 Y103.369
G1 F1200 X111.871 Y101.689 E25.3029
G0 F6000 X112.437 Y101.689
G1 F1200 X114.117 Y103.369 E25.38192
G0 F6000 X114.682 Y103.369
G1 F1200 X113.002 Y101.688 E25.46097
G0 F6000 X113.567 Y101.688
G1 F1200 X115.247 Y103.368 E25.53999
G0 F6000 X115.813 Y103.368
G1 F1200 X114.133 Y101.688 E25.61901
G0 F6000 X114.699 Y101.688
G1 F1200 X116.379 Y103.368 E25.69803
G0 F6000 X116.944 Y103.367
G1 F1200 X115.264 Y101.688 E25.77703
G0 F6000 X115.83 Y101.688
G1 F1200 X117.509 Y103.367 E25.85601
G0 F6000 X118.075 Y103.367
G1 F1200 X116.396 Y101.688 E25.93498
G0 F6000 X116.961 Y101.688
G1 F1200 X118.64 Y103.366 E26.01394
G0 F6000 X119.206 Y103.366
G1 F1200 X117.527 Y101.688 E26.09289
G0 F6000 X118.092 Y101.687
G1 F1200 X119.771 Y103.366 E26.17186
G0 F6000 X120.336 Y103.366
G1 F1200 X118.658 Y101.687 E26.25081
G0 F6000 X119.223 Y101.687
G1 F1200 X120.902 Y103.366 E26.32979
G0 F6000 X121.468 Y103.366
G1 F1200 X119.789 Y101.687 E26.40876
G0 F6000 X120.355 Y101.687
G1 F1200 X124.327 Y105.66 E26.59562
G0 F6000 X124.327 Y106.225
G1 F1200 X122.649 Y104.547 E26.67455
G0 F6000 X122.649 Y105.112
G1 F1200 X124.327 Y106.791 E26.7535
G0 F6000 X124.327 Y107.357
G1 F1200 X122.649 Y105.678 E26.83245
G0 F6000 X122.649 Y106.244
G1 F1200 X124.327 Y107.922 E26.91138
G0 F6000 X124.327 Y108.488
G1 F1200 X122.649 Y106.809 E26.99033
G0 F6000 X122.649 Y107.375
G1 F1200 X124.327 Y109.054 E27.06928
G0 F6000 X124.327 Y109.619
G1 F1200 X122.649 Y107.941 E27.14821
G0 F6000 X122.649 Y108.506
G1 F1200 X124.327 Y110.185 E27.22716
G0 F6000 X124.327 Y110.751
G1 F1200 X122.649 Y109.072 E27.30611
G0 F6000 X122.648 Y109.637
G1 F1200 X124.327 Y111.316 E27.38509
G0 F6000 X124.327 Y111.882
G1 F1200 X122.648 Y110.203 E27.46406
G0 F6000 X122.648 Y110.768
G1 F1200 X124.327 Y112.448 E27.54306
G0 F6000 X124.327 Y113.014
G1 F1200 X122.648 Y111.334 E27.62206
G0 F6000 X122.648 Y111.9
G1 F1200 X124.327 Y113.579 E27.70103
G0 F6000 X124.327 Y114.145
G1 F1200 X122.648 Y112.466 E27.78001
G0 F6000 X122.648 Y113.031
G1 F1200 X124.327 Y114.711 E27.85901
G0 F6000 X124.327 Y115.276
G1 F1200 X122.648 Y113.597 E27.93798
G0 F6000 X122.648 Y114.163
G1 F1200 X124.327 Y115.842 E28.01696
G0 F6000 X124.327 Y116.408
G1 F1200 X122.647 Y114.728 E28.09598
G0 F6000 X122.647 Y115.293
G1 F1200 X124.327 Y116.973 E28.175
G0 F6000 X124.327 Y117.539
G1 F1200 X122.647 Y115.859 E28.25402
G0 F6000 X122.647 Y116.425
G1 F1200 X124.327 Y118.105 E28.33304
G0 F6000 X124.327 Y118.67
G1 F1200 X122.647 Y116.99 E28.41207
G0 F6000 X122.647 Y117.556
G1 F1200 X124.327 Y119.236 E28.49109
G0 F6000 X124.327 Y119.802
G1 F1200 X122.647 Y118.122 E28.57011
G0 F6000 X122.647 Y118.687
G1 F1200 X124.327 Y120.367 E28.64913
G0 F6000 X124.327 Y120.933
G1 F1200 X122.646 Y119.252 E28.7282
G0 F6000 X122.646 Y119.818
G1 F1200 X124.327 Y121.499 E28.80727
G0 F6000 X124.327 Y122.065
G1 F1200 X122.646 Y120.384 E28.88634
G0 F6000 X122.646 Y120.949
G1 F1200 X124.327 Y122.63 E28.96541
G0 F6000 X124.327 Y123.196
G1 F1200 X122.646 Y121.515 E29.04448
G0 F6000 X122.646 Y122.081
G1 F1200 X124.327 Y123.762 E29.12355
G0 F6000 X124.327 Y124.327
G1 F1200 X122.646 Y122.646 E29.20262
G0 F6000 X122.646 Y123.212
G1 F1200 X124.327 Y124.893 E29.28168
G0 F6000 X124.327 Y125.459
G1 F1200 X122.646 Y123.778 E29.36075
G0 F6000 X122.646 Y124.343
G1 F1200 X124.327 Y126.024 E29.43982
G0 F6000 X124.327 Y126.59
G1 F1200 X122.646 Y124.908 E29.51892
G0 F6000 X122.646 Y125.474
G1 F1200 X124.327 Y127.156 E29.59801
G0 F6000 X124.327 Y127.721
G1 F1200 X122.646 Y126.04 E29.67708
G0 F6000 X122.646 Y126.606
G1 F1200 X124.327 Y128.287 E29.75615
G0 F6000 X124.327 Y128.853
G1 F1200 X122.646 Y127.171 E29.83524
G0 F6000 X122.646 Y127.737
G1 F1200 X124.327 Y129.418 E29.91431
G0 F6000 X124.327 Y129.984
G1 F1200 X122.646 Y128.303 E29.99338
G0 F6000 X122.645 Y128.868
G1 F1200 X124.327 Y130.55 E30.07249
G0 F6000 X124.327 Y131.115
G1 F1200 X122.645 Y129.433 E30.15161
G0 F6000 X122.645 Y129.999
G1 F1200 X124.327 Y131.681 E30.23073
G0 F6000 X124.327 Y132.247
G1 F1200 X122.645 Y130.565 E30.30984
G0 F6000 X122.645 Y131.13
G1 F1200 X124.327 Y132.813 E30.38898
G0 F6000 X124.327 Y133.378
G1 F1200 X122.645 Y131.696 E30.4681
G0 F6000 X122.645 Y132.262
G1 F1200 X124.327 Y133.944 E30.54721
G0 F6000 X124.327 Y134.51
G1 F1200 X122.645 Y132.827 E30.62635
G0 F6000 X122.645 Y133.393
G1 F1200 X124.327 Y135.075 E30.70547
G0 F6000 X124.327 Y135.641
G1 F1200 X122.586 Y133.899 E30.78738
G0 F6000 X122.379 Y134.259
G1 F1200 X124.327 Y136.207 E30.87901
G0 F6000 X123.921 Y136.366
G1 F1200 X122.075 Y134.52 E30.96584
G0 F6000 X121.671 Y134.681
G1 F1200 X123.355 Y136.366 E31.04508
G0 F6000 X122.789 Y136.366
G1 F1200 X121.109 Y134.686 E31.1241
G0 F6000 X120.544 Y134.686
G1 F1200 X122.224 Y136.366 E31.20312
G0 F6000 X121.658 Y136.366
G1 F1200 X119.978 Y134.686 E31.28214
G0 F6000 X119.413 Y134.686
G1 F1200 X121.092 Y136.366 E31.36114
G0 F6000 X120.527 Y136.366
G1 F1200 X118.847 Y134.686 E31.44016
G0 F6000 X118.281 Y134.686
G1 F1200 X119.961 Y136.366 E31.51918
G0 F6000 X119.395 Y136.366
G1 F1200 X117.717 Y134.687 E31.59814
G0 F6000 X117.151 Y134.687
G1 F1200 X118.83 Y136.366 E31.67711
G0 F6000 X118.264 Y136.366
G1 F1200 X116.585 Y134.687 E31.75609
G0 F6000 X116.02 Y134.688
G1 F1200 X117.698 Y136.366 E31.83501
G0 F6000 X117.132 Y136.366
G1 F1200 X115.454 Y134.688 E31.91394
G0 F6000 X114.889 Y134.688
G1 F1200 X116.567 Y136.366 E31.99287
G0 F6000 X116.001 Y136.366
G1 F1200 X114.323 Y134.688 E32.0718
G0 F6000 X113.758 Y134.688
G1 F1200 X115.435 Y136.366 E32.1507
G0 F6000 X114.87 Y136.366
G1 F1200 X113.192 Y134.688 E32.22963
G0 F6000 X112.627 Y134.688
G1 F1200 X114.304 Y136.366 E32.30854
G0 F6000 X113.738 Y136.366
G1 F1200 X112.062 Y134.689 E32.38739
G0 F6000 X111.496 Y134.689
G1 F1200 X113.173 Y136.366 E32.46627
G0 F6000 X112.607 Y136.366
G1 F1200 X110.93 Y134.689 E32.54515
G0 F6000 X110.345 Y134.669
G1 F1200 X112.041 Y136.366 E32.62495
G1 F2700 E27.62495
G0 F6000 X112.041 Y136.828
G0 X124.716 Y136.756
G0 X124.788 Y105.094
G1 F2700 E32.62495
G0 F6000 X124.327 Y105.094
G1 F1200 X120.92 Y101.687 E32.78521
G0 F6000 X121.486 Y101.687
G1 F1200 X124.327 Y104.528 E32.91884
G0 F6000 X124.421 Y104.056
G1 F1200 X122.052 Y101.687 E33.03027
G0 F6000 X122.617 Y101.687
G1 F1200 X124.641 Y103.711 E33.12547
G0 F6000 X124.907 Y103.411
G1 F1200 X123.086 Y101.59 E33.21113
G0 F6000 X123.429 Y101.367
G1 F1200 X125.174 Y103.112 E33.29321
G0 F6000 X125.44 Y102.812
G1 F1200 X123.694 Y101.067 E33.37531
G0 F6000 X123.961 Y100.768
G1 F1200 X125.705 Y102.512 E33.45734
G0 F6000 X125.972 Y102.213
G1 F1200 X124.227 Y100.468 E33.53942
G0 F6000 X124.493 Y100.169
G1 F1200 X126.238 Y101.913 E33.62148
G0 F6000 X126.504 Y101.614
G1 F1200 X124.759 Y99.869 E33.70356
G0 F6000 X125.026 Y99.57
G1 F1200 X126.77 Y101.314 E33.78559
G1 F2700 E28.78559
;MESH:NONMESH
G0 F300 X126.77 Y101.314 Z0.4
G0 F6000 X127.113 Y101.62
G0 X125.051 Y104.337
G0 X124.688 Y134.123
G0 X122.26 Y133.667
G0 X121.594 Y134.123
;TIME_ELAPSED:72.111760
;LAYER:1
M106 S85
;TYPE:WALL-INNER
;MESH:LETRA Q.stl
G1 F2700 E33.78559
G1 F1350 X121.49 Y134.131 E33.78906
G1 X110.485 Y134.131 E34.15509
G1 X110.246 Y134.082 E34.1632
G1 X110.06 Y133.956 E34.17067
G1 X109.934 Y133.77 E34.17815
G1 X109.885 Y133.609 E34.18374
G1 X109.885 Y104.526 E35.15105
G1 X109.934 Y104.287 E35.15916
G1 X110.06 Y104.101 E35.16663
G1 X110.247 Y103.975 E35.17413
G1 X110.407 Y103.926 E35.1797
G1 X121.49 Y103.926 E35.54832
G1 X121.805 Y104.014 E35.5592
G1 X121.959 Y104.15 E35.56603
G1 X122.046 Y104.3 E35.5718
G1 X122.09 Y104.519 E35.57923
G1 X122.09 Y133.608 E36.54673
G1 X122.042 Y133.77 E36.55235
G1 X121.915 Y133.955 E36.55982
G1 X121.729 Y134.082 E36.56731
G1 X121.594 Y134.123 E36.572
G0 F7500 X121.632 Y133.673
