;FLAVOR:Marlin
;TIME:698
;Filament used: 0.400522m
;Layer height: 0.2
;MINX:106.188
;MINY:87.545
;MINZ:0.2
;MAXX:128.61
;MAXY:147
;MAXZ:2
;Generated with Cura_SteamEngine 5.2.2
M140 S50
M105
M190 S50
M104 S200
M105
M109 S200
M82 ;absolute extrusion mode
; Ender 3 Custom Start G-code
G92 E0 ; Reset Extruder
G28 ; Home all axes
G1 Z2.0 F3000 ; Move Z Axis up little to prevent scratching of Heat Bed
G1 X0.1 Y20 Z0.3 F5000.0 ; Move to start position
G1 X0.1 Y200.0 Z0.3 F1500.0 E15 ; Draw the first line
G1 X0.4 Y200.0 Z0.3 F5000.0 ; Move to side a little
G1 X0.4 Y20 Z0.3 F1500.0 E30 ; Draw the second line
G92 E0 ; Reset Extruder
G1 Z2.0 F3000 ; Move Z Axis up little to prevent scratching of Heat Bed
G1 X5 Y20 Z0.3 F5000.0 ; Move over to prevent blob squish
G92 E0
G92 E0
G1 F2700 E-5
;LAYER_COUNT:10
;LAYER:0
M107
;MESH:LETRA ??.stl
G0 F6000 X125.388 Y126.745 Z0.2
;TYPE:WALL-INNER
G1 F2700 E0
G1 F1200 X125.388 Y124.847 E0.06313
G1 X125.388 Y122.948 E0.12629
G1 X110.985 Y122.948 E0.60533
G1 X110.677 Y122.864 E0.61595
G1 X110.469 Y122.656 E0.62574
G1 X110.385 Y122.348 E0.63635
G1 X110.385 Y110.343 E1.03564
G1 X110.411 Y110.166 E1.04159
G1 X110.483 Y110.012 E1.04725
G1 X110.702 Y109.813 E1.05709
G1 X110.932 Y109.745 E1.06507
G1 X125.388 Y109.743 E1.54587
G1 X125.388 Y104.949 E1.70532
G1 X110.932 Y104.946 E2.18613
G1 X110.702 Y104.878 E2.19411
G1 X110.483 Y104.679 E2.20395
G1 X110.411 Y104.524 E2.20964
G1 X110.385 Y104.348 E2.21555
G1 X110.385 Y92.342 E2.61487
G1 X110.469 Y92.034 E2.62549
G1 X110.677 Y91.826 E2.63528
G1 X110.985 Y91.742 E2.64589
G1 X125.388 Y91.742 E3.12494
G1 X125.388 Y87.946 E3.2512
G1 X106.588 Y87.945 E3.87649
G1 X106.588 Y126.745 E5.16698
G1 X125.388 Y126.745 E5.79227
G0 F6000 X125.788 Y127.145
;TYPE:WALL-OUTER
G1 F1200 X125.788 Y124.847 E5.8687
G1 X125.788 Y122.548 E5.94517
G1 X110.942 Y122.548 E6.43895
G1 X110.843 Y122.49 E6.44276
G1 X110.787 Y122.383 E6.44678
G1 X110.785 Y110.301 E6.84863
G1 X110.908 Y110.143 E6.85529
G1 X125.788 Y110.143 E7.3502
G1 X125.788 Y104.549 E7.53626
G1 X110.967 Y104.548 E8.02921
G1 X110.817 Y104.459 E8.03501
G1 X110.787 Y104.383 E8.03772
G1 X110.785 Y92.299 E8.43964
G1 X110.843 Y92.2 E8.44346
G1 X110.95 Y92.144 E8.44747
G1 X125.788 Y92.142 E8.94099
G1 X125.788 Y87.546 E9.09385
G1 X106.188 Y87.545 E9.74575
G1 X106.188 Y127.145 E11.06285
G1 X125.788 Y127.145 E11.71475
G0 F6000 X125.518 Y126.875
G0 X125.288 Y126.385
G0 X125.028 Y126.385
;TYPE:SKIN
G1 F1200 X125.028 Y123.308 E11.81709
G1 X110.964 Y123.307 E12.28486
G1 X110.751 Y123.279 E12.29201
G1 X110.482 Y123.172 E12.30163
G1 X110.189 Y122.879 E12.31542
G1 X110.053 Y122.585 E12.32619
G1 X110.026 Y122.374 E12.33327
G1 X110.027 Y110.321 E12.73415
G1 X110.077 Y110.033 E12.74387
G1 X110.215 Y109.774 E12.75363
G1 X110.522 Y109.496 E12.76741
G1 X110.885 Y109.385 E12.78003
G1 X125.028 Y109.383 E13.25043
G1 X125.028 Y105.309 E13.38593
G1 X110.89 Y105.303 E13.85617
G1 X110.523 Y105.195 E13.86889
G1 X110.184 Y104.889 E13.88408
G1 X110.061 Y104.606 E13.89434
G1 X110.027 Y104.379 E13.90198
G1 X110.026 Y92.321 E14.30303
G1 X110.054 Y92.108 E14.31017
G1 X110.161 Y91.839 E14.3198
G1 X110.482 Y91.518 E14.3349
G1 X110.807 Y91.384 E14.34659
G1 X125.028 Y91.382 E14.81958
G1 X125.028 Y88.306 E14.92189
G1 X106.948 Y88.306 E15.52324
G1 X106.948 Y126.385 E16.78975
G1 X125.028 Y126.385 E17.39109
G0 F6000 X125.288 Y126.385
G0 X107.516 Y126.645
G0 X107.516 Y126.183
G1 F1200 X107.147 Y125.814 E17.40845
G0 F6000 X107.147 Y125.249
G1 F1200 X108.081 Y126.183 E17.45238
G0 F6000 X108.647 Y126.183
G1 F1200 X107.147 Y124.683 E17.52294
G0 F6000 X107.147 Y124.117
G1 F1200 X109.213 Y126.183 E17.62011
G0 F6000 X109.779 Y126.183
G1 F1200 X107.147 Y123.552 E17.74389
G0 F6000 X107.147 Y122.986
G1 F1200 X110.344 Y126.183 E17.89427
G0 F6000 X110.91 Y126.183
G1 F1200 X107.147 Y122.42 E18.07127
G0 F6000 X107.147 Y121.855
G1 F1200 X111.476 Y126.183 E18.27487
G0 F6000 X112.041 Y126.183
G1 F1200 X107.147 Y121.289 E18.50507
G0 F6000 X107.147 Y120.723
G1 F1200 X112.607 Y126.183 E18.76189
G0 F6000 X113.173 Y126.183
G1 F1200 X107.147 Y120.157 E19.04533
G0 F6000 X107.147 Y119.592
G1 F1200 X109.827 Y122.272 E19.17139
G0 F6000 X109.827 Y121.707
G1 F1200 X107.147 Y119.026 E19.29747
G0 F6000 X107.147 Y118.46
G1 F1200 X109.827 Y121.141 E19.42356
G0 F6000 X109.827 Y120.575
G1 F1200 X107.147 Y117.895 E19.54962
G0 F6000 X107.147 Y117.329
G1 F1200 X109.827 Y120.01 E19.6757
G0 F6000 X109.827 Y119.444
G1 F1200 X107.147 Y116.763 E19.80178
G0 F6000 X107.147 Y116.198
G1 F1200 X109.827 Y118.878 E19.92784
G0 F6000 X109.827 Y118.312
G1 F1200 X107.147 Y115.632 E20.0539
G0 F6000 X107.147 Y115.066
G1 F1200 X109.827 Y117.746 E20.17996
G0 F6000 X109.827 Y117.181
G1 F1200 X107.147 Y114.501 E20.30602
G0 F6000 X107.147 Y113.935
G1 F1200 X109.827 Y116.615 E20.43208
G0 F6000 X109.826 Y116.048
G1 F1200 X107.147 Y113.369 E20.55809
G0 F6000 X107.147 Y112.804
G1 F1200 X109.826 Y115.483 E20.6841
G0 F6000 X109.826 Y114.917
G1 F1200 X107.147 Y112.238 E20.81011
G0 F6000 X107.147 Y111.672
G1 F1200 X109.826 Y114.351 E20.93612
G0 F6000 X109.826 Y113.786
G1 F1200 X107.147 Y111.106 E21.06216
G0 F6000 X107.147 Y110.541
G1 F1200 X109.825 Y113.219 E21.18812
G0 F6000 X109.825 Y112.654
G1 F1200 X107.147 Y109.975 E21.31411
G0 F6000 X107.147 Y109.409
G1 F1200 X109.825 Y112.088 E21.4401
G0 F6000 X109.825 Y111.522
G1 F1200 X107.147 Y108.844 E21.56607
G0 F6000 X107.147 Y108.278
G1 F1200 X109.825 Y110.957 E21.69205
G0 F6000 X109.825 Y110.391
G1 F1200 X107.147 Y107.712 E21.81804
G0 F6000 X107.147 Y107.147
G1 F1200 X109.919 Y109.919 E21.94843
G0 F6000 X110.138 Y109.573
G1 F1200 X107.147 Y106.581 E22.08914
G0 F6000 X107.147 Y106.015
G1 F1200 X110.44 Y109.308 E22.24403
G0 F6000 X110.885 Y109.188
G1 F1200 X107.147 Y105.45 E22.41986
G0 F6000 X107.147 Y104.884
G1 F1200 X111.451 Y109.188 E22.6223
G0 F6000 X112.017 Y109.188
G1 F1200 X107.147 Y104.318 E22.85137
G0 F6000 X107.147 Y103.753
G1 F1200 X112.582 Y109.187 E23.107
G0 F6000 X113.147 Y109.187
G1 F1200 X107.147 Y103.187 E23.38922
G0 F6000 X107.147 Y102.621
G1 F1200 X113.713 Y109.187 E23.69806
G0 F6000 X114.278 Y109.187
G1 F1200 X110.486 Y105.394 E23.87645
G0 F6000 X111.162 Y105.505
G1 F1200 X114.844 Y109.187 E24.04964
G0 F6000 X115.409 Y109.187
G1 F1200 X111.728 Y105.505 E24.22281
G0 F6000 X112.294 Y105.505
G1 F1200 X115.974 Y109.186 E24.39593
G0 F6000 X116.54 Y109.186
G1 F1200 X112.859 Y105.505 E24.56907
G0 F6000 X113.425 Y105.505
G1 F1200 X117.105 Y109.185 E24.74216
G0 F6000 X117.671 Y109.185
G1 F1200 X113.991 Y105.506 E24.91524
G0 F6000 X114.557 Y105.506
G1 F1200 X118.236 Y109.185 E25.08829
G0 F6000 X118.801 Y109.185
G1 F1200 X115.123 Y105.506 E25.26131
G0 F6000 X115.689 Y105.506
G1 F1200 X119.367 Y109.185 E25.43434
G0 F6000 X119.933 Y109.185
G1 F1200 X116.254 Y105.506 E25.60739
G0 F6000 X116.821 Y105.507
G1 F1200 X120.498 Y109.184 E25.78034
G0 F6000 X121.063 Y109.184
G1 F1200 X117.386 Y105.507 E25.9533
G0 F6000 X117.952 Y105.507
G1 F1200 X121.629 Y109.184 E26.12625
G0 F6000 X122.194 Y109.183
G1 F1200 X118.518 Y105.507 E26.29916
G0 F6000 X119.083 Y105.507
G1 F1200 X122.76 Y109.183 E26.47209
G0 F6000 X123.325 Y109.182
G1 F1200 X119.65 Y105.508 E26.64493
G0 F6000 X120.215 Y105.508
G1 F1200 X123.89 Y109.182 E26.81776
G0 F6000 X124.456 Y109.182
G1 F1200 X120.781 Y105.508 E26.9906
G0 F6000 X121.347 Y105.508
G1 F1200 X124.826 Y108.987 E27.15424
G0 F6000 X124.826 Y108.422
G1 F1200 X121.912 Y105.508 E27.29131
G0 F6000 X122.479 Y105.508
G1 F1200 X124.826 Y107.856 E27.40173
G0 F6000 X124.826 Y107.29
G1 F1200 X123.045 Y105.508 E27.48552
G0 F6000 X123.61 Y105.508
G1 F1200 X124.826 Y106.725 E27.54274
G0 F6000 X124.826 Y106.159
G1 F1200 X124.176 Y105.508 E27.57334
G0 F6000 X124.742 Y105.508
G1 F1200 X124.826 Y105.593 E27.57732
G1 F2700 E22.57732
G0 F6000 X124.826 Y105.049
G0 X110.557 Y104.776
G0 X110.557 Y91.914
G0 X124.557 Y91.642
G1 F2700 E27.57732
G0 F6000 X124.557 Y91.182
G1 F1200 X121.881 Y88.506 E27.70319
G0 F6000 X121.316 Y88.506
G1 F1200 X123.991 Y91.182 E27.82903
G0 F6000 X123.426 Y91.182
G1 F1200 X120.75 Y88.506 E27.95491
G0 F6000 X120.184 Y88.506
G1 F1200 X122.86 Y91.182 E28.08078
G0 F6000 X122.295 Y91.182
G1 F1200 X119.619 Y88.506 E28.20665
G0 F6000 X119.053 Y88.506
G1 F1200 X121.729 Y91.182 E28.33252
G0 F6000 X121.164 Y91.182
G1 F1200 X118.487 Y88.506 E28.45841
G0 F6000 X117.922 Y88.506
G1 F1200 X120.599 Y91.183 E28.58433
G0 F6000 X120.033 Y91.183
G1 F1200 X117.356 Y88.506 E28.71025
G0 F6000 X116.79 Y88.506
G1 F1200 X119.467 Y91.183 E28.83617
G0 F6000 X118.902 Y91.183
G1 F1200 X116.225 Y88.506 E28.96208
G0 F6000 X115.659 Y88.506
G1 F1200 X118.337 Y91.184 E29.08805
G0 F6000 X117.771 Y91.184
G1 F1200 X115.093 Y88.506 E29.21401
G0 F6000 X114.527 Y88.506
G1 F1200 X117.205 Y91.184 E29.33998
G0 F6000 X116.64 Y91.184
G1 F1200 X113.962 Y88.506 E29.46594
G0 F6000 X113.396 Y88.506
G1 F1200 X116.075 Y91.184 E29.59193
G0 F6000 X115.509 Y91.184
G1 F1200 X112.83 Y88.506 E29.71792
G0 F6000 X112.265 Y88.506
G1 F1200 X114.943 Y91.184 E29.84388
G0 F6000 X114.378 Y91.185
G1 F1200 X111.699 Y88.506 E29.9699
G0 F6000 X111.133 Y88.506
G1 F1200 X113.813 Y91.185 E30.09593
G0 F6000 X113.247 Y91.185
G1 F1200 X110.568 Y88.506 E30.22194
G0 F6000 X110.002 Y88.506
G1 F1200 X112.682 Y91.186 E30.348
G0 F6000 X112.116 Y91.186
G1 F1200 X109.436 Y88.506 E30.47406
G0 F6000 X108.871 Y88.506
G1 F1200 X111.551 Y91.186 E30.60012
G0 F6000 X110.985 Y91.186
G1 F1200 X108.305 Y88.506 E30.72618
G0 F6000 X107.739 Y88.506
G1 F1200 X110.517 Y91.284 E30.85685
G0 F6000 X110.192 Y91.525
G1 F1200 X107.174 Y88.506 E30.99883
G0 F6000 X107.147 Y89.045
G1 F1200 X109.945 Y91.843 E31.13044
G0 F6000 X109.827 Y92.291
G1 F1200 X107.147 Y89.61 E31.25652
G0 F6000 X107.147 Y90.176
G1 F1200 X109.827 Y92.857 E31.3826
G0 F6000 X109.827 Y93.422
G1 F1200 X107.147 Y90.742 E31.50866
G0 F6000 X107.147 Y91.307
G1 F1200 X109.827 Y93.988 E31.63475
G0 F6000 X109.827 Y94.554
G1 F1200 X107.147 Y91.873 E31.76083
G0 F6000 X107.147 Y92.439
G1 F1200 X109.827 Y95.12 E31.88691
G0 F6000 X109.827 Y95.685
G1 F1200 X107.147 Y93.005 E32.01297
G0 F6000 X107.147 Y93.57
G1 F1200 X109.827 Y96.251 E32.13905
G0 F6000 X109.827 Y96.817
G1 F1200 X107.147 Y94.136 E32.26513
G0 F6000 X107.147 Y94.702
G1 F1200 X109.827 Y97.382 E32.39119
G0 F6000 X109.827 Y97.948
G1 F1200 X107.147 Y95.267 E32.51728
G0 F6000 X107.147 Y95.833
G1 F1200 X109.828 Y98.514 E32.64338
G0 F6000 X109.828 Y99.08
G1 F1200 X107.147 Y96.399 E32.76949
G0 F6000 X107.147 Y96.964
G1 F1200 X109.828 Y99.646 E32.89562
G0 F6000 X109.828 Y100.211
G1 F1200 X107.147 Y97.53 E33.02172
G0 F6000 X107.147 Y98.096
G1 F1200 X109.828 Y100.777 E33.14783
G0 F6000 X109.828 Y101.343
G1 F1200 X107.147 Y98.661 E33.27396
G0 F6000 X107.147 Y99.227
G1 F1200 X109.828 Y101.908 E33.40007
G0 F6000 X109.828 Y102.474
G1 F1200 X107.147 Y99.793 E33.52617
G0 F6000 X107.147 Y100.358
G1 F1200 X109.828 Y103.04 E33.6523
G0 F6000 X109.828 Y103.605
G1 F1200 X107.147 Y100.924 E33.77841
G0 F6000 X107.147 Y101.49
G1 F1200 X109.828 Y104.171 E33.90451
G0 F6000 X109.955 Y104.863
G1 F1200 X107.147 Y102.056 E34.03657
G1 F2700 E29.03657
G0 F6000 X106.689 Y102.056
G0 X106.76 Y88.117
G0 X122.447 Y88.046
G1 F2700 E34.03657
G0 F6000 X122.447 Y88.506
G1 F1200 X124.827 Y90.886 E34.14852
G0 F6000 X124.827 Y90.32
G1 F1200 X123.013 Y88.506 E34.23384
G0 F6000 X123.578 Y88.506
G1 F1200 X124.827 Y89.755 E34.29259
G0 F6000 X124.827 Y89.189
G1 F1200 X124.144 Y88.506 E34.32472
G0 F6000 X124.71 Y88.506
G1 F1200 X124.827 Y88.623 E34.33022
G1 F2700 E29.33022
G0 F6000 X124.827 Y88.046
G0 X125.216 Y88.118
G0 X125.216 Y91.57
G0 X110.557 Y91.914
G0 X110.557 Y104.776
G0 X125.216 Y105.121
G0 X125.216 Y109.571
G0 X110.557 Y109.915
G0 X110.557 Y122.776
G0 X124.639 Y123.048
G1 F2700 E34.33022
G0 F6000 X124.639 Y123.508
G1 F1200 X124.827 Y123.696 E34.33906
G0 F6000 X124.827 Y124.261
G1 F1200 X124.073 Y123.508 E34.37451
G0 F6000 X123.508 Y123.508
G1 F1200 X124.827 Y124.827 E34.43655
G0 F6000 X124.827 Y125.393
G1 F1200 X122.942 Y123.508 E34.52521
G0 F6000 X122.376 Y123.508
G1 F1200 X124.827 Y125.959 E34.6405
G0 F6000 X124.486 Y126.183
G1 F1200 X121.81 Y123.507 E34.76637
G0 F6000 X121.244 Y123.507
G1 F1200 X123.921 Y126.183 E34.89226
G0 F6000 X123.355 Y126.183
G1 F1200 X120.679 Y123.507 E35.01814
G0 F6000 X120.113 Y123.507
G1 F1200 X122.789 Y126.183 E35.14401
G0 F6000 X122.224 Y126.183
G1 F1200 X119.547 Y123.507 E35.2699
G0 F6000 X118.981 Y123.506
G1 F1200 X121.658 Y126.183 E35.39582
G0 F6000 X121.092 Y126.183
G1 F1200 X118.415 Y123.506 E35.52174
G0 F6000 X117.849 Y123.506
G1 F1200 X120.527 Y126.183 E35.64768
G0 F6000 X119.961 Y126.183
G1 F1200 X117.284 Y123.506 E35.7736
G0 F6000 X116.718 Y123.506
G1 F1200 X119.395 Y126.183 E35.89951
G0 F6000 X118.83 Y126.183
G1 F1200 X116.152 Y123.506 E36.02546
G0 F6000 X115.586 Y123.506
G1 F1200 X118.264 Y126.183 E36.1514
G0 F6000 X117.698 Y126.183
G1 F1200 X115.02 Y123.506 E36.27734
G0 F6000 X114.455 Y123.506
G1 F1200 X117.132 Y126.183 E36.40326
G0 F6000 X116.567 Y126.183
G1 F1200 X113.889 Y123.506 E36.5292
G0 F6000 X113.323 Y123.505
G1 F1200 X116.001 Y126.183 E36.65516
G0 F6000 X115.435 Y126.183
G1 F1200 X112.757 Y123.505 E36.78113
G0 F6000 X112.191 Y123.505
G1 F1200 X114.87 Y126.183 E36.90712
G0 F6000 X114.304 Y126.183
G1 F1200 X111.625 Y123.505 E37.0331
G0 F6000 X111.06 Y123.505
G1 F1200 X113.738 Y126.183 E37.15907
G1 F2700 E32.15907
G0 F6000 X113.738 Y126.645
G0 X118.205 Y126.925
G0 X118.205 Y128.01
G0 X117.03 Y132.135
G0 X118.153 Y146.31
;TYPE:WALL-INNER
G1 F2700 E37.15907
G1 F1200 X127.852 Y139.986 E37.54417
G1 X122.884 Y137.056 E37.73601
G1 X116.718 Y133.419 E37.97411
G1 X118.153 Y146.31 E38.40551
G0 F6000 X117.827 Y147
;TYPE:WALL-OUTER
G1 F1200 X128.61 Y139.969 E38.83366
G1 X123.087 Y136.712 E39.04692
G1 X116.232 Y132.668 E39.31164
G1 X117.827 Y147 E39.79126
G0 F6000 X118.032 Y146.565
G0 X118.188 Y145.718
G0 X118.446 Y145.689
;TYPE:SKIN
G1 F1200 X122.824 Y142.834 E39.9651
G1 X127.17 Y140.001 E40.13765
G1 X117.159 Y134.098 E40.52419
G1 X118.446 Y145.689 E40.91208
G0 F6000 X118.697 Y145.284
G1 F1200 X118.59 Y145.177 E40.91711
G0 F6000 X119.04 Y145.061
G1 F1200 X118.519 Y144.541 E40.9416
G0 F6000 X118.448 Y143.904
G1 F1200 X119.382 Y144.838 E40.98553
G0 F6000 X119.724 Y144.614
G1 F1200 X118.378 Y143.268 E41.04884
G0 F6000 X118.307 Y142.631
G1 F1200 X120.067 Y144.391 E41.13162
G0 F6000 X120.409 Y144.168
G1 F1200 X118.236 Y141.995 E41.23384
G0 F6000 X118.166 Y141.359
G1 F1200 X120.751 Y143.945 E41.35545
G0 F6000 X121.094 Y143.721
G1 F1200 X118.095 Y140.722 E41.49651
G0 F6000 X118.024 Y140.086
G1 F1200 X121.437 Y143.498 E41.65703
G0 F6000 X121.779 Y143.275
G1 F1200 X117.953 Y139.449 E41.83699
G0 F6000 X117.883 Y138.813
G1 F1200 X122.121 Y143.051 E42.03633
G0 F6000 X122.464 Y142.829
G1 F1200 X117.812 Y138.177 E42.25515
G0 F6000 X117.741 Y137.54
G1 F1200 X122.806 Y142.605 E42.49339
G0 F6000 X123.149 Y142.382
G1 F1200 X117.671 Y136.904 E42.75106
G0 F6000 X117.6 Y136.267
G1 F1200 X123.491 Y142.159 E43.02818
G0 F6000 X123.834 Y141.936
G1 F1200 X117.529 Y135.631 E43.32475
G0 F6000 X117.458 Y134.995
G1 F1200 X124.176 Y141.712 E43.64072
G0 F6000 X124.518 Y141.489
G1 F1200 X117.649 Y134.619 E43.96384
G0 F6000 X117.883 Y134.223
G0 X119.261 Y135.036
G0 X119.027 Y135.432
G1 F1200 X124.861 Y141.266 E44.23825
G0 F6000 X125.203 Y141.043
G1 F1200 X120.406 Y136.245 E44.46391
G0 F6000 X120.64 Y135.849
G0 X122.017 Y136.662
G0 X121.784 Y137.057
G1 F1200 X125.546 Y140.819 E44.64086
G0 F6000 X125.889 Y140.596
G1 F1200 X123.162 Y137.87 E44.76911
G0 F6000 X123.395 Y137.475
G0 X124.773 Y138.287
G0 X124.54 Y138.682
G1 F1200 X126.231 Y140.373 E44.84865
G0 F6000 X126.573 Y140.149
G1 F1200 X125.919 Y139.495 E44.87941
G1 F2700 E39.87941
;MESH:NONMESH
G0 F300 X125.919 Y139.495 Z0.4
G0 F6000 X126.152 Y139.1
G0 X120.33 Y135.318
G0 X120.871 Y134.4
G0 X120.33 Y128.01
G0 X125.388 Y126.745
;TIME_ELAPSED:92.375918
;LAYER:1
M106 S85
;TYPE:WALL-INNER
;MESH:LETRA ??.stl
G1 F2700 E44.87941
G1 F1350 X125.388 Y124.847 E44.94254
G1 X125.388 Y122.948 E45.0057
G1 X110.985 Y122.948 E45.48474
G1 X110.677 Y122.864 E45.49536
G1 X110.469 Y122.656 E45.50515
