;FLAVOR:Marlin
;TIME:634
;Filament used: 0.383722m
;Layer height: 0.2
;MINX:106.188
;MINY:87.545
;MINZ:0.2
;MAXX:128.61
;MAXY:147
;MAXZ:2
;Generated with Cura_SteamEngine 5.2.2
M140 S50
M105
M190 S50
M104 S200
M105
M109 S200
M82 ;absolute extrusion mode
; Ender 3 Custom Start G-code
G92 E0 ; Reset Extruder
G28 ; Home all axes
G1 Z2.0 F3000 ; Move Z Axis up little to prevent scratching of Heat Bed
G1 X0.1 Y20 Z0.3 F5000.0 ; Move to start position
G1 X0.1 Y200.0 Z0.3 F1500.0 E15 ; Draw the first line
G1 X0.4 Y200.0 Z0.3 F5000.0 ; Move to side a little
G1 X0.4 Y20 Z0.3 F1500.0 E30 ; Draw the second line
G92 E0 ; Reset Extruder
G1 Z2.0 F3000 ; Move Z Axis up little to prevent scratching of Heat Bed
G1 X5 Y20 Z0.3 F5000.0 ; Move over to prevent blob squish
G92 E0
G92 E0
G1 F2700 E-5
;LAYER_COUNT:10
;LAYER:0
M107
;MESH:LETRA ??.stl
G0 F6000 X125.388 Y126.745 Z0.2
;TYPE:WALL-INNER
G1 F2700 E0
G1 F1200 X125.388 Y123.847 E0.09639
G1 X125.388 Y120.949 E0.19278
G1 X118.896 Y120.948 E0.4087
G1 X118.739 Y120.896 E0.4142
G1 X118.55 Y120.763 E0.42189
G1 X118.443 Y120.607 E0.42818
G1 X118.387 Y120.401 E0.43528
G1 X118.385 Y93.343 E1.33523
G1 X118.423 Y93.132 E1.34236
G1 X118.505 Y92.982 E1.34805
G1 X118.702 Y92.813 E1.35668
G1 X118.884 Y92.743 E1.36317
G1 X125.388 Y92.743 E1.57949
G1 X125.388 Y87.945 E1.73907
G1 X106.588 Y87.945 E2.36436
G1 X106.588 Y92.743 E2.52395
G1 X113.091 Y92.743 E2.74024
G1 X113.273 Y92.813 E2.74672
G1 X113.471 Y92.982 E2.75538
G1 X113.552 Y93.132 E2.76105
G1 X113.591 Y93.343 E2.76819
G1 X113.588 Y120.401 E3.66814
G1 X113.532 Y120.607 E3.67524
G1 X113.425 Y120.763 E3.68153
G1 X113.236 Y120.896 E3.68922
G1 X113.068 Y120.948 E3.69507
G1 X106.589 Y120.949 E3.91056
G1 X106.589 Y126.745 E4.10334
G1 X125.388 Y126.745 E4.72859
G0 F6000 X125.788 Y127.145
;TYPE:WALL-OUTER
G1 F1200 X125.788 Y123.847 E4.83829
G1 X125.788 Y120.549 E4.94798
G1 X118.942 Y120.544 E5.17568
G1 X118.84 Y120.487 E5.17956
G1 X118.785 Y120.366 E5.18398
G1 X118.788 Y93.306 E6.084
G1 X118.825 Y93.222 E6.08706
G1 X118.95 Y93.145 E6.09194
G1 X125.788 Y93.143 E6.31937
G1 X125.788 Y87.545 E6.50556
G1 X106.188 Y87.545 E7.15746
G1 X106.188 Y93.143 E7.34365
G1 X113.024 Y93.143 E7.57102
G1 X113.151 Y93.222 E7.57599
G1 X113.191 Y93.343 E7.58023
G1 X113.19 Y120.366 E8.47902
G1 X113.135 Y120.487 E8.48344
G1 X113.025 Y120.546 E8.48759
G1 X106.189 Y120.549 E8.71496
G1 X106.189 Y127.145 E8.93434
G1 X125.788 Y127.145 E9.58621
G0 F6000 X125.518 Y126.875
G0 X125.288 Y126.385
G0 X125.028 Y126.385
;TYPE:SKIN
G1 F1200 X125.028 Y121.309 E9.75504
G1 X118.989 Y121.309 E9.95589
G1 X118.593 Y121.228 E9.96934
G1 X118.289 Y121.018 E9.98163
G1 X118.119 Y120.766 E9.99174
G1 X118.027 Y120.438 E10.00307
G1 X118.025 Y93.209 E10.90871
G1 X118.198 Y92.79 E10.92378
G1 X118.244 Y92.734 E10.92619
G1 X118.525 Y92.495 E10.93846
G1 X118.821 Y92.385 E10.94897
G1 X125.028 Y92.383 E11.15541
G1 X125.028 Y88.305 E11.29105
G1 X106.948 Y88.305 E11.89239
G1 X106.948 Y92.383 E12.02803
G1 X113.031 Y92.388 E12.23035
G1 X113.441 Y92.487 E12.24438
G1 X113.759 Y92.764 E12.2584
G1 X113.891 Y93.008 E12.26763
G1 X113.951 Y93.333 E12.27862
G1 X113.95 Y120.373 E13.17798
G1 X113.856 Y120.768 E13.19148
G1 X113.682 Y121.022 E13.20172
G1 X113.418 Y121.205 E13.2124
G1 X113.138 Y121.306 E13.2223
G1 X106.949 Y121.309 E13.42815
G1 X106.949 Y126.385 E13.59698
G1 X125.028 Y126.385 E14.19829
G0 F6000 X125.288 Y126.385
G0 X106.761 Y126.573
G0 X106.689 Y126.183
G0 X107.516 Y126.183
G1 F1200 X107.148 Y125.816 E14.21558
G0 F6000 X107.148 Y125.25
G1 F1200 X108.081 Y126.183 E14.25946
G0 F6000 X108.647 Y126.183
G1 F1200 X107.148 Y124.684 E14.32997
G0 F6000 X107.148 Y124.119
G1 F1200 X109.213 Y126.183 E14.42708
G0 F6000 X109.779 Y126.183
G1 F1200 X107.148 Y123.553 E14.55081
G0 F6000 X107.148 Y122.987
G1 F1200 X110.344 Y126.183 E14.70114
G0 F6000 X110.91 Y126.183
G1 F1200 X107.148 Y122.422 E14.87807
G0 F6000 X107.148 Y121.856
G1 F1200 X111.476 Y126.183 E15.08162
G0 F6000 X112.041 Y126.183
G1 F1200 X107.366 Y121.508 E15.30152
G0 F6000 X107.931 Y121.507
G1 F1200 X112.607 Y126.183 E15.52146
G0 F6000 X113.173 Y126.183
G1 F1200 X108.496 Y121.507 E15.74143
G0 F6000 X109.062 Y121.507
G1 F1200 X113.738 Y126.183 E15.96138
G0 F6000 X114.304 Y126.183
G1 F1200 X109.627 Y121.506 E16.18137
G0 F6000 X110.191 Y121.505
G1 F1200 X114.87 Y126.183 E16.40143
G0 F6000 X115.435 Y126.183
G1 F1200 X110.756 Y121.504 E16.62151
G0 F6000 X111.321 Y121.504
G1 F1200 X116.001 Y126.183 E16.84162
G0 F6000 X116.567 Y126.183
G1 F1200 X111.886 Y121.503 E17.06178
G0 F6000 X112.452 Y121.503
G1 F1200 X117.132 Y126.183 E17.28191
G0 F6000 X117.698 Y126.183
G1 F1200 X113.017 Y121.502 E17.50209
G0 F6000 X113.482 Y121.401
G1 F1200 X118.264 Y126.183 E17.72702
G0 F6000 X118.83 Y126.183
G1 F1200 X113.817 Y121.171 E17.9628
G0 F6000 X114.047 Y120.836
G1 F1200 X119.395 Y126.183 E18.21433
G0 F6000 X119.961 Y126.183
G1 F1200 X114.15 Y120.372 E18.48766
G0 F6000 X114.15 Y119.807
G1 F1200 X120.527 Y126.183 E18.78759
G0 F6000 X121.092 Y126.183
G1 F1200 X114.15 Y119.241 E19.11412
G0 F6000 X114.15 Y118.675
G1 F1200 X121.658 Y126.183 E19.46727
G0 F6000 X122.224 Y126.183
G1 F1200 X114.15 Y118.11 E19.84703
G0 F6000 X114.15 Y117.544
G1 F1200 X122.789 Y126.183 E20.25338
G0 F6000 X123.355 Y126.183
G1 F1200 X118.607 Y121.436 E20.47669
G0 F6000 X119.246 Y121.509
G1 F1200 X123.921 Y126.183 E20.69656
G0 F6000 X124.486 Y126.183
G1 F1200 X119.812 Y121.509 E20.91641
G0 F6000 X120.377 Y121.509
G1 F1200 X124.827 Y125.959 E21.12572
G0 F6000 X124.827 Y125.393
G1 F1200 X120.943 Y121.509 E21.30842
G0 F6000 X121.509 Y121.509
G1 F1200 X124.827 Y124.827 E21.46448
G0 F6000 X124.827 Y124.261
G1 F1200 X122.074 Y121.509 E21.59395
G0 F6000 X122.64 Y121.509
G1 F1200 X124.827 Y123.696 E21.69682
G0 F6000 X124.827 Y123.13
G1 F1200 X123.206 Y121.509 E21.77307
G0 F6000 X123.771 Y121.509
G1 F1200 X124.827 Y122.564 E21.82272
G0 F6000 X124.827 Y121.999
G1 F1200 X124.337 Y121.509 E21.84577
G0 F6000 X124.337 Y121.049
G0 X118.557 Y120.776
G0 X118.327 Y120.577
G0 X117.898 Y120.727
G1 F1200 X114.15 Y116.978 E22.02208
G0 F6000 X114.15 Y116.413
G1 F1200 X117.828 Y120.09 E22.19506
G0 F6000 X117.828 Y119.525
G1 F1200 X114.15 Y115.847 E22.36806
G0 F6000 X114.15 Y115.281
G1 F1200 X117.828 Y118.959 E22.54107
G0 F6000 X117.828 Y118.393
G1 F1200 X114.15 Y114.716 E22.71404
G0 F6000 X114.15 Y114.15
G1 F1200 X117.828 Y117.828 E22.88705
G0 F6000 X117.828 Y117.262
G1 F1200 X114.15 Y113.584 E23.06005
G0 F6000 X114.15 Y113.018
G1 F1200 X117.828 Y116.696 E23.23305
G0 F6000 X117.828 Y116.13
G1 F1200 X114.15 Y112.453 E23.40603
G0 F6000 X114.15 Y111.887
G1 F1200 X117.827 Y115.564 E23.57898
G0 F6000 X117.827 Y114.998
G1 F1200 X114.15 Y111.321 E23.75194
G0 F6000 X114.15 Y110.756
G1 F1200 X117.827 Y114.433 E23.92489
G0 F6000 X117.827 Y113.867
G1 F1200 X114.15 Y110.19 E24.09785
G0 F6000 X114.15 Y109.624
G1 F1200 X117.827 Y113.301 E24.2708
G0 F6000 X117.827 Y112.736
G1 F1200 X114.15 Y109.059 E24.44376
G0 F6000 X114.15 Y108.493
G1 F1200 X117.827 Y112.17 E24.61671
G0 F6000 X117.827 Y111.604
G1 F1200 X114.15 Y107.927 E24.78967
G0 F6000 X114.15 Y107.362
G1 F1200 X117.826 Y111.038 E24.96257
G0 F6000 X117.826 Y110.472
G1 F1200 X114.15 Y106.796 E25.13548
G0 F6000 X114.15 Y106.23
G1 F1200 X117.826 Y109.907 E25.30841
G0 F6000 X117.826 Y109.341
G1 F1200 X114.15 Y105.665 E25.48132
G0 F6000 X114.15 Y105.099
G1 F1200 X117.826 Y108.775 E25.65423
G0 F6000 X117.826 Y108.209
G1 F1200 X114.15 Y104.533 E25.82714
G0 F6000 X114.15 Y103.968
G1 F1200 X117.826 Y107.644 E26.00004
G0 F6000 X117.826 Y107.078
G1 F1200 X114.15 Y103.402 E26.17295
G0 F6000 X114.15 Y102.836
G1 F1200 X117.825 Y106.512 E26.34584
G0 F6000 X117.825 Y105.946
G1 F1200 X114.15 Y102.27 E26.51872
G0 F6000 X114.15 Y101.705
G1 F1200 X117.825 Y105.38 E26.69158
G0 F6000 X117.825 Y104.815
G1 F1200 X114.15 Y101.139 E26.86447
G0 F6000 X114.15 Y100.573
G1 F1200 X117.825 Y104.249 E27.03735
G0 F6000 X117.825 Y103.683
G1 F1200 X114.15 Y100.008 E27.21021
G0 F6000 X114.15 Y99.442
G1 F1200 X117.825 Y103.118 E27.3831
G0 F6000 X117.825 Y102.552
G1 F1200 X114.15 Y98.876 E27.55598
G0 F6000 X114.15 Y98.311
G1 F1200 X117.825 Y101.986 E27.72884
G0 F6000 X117.825 Y101.42
G1 F1200 X114.15 Y97.745 E27.9017
G0 F6000 X114.15 Y97.179
G1 F1200 X117.825 Y100.854 E28.07456
G0 F6000 X117.825 Y100.288
G1 F1200 X114.15 Y96.614 E28.2474
G0 F6000 X114.15 Y96.048
G1 F1200 X117.825 Y99.723 E28.42026
G0 F6000 X117.825 Y99.157
G1 F1200 X114.15 Y95.482 E28.59312
G0 F6000 X114.15 Y94.917
G1 F1200 X117.825 Y98.591 E28.76596
G0 F6000 X117.825 Y98.026
G1 F1200 X114.15 Y94.351 E28.93882
G0 F6000 X114.15 Y93.785
G1 F1200 X117.824 Y97.459 E29.11163
G0 F6000 X117.824 Y96.894
G1 F1200 X114.125 Y93.195 E29.28562
G0 F6000 X113.691 Y93.432
G0 X113.082 Y92.654
G0 X113.137 Y92.206
G1 F1200 X109.435 Y88.505 E29.45973
G0 F6000 X108.869 Y88.505
G1 F1200 X112.547 Y92.182 E29.63271
G0 F6000 X111.981 Y92.182
G1 F1200 X108.304 Y88.505 E29.80566
G0 F6000 X107.738 Y88.505
G1 F1200 X111.415 Y92.182 E29.97862
G0 F6000 X110.85 Y92.182
G1 F1200 X107.172 Y88.505 E30.1516
G0 F6000 X107.147 Y89.045
G1 F1200 X110.284 Y92.182 E30.29915
G0 F6000 X109.718 Y92.182
G1 F1200 X107.147 Y89.61 E30.42011
G0 F6000 X107.147 Y90.176
G1 F1200 X109.153 Y92.182 E30.51446
G0 F6000 X108.587 Y92.182
G1 F1200 X107.147 Y90.742 E30.58219
G0 F6000 X107.147 Y91.307
G1 F1200 X108.021 Y92.182 E30.62333
G0 F6000 X107.456 Y92.182
G1 F1200 X107.147 Y91.873 E30.63786
G0 F6000 X106.688 Y91.873
G0 X106.76 Y88.117
G0 X110.001 Y88.045
G0 X110.001 Y88.505
G1 F1200 X117.824 Y96.328 E31.00583
G0 F6000 X117.824 Y95.762
G1 F1200 X110.566 Y88.505 E31.3472
G0 F6000 X111.132 Y88.505
G1 F1200 X117.824 Y95.197 E31.66197
G0 F6000 X117.824 Y94.631
G1 F1200 X111.698 Y88.505 E31.95012
G0 F6000 X112.263 Y88.505
G1 F1200 X117.824 Y94.065 E32.21167
G0 F6000 X117.824 Y93.5
G1 F1200 X112.829 Y88.505 E32.44662
G0 F6000 X113.395 Y88.505
G1 F1200 X117.893 Y93.003 E32.65819
G0 F6000 X118.071 Y92.616
G1 F1200 X113.96 Y88.505 E32.85156
G0 F6000 X114.526 Y88.505
G1 F1200 X118.378 Y92.356 E33.03272
G0 F6000 X118.777 Y92.19
G1 F1200 X115.092 Y88.505 E33.20606
G0 F6000 X115.657 Y88.505
G1 F1200 X119.339 Y92.186 E33.37922
G0 F6000 X119.904 Y92.186
G1 F1200 X116.223 Y88.505 E33.55237
G0 F6000 X116.789 Y88.505
G1 F1200 X120.47 Y92.186 E33.72551
G0 F6000 X121.035 Y92.185
G1 F1200 X117.354 Y88.505 E33.89863
G0 F6000 X117.92 Y88.505
G1 F1200 X121.6 Y92.184 E34.0717
G0 F6000 X122.166 Y92.184
G1 F1200 X118.486 Y88.505 E34.24477
G0 F6000 X119.052 Y88.505
G1 F1200 X122.731 Y92.184 E34.41782
G0 F6000 X123.296 Y92.183
G1 F1200 X119.617 Y88.505 E34.59085
G0 F6000 X120.183 Y88.505
G1 F1200 X123.861 Y92.183 E34.76385
G0 F6000 X124.426 Y92.182
G1 F1200 X120.749 Y88.505 E34.9368
G0 F6000 X121.314 Y88.505
G1 F1200 X124.827 Y92.017 E35.10202
G0 F6000 X124.827 Y91.452
G1 F1200 X121.88 Y88.505 E35.24064
G0 F6000 X122.446 Y88.505
G1 F1200 X124.827 Y90.886 E35.35263
G0 F6000 X124.827 Y90.32
G1 F1200 X123.011 Y88.505 E35.43803
G0 F6000 X123.577 Y88.505
G1 F1200 X124.827 Y89.755 E35.49683
G0 F6000 X124.827 Y89.189
G1 F1200 X124.143 Y88.505 E35.529
G0 F6000 X124.708 Y88.505
G1 F1200 X124.827 Y88.623 E35.53457
G1 F2700 E30.53457
G0 F6000 X125.288 Y88.623
G0 X125.216 Y92.571
G0 X118.557 Y92.915
G0 X118.557 Y120.776
G0 X125.216 Y121.121
G0 X125.216 Y126.573
G0 X118.205 Y126.925
G0 X118.205 Y128.01
G0 X117.03 Y132.135
G0 X118.153 Y146.31
;TYPE:WALL-INNER
G1 F2700 E35.53457
G1 F1200 X123.02 Y143.136 E35.72783
G1 X127.852 Y139.986 E35.91968
G1 X116.718 Y133.419 E36.34961
G1 X118.153 Y146.31 E36.78102
G0 F6000 X117.827 Y147
;TYPE:WALL-OUTER
G1 F1200 X123.238 Y143.471 E36.99588
G1 X128.61 Y139.969 E37.20917
G1 X116.232 Y132.668 E37.68714
G1 X117.827 Y147 E38.16677
G0 F6000 X118.032 Y146.565
G0 X118.188 Y145.718
G0 X118.446 Y145.689
;TYPE:SKIN
G1 F1200 X122.824 Y142.834 E38.34061
G1 X127.17 Y140.001 E38.51315
G1 X117.159 Y134.098 E38.8997
G1 X118.446 Y145.689 E39.28758
G0 F6000 X118.697 Y145.284
G1 F1200 X118.59 Y145.177 E39.29262
G0 F6000 X119.04 Y145.061
G1 F1200 X118.519 Y144.541 E39.3171
G0 F6000 X118.448 Y143.904
G1 F1200 X119.382 Y144.838 E39.36103
G0 F6000 X119.724 Y144.614
G1 F1200 X118.378 Y143.268 E39.42434
G0 F6000 X118.307 Y142.631
G1 F1200 X120.067 Y144.391 E39.50713
G0 F6000 X120.409 Y144.168
G1 F1200 X118.236 Y141.995 E39.60934
G0 F6000 X118.166 Y141.359
G1 F1200 X120.751 Y143.945 E39.73095
G0 F6000 X121.094 Y143.721
G1 F1200 X118.095 Y140.722 E39.87202
G0 F6000 X118.024 Y140.086
G1 F1200 X121.437 Y143.498 E40.03253
G0 F6000 X121.779 Y143.275
G1 F1200 X117.953 Y139.449 E40.21249
G0 F6000 X117.883 Y138.813
G1 F1200 X122.121 Y143.051 E40.41184
G0 F6000 X122.464 Y142.829
G1 F1200 X117.812 Y138.177 E40.63065
G0 F6000 X117.741 Y137.54
G1 F1200 X122.806 Y142.605 E40.86889
G0 F6000 X123.149 Y142.382
G1 F1200 X117.671 Y136.904 E41.12656
G0 F6000 X117.6 Y136.267
G1 F1200 X123.491 Y142.159 E41.40368
G0 F6000 X123.834 Y141.936
G1 F1200 X117.529 Y135.631 E41.70025
G0 F6000 X117.458 Y134.995
G1 F1200 X124.176 Y141.712 E42.01622
G0 F6000 X124.518 Y141.489
G1 F1200 X117.649 Y134.619 E42.33934
G0 F6000 X117.883 Y134.223
G0 X119.261 Y135.036
G0 X119.027 Y135.432
G1 F1200 X124.861 Y141.266 E42.61375
G0 F6000 X125.203 Y141.043
G1 F1200 X120.406 Y136.245 E42.83941
G0 F6000 X120.64 Y135.849
G0 X122.017 Y136.662
G0 X121.784 Y137.057
G1 F1200 X125.546 Y140.819 E43.01637
G0 F6000 X125.889 Y140.596
G1 F1200 X123.162 Y137.87 E43.14461
G0 F6000 X123.395 Y137.475
G0 X124.773 Y138.287
G0 X124.54 Y138.682
G1 F1200 X126.231 Y140.373 E43.22415
G0 F6000 X126.573 Y140.149
G1 F1200 X125.919 Y139.495 E43.25491
G1 F2700 E38.25491
;MESH:NONMESH
G0 F300 X125.919 Y139.495 Z0.4
G0 F6000 X126.152 Y139.1
G0 X120.33 Y135.318
G0 X120.871 Y134.4
G0 X120.33 Y128.01
G0 X125.388 Y126.745
;TIME_ELAPSED:84.967721
;LAYER:1
M106 S85
;TYPE:WALL-INNER
;MESH:LETRA ??.stl
G1 F2700 E43.25491
G1 F1350 X125.388 Y123.847 E43.3513
G1 X125.388 Y120.949 E43.44769
G1 X118.896 Y120.948 E43.66361
G1 X118.739 Y120.896 E43.66911
G1 X118.55 Y120.763 E43.6768
G1 X118.443 Y120.607 E43.68309
G1 X118.387 Y120.401 E43.69019
G1 X118.385 Y93.343 E44.59015
G1 X118.423 Y93.132 E44.59728
G1 X118.505 Y92.982 E44.60296
G1 X118.702 Y92.813 E44.6116
G1 X118.884 Y92.743 E44.61808
G1 X125.388 Y92.743 E44.83441
G1 X125.388 Y87.945 E44.99399
G1 X106.588 Y87.945 E45.61928
G1 X106.588 Y92.743 E45.77886
G1 X113.091 Y92.743 E45.99515
G1 X113.273 Y92.813 E46.00164
G1 X113.471 Y92.982 E46.01029
G1 X113.552 Y93.132 E46.01596
G1 X113.591 Y93.343 E46.0231
G1 X113.588 Y120.401 E46.92305
G1 X113.532 Y120.607 E46.93015
G1 X113.425 Y120.763 E46.93645
G1 X113.236 Y120.896 E46.94413
G1 X113.068 Y120.948 E46.94998
G1 X106.589 Y120.949 E47.16547
G1 X106.589 Y126.745 E47.35825
G1 X125.388 Y126.745 E47.98351
G0 F7500 X125.788 Y127.145
;TYPE:WALL-OUTER
G1 F1350 X125.788 Y123.847 E48.0932
G1 X125.788 Y120.549 E48.20289
G1 X118.942 Y120.544 E48.43059
G1 X118.84 Y120.487 E48.43448
G1 X118.785 Y120.366 E48.4389
G1 X118.788 Y93.306 E49.33892
G1 X118.825 Y93.222 E49.34197
G1 X118.95 Y93.145 E49.34685
G1 X125.788 Y93.143 E49.57429
G1 X125.788 Y87.545 E49.76048
G1 X106.188 Y87.545 E50.41237
G1 X106.188 Y93.143 E50.59856
G1 X113.024 Y93.143 E50.82593
G1 X113.151 Y93.222 E50.83091
G1 X113.191 Y93.343 E50.83514
G1 X113.19 Y120.366 E51.73393
G1 X113.135 Y120.487 E51.73835
G1 X113.025 Y120.546 E51.7425
G1 X106.189 Y120.549 E51.96987
G1 X106.189 Y127.145 E52.18925
G1 X125.788 Y127.145 E52.84112
G0 F7500 X125.518 Y126.875
G0 X125.288 Y126.385
G0 X125.028 Y126.385
;TYPE:SKIN
G1 F1350 X125.028 Y121.309 E53.00995
G1 X118.989 Y121.309 E53.21081
G1 X118.593 Y121.228 E53.22425
G1 X118.289 Y121.018 E53.23654
G1 X118.119 Y120.766 E53.24665
G1 X118.027 Y120.438 E53.25798
G1 X118.025 Y93.209 E54.16362
G1 X118.209 Y92.764 E54.17964
G1 X118.525 Y92.495 E54.19344
G1 X118.821 Y92.385 E54.20394
G1 X125.028 Y92.383 E54.41039
G1 X125.028 Y88.305 E54.54602
G1 X116.615 Y88.306 E54.82584
G1 X106.948 Y88.305 E55.14737
G1 X106.948 Y92.383 E55.283
G1 X113.031 Y92.388 E55.48532
G1 X113.441 Y92.487 E55.49935
G1 X113.759 Y92.764 E55.51338
G1 X113.891 Y93.008 E55.5226
