;FLAVOR:Marlin
;TIME:497
;Filament used: 0.296739m
;Layer height: 0.2
;MINX:107.701
;MINY:97.7
;MINZ:0.2
;MAXX:127.3
;MAXY:137.3
;MAXZ:2
;Generated with Cura_SteamEngine 5.2.2
M140 S50
M105
M190 S50
M104 S200
M105
M109 S200
M82 ;absolute extrusion mode
; Ender 3 Custom Start G-code
G92 E0 ; Reset Extruder
G28 ; Home all axes
G1 Z2.0 F3000 ; Move Z Axis up little to prevent scratching of Heat Bed
G1 X0.1 Y20 Z0.3 F5000.0 ; Move to start position
G1 X0.1 Y200.0 Z0.3 F1500.0 E15 ; Draw the first line
G1 X0.4 Y200.0 Z0.3 F5000.0 ; Move to side a little
G1 X0.4 Y20 Z0.3 F1500.0 E30 ; Draw the second line
G92 E0 ; Reset Extruder
G1 Z2.0 F3000 ; Move Z Axis up little to prevent scratching of Heat Bed
G1 X5 Y20 Z0.3 F5000.0 ; Move over to prevent blob squish
G92 E0
G92 E0
G1 F2700 E-5
;LAYER_COUNT:10
;LAYER:0
M107
;MESH:LETRA V.stl
G0 F6000 X111.993 Y136.899 Z0.2
;TYPE:WALL-INNER
G1 F2700 E0
G1 F1200 X116.897 Y108.443 E0.9604
G1 X116.961 Y108.265 E0.96669
G1 X117.076 Y108.117 E0.97293
G1 X117.358 Y107.968 E0.98354
G1 X117.634 Y107.968 E0.99272
G1 X117.916 Y108.116 E1.00331
G1 X118.032 Y108.265 E1.00959
G1 X118.095 Y108.443 E1.01587
G1 X123.006 Y136.9 E1.97634
G1 X126.9 Y136.9 E2.10586
G1 X126.9 Y134.729 E2.17807
G1 X126.9 Y134.531 E2.18465
G1 X120 Y98.1 E3.41789
G1 X114.999 Y98.1 E3.58423
G1 X108.106 Y134.561 E4.81841
G1 X108.102 Y136.899 E4.89617
G1 X111.993 Y136.899 E5.02558
G0 F6000 X112.33 Y137.299
;TYPE:WALL-OUTER
G1 F1200 X117.29 Y108.517 E5.99699
G1 X117.35 Y108.409 E6.0011
G1 X117.444 Y108.359 E6.00464
G1 X117.642 Y108.408 E6.01142
G1 X117.703 Y108.52 E6.01566
G1 X122.669 Y137.3 E6.98704
G1 X127.3 Y137.3 E7.14106
G1 X127.3 Y134.729 E7.22658
G1 X127.3 Y134.493 E7.23442
G1 X120.332 Y97.7 E8.47992
G1 X114.667 Y97.7 E8.66834
G1 X107.706 Y134.523 E9.91476
G1 X107.701 Y137.299 E10.0071
G1 X112.33 Y137.299 E10.16106
G0 F6000 X111.69 Y136.538
;TYPE:SKIN
G1 F1200 X116.541 Y108.38 E11.11139
G1 X116.643 Y108.087 E11.12171
G1 X116.85 Y107.838 E11.13248
G1 X117.078 Y107.687 E11.14158
G1 X117.324 Y107.613 E11.15012
G1 X117.704 Y107.612 E11.16276
G1 X117.914 Y107.687 E11.17018
G1 X118.169 Y107.854 E11.18031
G1 X118.359 Y108.117 E11.19111
G1 X118.452 Y108.383 E11.20048
G1 X123.308 Y136.54 E12.15081
G1 X126.54 Y136.54 E12.25831
G1 X126.54 Y134.728 E12.31857
G1 X126.54 Y134.563 E12.32406
G1 X119.702 Y98.461 E13.54617
G1 X115.297 Y98.461 E13.69268
G1 X108.466 Y134.597 E14.91585
G1 X108.463 Y136.538 E14.98041
G1 X111.69 Y136.538 E15.08774
G0 F6000 X111.945 Y136.582
G0 X109.184 Y136.799
G0 X109.184 Y136.337
G1 F1200 X108.663 Y135.816 E15.11225
G0 F6000 X108.664 Y135.251
G1 F1200 X109.75 Y136.337 E15.16333
G0 F6000 X110.315 Y136.337
G1 F1200 X108.665 Y134.686 E15.24096
G0 F6000 X108.743 Y134.199
G1 F1200 X110.881 Y136.337 E15.34153
G0 F6000 X111.447 Y136.337
G1 F1200 X108.834 Y133.724 E15.46444
G0 F6000 X108.924 Y133.248
G1 F1200 X111.593 Y135.917 E15.58998
G0 F6000 X111.676 Y135.434
G1 F1200 X109.013 Y132.772 E15.71521
G0 F6000 X109.103 Y132.296
G1 F1200 X111.759 Y134.952 E15.84014
G0 F6000 X111.842 Y134.469
G1 F1200 X109.193 Y131.82 E15.96474
G0 F6000 X109.284 Y131.345
G1 F1200 X111.925 Y133.987 E16.08899
G0 F6000 X112.009 Y133.505
G1 F1200 X109.373 Y130.869 E16.21298
G0 F6000 X109.463 Y130.394
G1 F1200 X112.091 Y133.022 E16.33659
G0 F6000 X112.175 Y132.54
G1 F1200 X109.553 Y129.918 E16.45993
G0 F6000 X109.643 Y129.442
G1 F1200 X112.258 Y132.057 E16.58293
G0 F6000 X112.341 Y131.574
G1 F1200 X109.733 Y128.966 E16.7056
G0 F6000 X109.823 Y128.491
G1 F1200 X112.424 Y131.091 E16.82792
G0 F6000 X112.507 Y130.609
G1 F1200 X109.913 Y128.015 E16.94993
G0 F6000 X110.003 Y127.539
G1 F1200 X112.59 Y130.126 E17.07162
G0 F6000 X112.673 Y129.644
G1 F1200 X110.092 Y127.063 E17.19302
G0 F6000 X110.182 Y126.587
G1 F1200 X112.757 Y129.162 E17.31414
G0 F6000 X112.84 Y128.679
G1 F1200 X110.272 Y126.111 E17.43493
G0 F6000 X110.363 Y125.636
G1 F1200 X112.923 Y128.197 E17.55537
G0 F6000 X113.006 Y127.714
G1 F1200 X110.452 Y125.16 E17.6755
G0 F6000 X110.542 Y124.684
G1 F1200 X113.089 Y127.231 E17.7953
G0 F6000 X113.172 Y126.748
G1 F1200 X110.632 Y124.208 E17.91478
G0 F6000 X110.722 Y123.733
G1 F1200 X113.255 Y126.266 E18.03392
G0 F6000 X113.338 Y125.783
G1 F1200 X110.812 Y123.257 E18.15274
G0 F6000 X110.902 Y122.782
G1 F1200 X113.422 Y125.301 E18.27125
G0 F6000 X113.505 Y124.819
G1 F1200 X110.992 Y122.306 E18.38945
G0 F6000 X111.082 Y121.83
G1 F1200 X113.588 Y124.336 E18.50733
G0 F6000 X113.671 Y123.853
G1 F1200 X111.172 Y121.354 E18.62487
G0 F6000 X111.261 Y120.878
G1 F1200 X113.754 Y123.371 E18.74213
G0 F6000 X113.837 Y122.888
G1 F1200 X111.352 Y120.403 E18.85902
G0 F6000 X111.442 Y119.927
G1 F1200 X113.92 Y122.405 E18.97558
G0 F6000 X114.003 Y121.923
G1 F1200 X111.531 Y119.451 E19.09185
G0 F6000 X111.621 Y118.975
G1 F1200 X114.086 Y121.44 E19.2078
G0 F6000 X114.17 Y120.958
G1 F1200 X111.711 Y118.499 E19.32346
G0 F6000 X111.801 Y118.023
G1 F1200 X114.253 Y120.476 E19.43882
G0 F6000 X114.336 Y119.993
G1 F1200 X111.891 Y117.548 E19.55383
G0 F6000 X111.981 Y117.072
G1 F1200 X114.419 Y119.51 E19.6685
G0 F6000 X114.502 Y119.027
G1 F1200 X112.071 Y116.596 E19.78285
G0 F6000 X112.161 Y116.121
G1 F1200 X114.585 Y118.545 E19.89687
G0 F6000 X114.668 Y118.062
G1 F1200 X112.251 Y115.645 E20.01056
G0 F6000 X112.34 Y115.169
G1 F1200 X114.752 Y117.58 E20.12399
G0 F6000 X114.834 Y117.097
G1 F1200 X112.431 Y114.694 E20.23701
G0 F6000 X112.521 Y114.218
G1 F1200 X114.918 Y116.615 E20.34976
G0 F6000 X115.001 Y116.133
G1 F1200 X112.61 Y113.742 E20.46223
G0 F6000 X112.7 Y113.266
G1 F1200 X115.084 Y115.65 E20.57436
G0 F6000 X115.167 Y115.167
G1 F1200 X112.79 Y112.79 E20.68617
G0 F6000 X112.881 Y112.315
G1 F1200 X115.25 Y114.684 E20.7976
G0 F6000 X115.334 Y114.202
G1 F1200 X112.97 Y111.839 E20.90877
G0 F6000 X113.06 Y111.363
G1 F1200 X115.416 Y113.719 E21.01959
G0 F6000 X115.5 Y113.237
G1 F1200 X113.15 Y110.887 E21.13013
G0 F6000 X113.24 Y110.411
G1 F1200 X115.583 Y112.755 E21.24036
G0 F6000 X115.666 Y112.272
G1 F1200 X113.33 Y109.936 E21.35024
G0 F6000 X113.42 Y109.46
G1 F1200 X115.749 Y111.79 E21.45981
G0 F6000 X115.832 Y111.307
G1 F1200 X113.51 Y108.984 E21.56905
G0 F6000 X113.6 Y108.509
G1 F1200 X115.916 Y110.824 E21.67797
G0 F6000 X115.998 Y110.341
G1 F1200 X113.69 Y108.033 E21.78653
G0 F6000 X113.779 Y107.557
G1 F1200 X116.082 Y109.859 E21.89483
G0 F6000 X116.164 Y109.376
G1 F1200 X113.869 Y107.081 E22.00278
G0 F6000 X113.96 Y106.606
G1 F1200 X116.248 Y108.894 E22.1104
G0 F6000 X116.331 Y108.412
G1 F1200 X114.049 Y106.13 E22.21774
G0 F6000 X114.139 Y105.654
G1 F1200 X116.481 Y107.996 E22.3279
G0 F6000 X116.736 Y107.685
G1 F1200 X114.229 Y105.178 E22.44582
G0 F6000 X114.319 Y104.702
G1 F1200 X117.091 Y107.475 E22.57623
G0 F6000 X117.594 Y107.412
G1 F1200 X114.409 Y104.227 E22.72604
G0 F6000 X114.499 Y103.751
G1 F1200 X121.902 Y111.154 E23.07426
G0 F6000 X122.034 Y111.852
G1 F1200 X118.673 Y108.49 E23.23237
G0 F6000 X118.79 Y109.173
G1 F1200 X122.166 Y112.55 E23.39119
G0 F6000 X122.299 Y113.248
G1 F1200 X118.908 Y109.857 E23.5507
G0 F6000 X119.026 Y110.541
G1 F1200 X122.431 Y113.946 E23.71086
G0 F6000 X122.563 Y114.643
G1 F1200 X119.144 Y111.225 E23.87165
G0 F6000 X119.262 Y111.908
G1 F1200 X122.695 Y115.341 E24.03313
G0 F6000 X122.827 Y116.039
G1 F1200 X119.38 Y112.591 E24.19529
G0 F6000 X119.498 Y113.275
G1 F1200 X122.96 Y116.737 E24.35813
G0 F6000 X123.092 Y117.435
G1 F1200 X119.615 Y113.958 E24.52168
G0 F6000 X119.733 Y114.642
G1 F1200 X123.224 Y118.133 E24.68589
G0 F6000 X123.356 Y118.831
G1 F1200 X119.851 Y115.326 E24.85075
G0 F6000 X119.969 Y116.01
G1 F1200 X123.489 Y119.529 E25.0163
G0 F6000 X123.621 Y120.227
G1 F1200 X120.087 Y116.693 E25.18253
G0 F6000 X120.205 Y117.376
G1 F1200 X123.753 Y120.925 E25.34944
G0 F6000 X123.885 Y121.623
G1 F1200 X120.323 Y118.06 E25.517
G0 F6000 X120.44 Y118.743
G1 F1200 X124.018 Y122.32 E25.68528
G0 F6000 X124.15 Y123.018
G1 F1200 X120.558 Y119.427 E25.85421
G0 F6000 X120.676 Y120.111
G1 F1200 X124.282 Y123.716 E26.0238
G0 F6000 X124.414 Y124.414
G1 F1200 X120.795 Y120.795 E26.19403
G0 F6000 X120.912 Y121.478
G1 F1200 X124.546 Y125.111 E26.36494
G0 F6000 X124.678 Y125.809
G1 F1200 X121.03 Y122.161 E26.53653
G0 F6000 X121.148 Y122.845
G1 F1200 X124.81 Y126.507 E26.70878
G0 F6000 X124.942 Y127.205
G1 F1200 X121.265 Y123.528 E26.88173
G0 F6000 X121.384 Y124.212
G1 F1200 X125.075 Y127.903 E27.05535
G0 F6000 X125.207 Y128.601
G1 F1200 X121.502 Y124.896 E27.22962
G0 F6000 X121.619 Y125.579
G1 F1200 X125.339 Y129.299 E27.4046
G0 F6000 X125.471 Y129.997
G1 F1200 X121.737 Y126.263 E27.58023
G0 F6000 X121.855 Y126.946
G1 F1200 X125.604 Y130.695 E27.75657
G0 F6000 X125.736 Y131.393
G1 F1200 X121.973 Y127.63 E27.93357
G0 F6000 X122.091 Y128.313
G1 F1200 X125.868 Y132.091 E28.11126
G0 F6000 X126 Y132.788
G1 F1200 X122.209 Y128.997 E28.28957
G0 F6000 X122.327 Y129.681
G1 F1200 X126.133 Y133.486 E28.46857
G0 F6000 X126.265 Y134.184
G1 F1200 X122.444 Y130.364 E28.64828
G0 F6000 X122.562 Y131.048
G1 F1200 X126.34 Y134.825 E28.82596
G0 F6000 X126.34 Y135.391
G1 F1200 X122.68 Y131.731 E28.99811
G0 F6000 X122.798 Y132.415
G1 F1200 X126.34 Y135.956 E29.1647
G0 F6000 X126.157 Y136.339
G1 F1200 X122.916 Y133.098 E29.31714
G0 F6000 X123.034 Y133.782
G1 F1200 X125.591 Y136.339 E29.43742
G0 F6000 X125.025 Y136.339
G1 F1200 X123.152 Y134.466 E29.52552
G0 F6000 X123.269 Y135.149
G1 F1200 X124.459 Y136.339 E29.58149
G0 F6000 X123.894 Y136.339
G1 F1200 X123.388 Y135.833 E29.60529
G1 F2700 E24.60529
G0 F6000 X122.936 Y135.909
G0 X123.149 Y136.73
G0 X126.728 Y136.728
G0 X126.705 Y134.366
G0 X122.223 Y110.371
G1 F2700 E29.60529
G0 F6000 X121.77 Y110.456
G1 F1200 X114.589 Y103.275 E29.94306
G0 F6000 X114.679 Y102.799
G1 F1200 X121.637 Y109.758 E30.27037
G0 F6000 X121.505 Y109.06
G1 F1200 X114.769 Y102.324 E30.58721
G0 F6000 X114.858 Y101.848
G1 F1200 X121.373 Y108.362 E30.89363
G0 F6000 X121.241 Y107.664
G1 F1200 X114.949 Y101.372 E31.18959
G0 F6000 X115.039 Y100.897
G1 F1200 X121.109 Y106.966 E31.47508
G0 F6000 X120.976 Y106.268
G1 F1200 X115.129 Y100.421 E31.7501
G0 F6000 X115.218 Y99.945
G1 F1200 X120.844 Y105.571 E32.01473
G0 F6000 X120.712 Y104.873
G1 F1200 X115.308 Y99.469 E32.26892
G0 F6000 X115.398 Y98.993
G1 F1200 X120.58 Y104.175 E32.51267
G0 F6000 X120.447 Y103.477
G1 F1200 X115.631 Y98.661 E32.7392
G0 F6000 X116.197 Y98.661
G1 F1200 X120.315 Y102.779 E32.93289
G0 F6000 X120.183 Y102.081
G1 F1200 X116.763 Y98.661 E33.09376
G0 F6000 X117.328 Y98.661
G1 F1200 X120.051 Y101.383 E33.22182
G0 F6000 X119.918 Y100.685
G1 F1200 X117.894 Y98.661 E33.31702
G0 F6000 X118.46 Y98.661
G1 F1200 X119.786 Y99.987 E33.37939
G0 F6000 X119.654 Y99.289
G1 F1200 X119.025 Y98.661 E33.40896
G1 F2700 E28.40896
;MESH:NONMESH
G0 F300 X119.025 Y98.661 Z0.4
G0 F6000 X119.025 Y98.2
G0 X119.86 Y98.27
G0 X126.739 Y134.547
G0 X126.728 Y136.728
G0 X123.149 Y136.73
G0 X117.847 Y107.875
G0 X117.134 Y108.068
G0 X111.849 Y136.729
G1 F2700 E33.40896
G0 F6000 X111.993 Y136.899
;TIME_ELAPSED:67.377975
;LAYER:1
M106 S85
;TYPE:WALL-INNER
;MESH:LETRA V.stl
G1 F1350 X116.897 Y108.443 E34.36936
G1 X116.961 Y108.265 E34.37565
G1 X117.076 Y108.117 E34.38188
G1 X117.358 Y107.968 E34.39249
G1 X117.634 Y107.968 E34.40167
G1 X117.916 Y108.116 E34.41226
G1 X118.032 Y108.265 E34.41854
G1 X118.095 Y108.443 E34.42482
G1 X123.006 Y136.9 E35.3853
G1 X126.9 Y136.9 E35.51481
G1 X126.9 Y134.729 E35.58702
G1 X126.9 Y134.531 E35.59361
G1 X120 Y98.1 E36.82685
G1 X114.999 Y98.1 E36.99318
G1 X108.106 Y134.561 E38.22736
G1 X108.102 Y136.899 E38.30512
G1 X111.993 Y136.899 E38.43454
G0 F7500 X112.33 Y137.299
;TYPE:WALL-OUTER
G1 F1350 X117.29 Y108.517 E39.40594
G1 X117.35 Y108.409 E39.41005
G1 X117.444 Y108.359 E39.41359
G1 X117.642 Y108.408 E39.42038
G1 X117.703 Y108.52 E39.42462
G1 X122.669 Y137.3 E40.39599
G1 X127.3 Y137.3 E40.55002
G1 X127.3 Y134.729 E40.63553
G1 X127.3 Y134.493 E40.64338
G1 X120.332 Y97.7 E41.88887
G1 X114.667 Y97.7 E42.07729
G1 X107.706 Y134.523 E43.32372
G1 X107.701 Y137.299 E43.41605
G1 X112.33 Y137.299 E43.57001
G0 F7500 X111.69 Y136.538
;TYPE:SKIN
G1 F1350 X116.541 Y108.38 E44.52035
G1 X116.643 Y108.087 E44.53067
G1 X116.85 Y107.838 E44.54144
G1 X117.078 Y107.687 E44.55053
G1 X117.324 Y107.613 E44.55908
G1 X117.704 Y107.612 E44.57171
G1 X117.914 Y107.687 E44.57913
G1 X118.169 Y107.854 E44.58927
G1 X118.359 Y108.117 E44.60006
G1 X118.452 Y108.383 E44.60943
G1 X123.308 Y136.54 E45.55976
G1 X126.54 Y136.54 E45.66726
G1 X126.54 Y134.728 E45.72753
G1 X126.54 Y134.563 E45.73302
G1 X119.702 Y98.461 E46.95512
G1 X115.297 Y98.461 E47.10163
G1 X108.466 Y134.597 E48.32481
G1 X108.463 Y136.538 E48.38937
G1 X111.69 Y136.538 E48.4967
G1 F2700 E43.4967
G0 F7500 X111.945 Y136.582
G0 X117.134 Y108.068
G0 X117.858 Y108.068
G0 X122.817 Y136.748
G0 X126.138 Y136.8
G1 F2700 E48.4967
G0 F7500 X126.138 Y136.339
G1 F1350 X126.339 Y136.138 E48.50615
G0 F7500 X126.339 Y135.572
G1 F1350 X125.572 Y136.339 E48.54223
G0 F7500 X125.007 Y136.339
G1 F1350 X126.339 Y135.007 E48.60488
G0 F7500 X126.317 Y134.463
G1 F1350 X124.441 Y136.339 E48.69312
G0 F7500 X123.875 Y136.339
G1 F1350 X126.227 Y133.987 E48.80375
G0 F7500 X126.137 Y133.512
G1 F1350 X123.451 Y136.197 E48.93007
G0 F7500 X123.368 Y135.715
G1 F1350 X126.047 Y133.036 E49.05608
G0 F7500 X125.956 Y132.561
G1 F1350 X123.285 Y135.232 E49.18172
G0 F7500 X123.202 Y134.75
G1 F1350 X125.867 Y132.085 E49.30707
G0 F7500 X125.776 Y131.61
G1 F1350 X123.118 Y134.268 E49.4321
G0 F7500 X123.035 Y133.785
G1 F1350 X125.686 Y131.134 E49.55679
G0 F7500 X125.597 Y130.658
G1 F1350 X122.952 Y133.303 E49.6812
G0 F7500 X122.868 Y132.82
G1 F1350 X125.506 Y130.183 E49.80526
G0 F7500 X125.416 Y129.707
G1 F1350 X122.786 Y132.337 E49.92897
G0 F7500 X122.702 Y131.855
G1 F1350 X125.326 Y129.232 E50.05237
G0 F7500 X125.236 Y128.756
G1 F1350 X122.619 Y131.373 E50.17547
G0 F7500 X122.536 Y130.89
G1 F1350 X125.145 Y128.281 E50.29819
G0 F7500 X125.056 Y127.805
G1 F1350 X122.453 Y130.408 E50.42062
G0 F7500 X122.369 Y129.925
G1 F1350 X124.966 Y127.329 E50.54276
G0 F7500 X124.875 Y126.854
G1 F1350 X122.287 Y129.442 E50.66449
G0 F7500 X122.203 Y128.96
G1 F1350 X124.785 Y126.378 E50.78594
G0 F7500 X124.695 Y125.903
G1 F1350 X122.12 Y128.478 E50.90706
G0 F7500 X122.037 Y127.995
G1 F1350 X124.605 Y125.427 E51.02785
G0 F7500 X124.515 Y124.952
G1 F1350 X121.953 Y127.513 E51.14833
G0 F7500 X121.87 Y127.031
G1 F1350 X124.425 Y124.476 E51.26851
G0 F7500 X124.335 Y124
G1 F1350 X121.787 Y126.548 E51.38836
G0 F7500 X121.704 Y126.065
G1 F1350 X124.245 Y123.525 E51.50786
G0 F7500 X124.155 Y123.049
G1 F1350 X121.62 Y125.583 E51.62707
G0 F7500 X121.538 Y125.1
G1 F1350 X124.064 Y122.574 E51.74589
G0 F7500 X123.974 Y122.098
G1 F1350 X121.454 Y124.618 E51.86442
G0 F7500 X121.371 Y124.136
G1 F1350 X123.885 Y121.622 E51.98267
G0 F7500 X123.794 Y121.147
G1 F1350 X121.288 Y123.653 E52.10055
G0 F7500 X121.205 Y123.17
G1 F1350 X123.704 Y120.671 E52.21809
G0 F7500 X123.614 Y120.196
G1 F1350 X121.121 Y122.688 E52.33533
G0 F7500 X121.039 Y122.205
G1 F1350 X123.524 Y119.72 E52.45222
G0 F7500 X123.433 Y119.245
G1 F1350 X120.955 Y121.723 E52.56878
G0 F7500 X120.872 Y121.241
G1 F1350 X123.344 Y118.769 E52.68505
G0 F7500 X123.254 Y118.293
G1 F1350 X120.789 Y120.758 E52.801
G0 F7500 X120.705 Y120.276
G1 F1350 X123.163 Y117.818 E52.91662
G0 F7500 X123.074 Y117.342
G1 F1350 X120.622 Y119.793 E53.03193
G0 F7500 X120.539 Y119.31
G1 F1350 X122.983 Y116.867 E53.14686
G0 F7500 X122.893 Y116.391
G1 F1350 X120.456 Y118.828 E53.26149
G0 F7500 X120.372 Y118.346
G1 F1350 X122.803 Y115.916 E53.37581
G0 F7500 X122.713 Y115.44
G1 F1350 X120.29 Y117.863 E53.48978
G0 F7500 X120.206 Y117.381
G1 F1350 X122.623 Y114.964 E53.60347
G0 F7500 X122.533 Y114.489
G1 F1350 X120.123 Y116.898 E53.71681
G0 F7500 X120.04 Y116.415
G1 F1350 X122.443 Y114.013 E53.82981
G0 F7500 X122.352 Y113.538
G1 F1350 X119.957 Y115.933 E53.94247
G0 F7500 X119.873 Y115.451
G1 F1350 X122.263 Y113.062 E54.05486
G0 F7500 X122.172 Y112.586
G1 F1350 X119.79 Y114.968 E54.1669
G0 F7500 X119.707 Y114.486
G1 F1350 X122.082 Y112.111 E54.27862
G0 F7500 X121.992 Y111.635
