;FLAVOR:Marlin
;TIME:701
;Filament used: 0.415727m
;Layer height: 0.2
;MINX:106.188
;MINY:87.545
;MINZ:0.2
;MAXX:128.61
;MAXY:147
;MAXZ:2
;Generated with Cura_SteamEngine 5.2.2
M140 S50
M105
M190 S50
M104 S200
M105
M109 S200
M82 ;absolute extrusion mode
; Ender 3 Custom Start G-code
G92 E0 ; Reset Extruder
G28 ; Home all axes
G1 Z2.0 F3000 ; Move Z Axis up little to prevent scratching of Heat Bed
G1 X0.1 Y20 Z0.3 F5000.0 ; Move to start position
G1 X0.1 Y200.0 Z0.3 F1500.0 E15 ; Draw the first line
G1 X0.4 Y200.0 Z0.3 F5000.0 ; Move to side a little
G1 X0.4 Y20 Z0.3 F1500.0 E30 ; Draw the second line
G92 E0 ; Reset Extruder
G1 Z2.0 F3000 ; Move Z Axis up little to prevent scratching of Heat Bed
G1 X5 Y20 Z0.3 F5000.0 ; Move over to prevent blob squish
G92 E0
G92 E0
G1 F2700 E-5
;LAYER_COUNT:10
;LAYER:0
M107
;MESH:LETRA ??.stl
G0 F6000 X121.59 Y126.745 Z0.2
;TYPE:WALL-INNER
G1 F2700 E0
G1 F1200 X125.388 Y126.745 E0.12632
G1 X125.388 Y90.598 E1.32858
G1 X125.388 Y87.945 E1.41682
G1 X106.589 Y87.946 E2.04207
G1 X106.588 Y126.745 E3.33253
G1 X110.385 Y126.745 E3.45882
G1 X110.385 Y93.343 E4.56978
G1 X110.423 Y93.13 E4.57697
G1 X110.526 Y92.955 E4.58373
G1 X110.663 Y92.836 E4.58976
G1 X110.867 Y92.743 E4.59722
G1 X121.11 Y92.743 E4.9379
G1 X121.312 Y92.836 E4.9453
G1 X121.449 Y92.955 E4.95133
G1 X121.552 Y93.13 E4.95809
G1 X121.59 Y93.343 E4.96528
G1 X121.59 Y126.745 E6.07624
G0 F6000 X121.19 Y127.145
;TYPE:WALL-OUTER
G1 F1200 X125.788 Y127.145 E6.22917
G1 X125.788 Y90.598 E7.44473
G1 X125.788 Y87.545 E7.54627
G1 X106.189 Y87.546 E8.19814
G1 X106.188 Y127.145 E9.5152
G1 X110.785 Y127.145 E9.6681
G1 X110.785 Y93.287 E10.79422
G1 X110.877 Y93.174 E10.79907
G1 X110.95 Y93.145 E10.80168
G1 X121.031 Y93.143 E11.13698
G1 X121.143 Y93.213 E11.14137
G1 X121.19 Y93.292 E11.14443
G1 X121.19 Y127.145 E12.27038
G0 F6000 X121.46 Y126.875
G0 X121.69 Y126.385
G0 X121.95 Y126.385
;TYPE:SKIN
G1 F1200 X125.028 Y126.385 E12.37276
G1 X125.028 Y90.598 E13.56304
G1 X125.028 Y88.305 E13.6393
G1 X106.95 Y88.307 E14.24058
G1 X106.949 Y126.385 E15.50706
G1 X110.025 Y126.385 E15.60937
G1 X110.028 Y93.308 E16.70951
G1 X110.085 Y93.001 E16.7199
G1 X110.247 Y92.721 E16.73066
G1 X110.445 Y92.549 E16.73938
G1 X110.686 Y92.43 E16.74832
G1 X110.962 Y92.384 E16.75763
G1 X121.012 Y92.385 E17.09189
G1 X121.296 Y92.434 E17.10148
G1 X121.504 Y92.531 E17.10911
G1 X121.73 Y92.723 E17.11897
G1 X121.89 Y93.001 E17.12964
G1 X121.947 Y93.308 E17.14003
G1 X121.95 Y126.385 E18.24017
G1 F2700 E13.24017
G0 F6000 X121.69 Y126.385
G0 X121.418 Y92.915
G0 X110.557 Y92.915
G0 X110.213 Y126.573
G0 X106.76 Y126.573
G0 X106.688 Y125.816
G1 F2700 E18.24017
G0 F6000 X107.149 Y125.816
G1 F1200 X107.517 Y126.184 E18.25748
G0 F6000 X108.082 Y126.184
G1 F1200 X107.149 Y125.251 E18.30137
G0 F6000 X107.149 Y124.685
G1 F1200 X108.648 Y126.184 E18.37188
G0 F6000 X109.214 Y126.184
G1 F1200 X107.149 Y124.119 E18.46901
G0 F6000 X107.149 Y123.554
G1 F1200 X109.779 Y126.184 E18.59271
G0 F6000 X109.824 Y125.664
G1 F1200 X107.149 Y122.988 E18.71856
G0 F6000 X107.149 Y122.422
G1 F1200 X109.824 Y125.098 E18.84441
G0 F6000 X109.824 Y124.532
G1 F1200 X107.149 Y121.857 E18.97023
G0 F6000 X107.149 Y121.291
G1 F1200 X109.824 Y123.967 E19.09608
G0 F6000 X109.824 Y123.401
G1 F1200 X107.149 Y120.725 E19.22193
G0 F6000 X107.149 Y120.16
G1 F1200 X109.824 Y122.835 E19.34775
G0 F6000 X109.824 Y122.27
G1 F1200 X107.149 Y119.594 E19.4736
G0 F6000 X107.149 Y119.028
G1 F1200 X109.824 Y121.704 E19.59945
G0 F6000 X109.824 Y121.138
G1 F1200 X107.149 Y118.463 E19.72527
G0 F6000 X107.149 Y117.897
G1 F1200 X109.824 Y120.573 E19.85112
G0 F6000 X109.824 Y120.007
G1 F1200 X107.149 Y117.331 E19.97696
G0 F6000 X107.149 Y116.765
G1 F1200 X109.824 Y119.441 E20.10281
G0 F6000 X109.824 Y118.875
G1 F1200 X107.149 Y116.2 E20.22864
G0 F6000 X107.149 Y115.634
G1 F1200 X109.824 Y118.31 E20.35448
G0 F6000 X109.824 Y117.744
G1 F1200 X107.149 Y115.068 E20.48033
G0 F6000 X107.149 Y114.503
G1 F1200 X109.824 Y117.178 E20.60615
G0 F6000 X109.824 Y116.613
G1 F1200 X107.149 Y113.937 E20.732
G0 F6000 X107.149 Y113.371
G1 F1200 X109.824 Y116.047 E20.85785
G0 F6000 X109.824 Y115.481
G1 F1200 X107.149 Y112.806 E20.98367
G0 F6000 X107.149 Y112.24
G1 F1200 X109.824 Y114.916 E21.10952
G0 F6000 X109.824 Y114.35
G1 F1200 X107.149 Y111.674 E21.23537
G0 F6000 X107.149 Y111.109
G1 F1200 X109.824 Y113.784 E21.36119
G0 F6000 X109.824 Y113.219
G1 F1200 X107.149 Y110.543 E21.48704
G0 F6000 X107.149 Y109.977
G1 F1200 X109.824 Y112.653 E21.61289
G0 F6000 X109.824 Y112.087
G1 F1200 X107.149 Y109.412 E21.73871
G0 F6000 X107.149 Y108.846
G1 F1200 X109.824 Y111.522 E21.86456
G0 F6000 X109.824 Y110.956
G1 F1200 X107.149 Y108.28 E21.9904
G0 F6000 X107.149 Y107.714
G1 F1200 X109.824 Y110.39 E22.11625
G0 F6000 X109.824 Y109.824
G1 F1200 X107.149 Y107.149 E22.24208
G0 F6000 X107.149 Y106.583
G1 F1200 X109.824 Y109.259 E22.36792
G0 F6000 X109.824 Y108.693
G1 F1200 X107.149 Y106.017 E22.49377
G0 F6000 X107.149 Y105.452
G1 F1200 X109.824 Y108.127 E22.61959
G0 F6000 X109.824 Y107.562
G1 F1200 X107.149 Y104.886 E22.74544
G0 F6000 X107.149 Y104.32
G1 F1200 X109.824 Y106.996 E22.87129
G0 F6000 X109.824 Y106.43
G1 F1200 X107.149 Y103.755 E22.99711
G0 F6000 X107.149 Y103.189
G1 F1200 X109.824 Y105.865 E23.12296
G0 F6000 X109.824 Y105.299
G1 F1200 X107.149 Y102.623 E23.24881
G0 F6000 X107.149 Y102.058
G1 F1200 X109.824 Y104.733 E23.37463
G0 F6000 X109.824 Y104.168
G1 F1200 X107.149 Y101.492 E23.50048
G0 F6000 X107.149 Y100.926
G1 F1200 X109.824 Y103.602 E23.62633
G0 F6000 X109.824 Y103.036
G1 F1200 X107.149 Y100.361 E23.75215
G0 F6000 X107.149 Y99.795
G1 F1200 X109.824 Y102.471 E23.878
G0 F6000 X109.824 Y101.905
G1 F1200 X107.149 Y99.229 E24.00384
G0 F6000 X107.149 Y98.664
G1 F1200 X109.824 Y101.339 E24.12967
G0 F6000 X109.824 Y100.774
G1 F1200 X107.149 Y98.098 E24.25551
G0 F6000 X107.149 Y97.532
G1 F1200 X109.824 Y100.208 E24.38136
G0 F6000 X109.824 Y99.642
G1 F1200 X107.149 Y96.966 E24.50721
G0 F6000 X107.149 Y96.401
G1 F1200 X109.824 Y99.076 E24.63303
G0 F6000 X109.824 Y98.511
G1 F1200 X107.149 Y95.835 E24.75888
G0 F6000 X107.149 Y95.269
G1 F1200 X109.824 Y97.945 E24.88473
G0 F6000 X109.824 Y97.379
G1 F1200 X107.149 Y94.704 E25.01055
G0 F6000 X107.149 Y94.138
G1 F1200 X109.824 Y96.814 E25.1364
G0 F6000 X109.824 Y96.248
G1 F1200 X107.149 Y93.572 E25.26225
G0 F6000 X107.149 Y93.007
G1 F1200 X109.824 Y95.682 E25.38807
G0 F6000 X109.824 Y95.117
G1 F1200 X107.149 Y92.441 E25.51392
G0 F6000 X107.149 Y91.875
G1 F1200 X109.824 Y94.551 E25.63976
G0 F6000 X109.824 Y93.985
G1 F1200 X107.149 Y91.31 E25.76559
G0 F6000 X107.149 Y90.744
G1 F1200 X109.824 Y93.42 E25.89144
G0 F6000 X109.897 Y92.926
G1 F1200 X107.149 Y90.178 E26.02069
G0 F6000 X107.149 Y89.613
G1 F1200 X110.109 Y92.573 E26.15992
G0 F6000 X110.43 Y92.329
G1 F1200 X107.149 Y89.047 E26.31427
G0 F6000 X107.174 Y88.507
G1 F1200 X110.863 Y92.195 E26.48777
G0 F6000 X111.418 Y92.185
G1 F1200 X107.74 Y88.507 E26.66077
G0 F6000 X108.306 Y88.507
G1 F1200 X111.984 Y92.185 E26.83377
G0 F6000 X112.55 Y92.185
G1 F1200 X108.871 Y88.507 E27.0068
G0 F6000 X109.437 Y88.507
G1 F1200 X113.115 Y92.185 E27.1798
G0 F6000 X113.68 Y92.184
G1 F1200 X110.003 Y88.507 E27.35276
G0 F6000 X110.568 Y88.507
G1 F1200 X114.246 Y92.184 E27.52573
G0 F6000 X114.812 Y92.184
G1 F1200 X111.134 Y88.507 E27.69871
G0 F6000 X111.7 Y88.507
G1 F1200 X115.377 Y92.184 E27.87167
G0 F6000 X115.943 Y92.184
G1 F1200 X112.265 Y88.507 E28.04465
G0 F6000 X112.831 Y88.507
G1 F1200 X116.508 Y92.184 E28.2176
G0 F6000 X117.074 Y92.184
G1 F1200 X113.396 Y88.506 E28.3906
G0 F6000 X113.962 Y88.506
G1 F1200 X117.639 Y92.184 E28.56358
G0 F6000 X118.205 Y92.184
G1 F1200 X114.527 Y88.506 E28.73658
G0 F6000 X115.093 Y88.506
G1 F1200 X118.77 Y92.183 E28.90954
G0 F6000 X119.336 Y92.183
G1 F1200 X115.659 Y88.506 E29.08249
G0 F6000 X116.225 Y88.506
G1 F1200 X119.901 Y92.183 E29.25542
G0 F6000 X120.467 Y92.183
G1 F1200 X116.79 Y88.506 E29.42838
G0 F6000 X117.356 Y88.506
G1 F1200 X121.04 Y92.19 E29.60166
G0 F6000 X120.983 Y92.642
G0 X121.334 Y92.862
G0 X121.691 Y93.351
G0 X122.147 Y93.297
G1 F1200 X124.827 Y95.977 E29.72772
G0 F6000 X124.827 Y95.412
G1 F1200 X117.922 Y88.506 E30.05253
G0 F6000 X118.487 Y88.506
G1 F1200 X124.827 Y94.846 E30.35075
G0 F6000 X124.827 Y94.28
G1 F1200 X119.052 Y88.505 E30.62239
G0 F6000 X119.618 Y88.505
G1 F1200 X124.827 Y93.714 E30.8674
G0 F6000 X124.827 Y93.149
G1 F1200 X120.184 Y88.505 E31.08582
G0 F6000 X120.749 Y88.505
G1 F1200 X124.827 Y92.583 E31.27764
G0 F6000 X124.827 Y92.017
G1 F1200 X121.315 Y88.505 E31.44283
G0 F6000 X121.881 Y88.505
G1 F1200 X124.827 Y91.452 E31.58142
G0 F6000 X124.827 Y90.886
G1 F1200 X122.446 Y88.505 E31.69342
G0 F6000 X123.012 Y88.505
G1 F1200 X124.827 Y90.32 E31.77879
G0 F6000 X124.827 Y89.755
G1 F1200 X123.578 Y88.505 E31.83756
G0 F6000 X124.143 Y88.505
G1 F1200 X124.827 Y89.189 E31.86974
G0 F6000 X124.827 Y88.623
G1 F1200 X124.709 Y88.505 E31.87529
G1 F2700 E26.87529
G0 F6000 X124.709 Y88.045
G0 X125.216 Y88.117
G0 X125.216 Y126.573
G0 X121.762 Y126.573
G0 X121.69 Y93.864
G1 F2700 E31.87529
G0 F6000 X122.149 Y93.864
G1 F1200 X124.827 Y96.543 E32.00128
G0 F6000 X124.827 Y97.109
G1 F1200 X122.149 Y94.43 E32.12726
G0 F6000 X122.149 Y94.996
G1 F1200 X124.827 Y97.674 E32.25323
G0 F6000 X124.827 Y98.24
G1 F1200 X122.149 Y95.561 E32.37922
G0 F6000 X122.149 Y96.127
G1 F1200 X124.827 Y98.806 E32.50521
G0 F6000 X124.827 Y99.371
G1 F1200 X122.149 Y96.693 E32.63117
G0 F6000 X122.149 Y97.259
G1 F1200 X124.827 Y99.937 E32.75714
G0 F6000 X124.827 Y100.503
G1 F1200 X122.149 Y97.824 E32.88312
G0 F6000 X122.149 Y98.39
G1 F1200 X124.827 Y101.068 E33.00909
G0 F6000 X124.827 Y101.634
G1 F1200 X122.149 Y98.956 E33.13505
G0 F6000 X122.149 Y99.521
G1 F1200 X124.827 Y102.2 E33.26104
G0 F6000 X124.827 Y102.765
G1 F1200 X122.149 Y100.087 E33.38701
G0 F6000 X122.149 Y100.653
G1 F1200 X124.827 Y103.331 E33.51297
G0 F6000 X124.827 Y103.897
G1 F1200 X122.149 Y101.218 E33.63896
G0 F6000 X122.149 Y101.784
G1 F1200 X124.827 Y104.463 E33.76495
G0 F6000 X124.827 Y105.028
G1 F1200 X122.149 Y102.35 E33.89091
G0 F6000 X122.149 Y102.915
G1 F1200 X124.827 Y105.594 E34.0169
G0 F6000 X124.827 Y106.16
G1 F1200 X122.149 Y103.481 E34.14289
G0 F6000 X122.149 Y104.047
G1 F1200 X124.827 Y106.725 E34.26886
G0 F6000 X124.827 Y107.291
G1 F1200 X122.149 Y104.612 E34.39484
G0 F6000 X122.149 Y105.178
G1 F1200 X124.827 Y107.857 E34.52083
G0 F6000 X124.827 Y108.422
G1 F1200 X122.149 Y105.744 E34.6468
G0 F6000 X122.149 Y106.309
G1 F1200 X124.827 Y108.988 E34.77279
G0 F6000 X124.827 Y109.554
G1 F1200 X122.149 Y106.875 E34.89877
G0 F6000 X122.149 Y107.441
G1 F1200 X124.827 Y110.119 E35.02474
G0 F6000 X124.827 Y110.685
G1 F1200 X122.149 Y108.007 E35.1507
G0 F6000 X122.149 Y108.572
G1 F1200 X124.827 Y111.251 E35.27669
G0 F6000 X124.827 Y111.816
G1 F1200 X122.149 Y109.138 E35.40266
G0 F6000 X122.149 Y109.704
G1 F1200 X124.827 Y112.382 E35.52862
G0 F6000 X124.827 Y112.948
G1 F1200 X122.149 Y110.269 E35.65461
G0 F6000 X122.149 Y110.835
G1 F1200 X124.827 Y113.513 E35.78058
G0 F6000 X124.827 Y114.079
G1 F1200 X122.149 Y111.401 E35.90654
G0 F6000 X122.149 Y111.966
G1 F1200 X124.827 Y114.645 E36.03253
G0 F6000 X124.827 Y115.211
G1 F1200 X122.149 Y112.532 E36.15852
G0 F6000 X122.149 Y113.098
G1 F1200 X124.827 Y115.776 E36.28448
G0 F6000 X124.827 Y116.342
G1 F1200 X122.149 Y113.663 E36.41047
G0 F6000 X122.149 Y114.229
G1 F1200 X124.827 Y116.908 E36.53646
G0 F6000 X124.827 Y117.473
G1 F1200 X122.149 Y114.795 E36.66242
G0 F6000 X122.149 Y115.36
G1 F1200 X124.827 Y118.039 E36.78841
G0 F6000 X124.827 Y118.605
G1 F1200 X122.149 Y115.926 E36.9144
G0 F6000 X122.149 Y116.492
G1 F1200 X124.827 Y119.17 E37.04037
G0 F6000 X124.827 Y119.736
G1 F1200 X122.149 Y117.057 E37.16635
G0 F6000 X122.149 Y117.623
G1 F1200 X124.827 Y120.302 E37.29234
G0 F6000 X124.827 Y120.867
G1 F1200 X122.149 Y118.189 E37.41831
G0 F6000 X122.149 Y118.755
G1 F1200 X124.827 Y121.433 E37.54427
G0 F6000 X124.827 Y121.999
G1 F1200 X122.149 Y119.32 E37.67026
G0 F6000 X122.149 Y119.886
G1 F1200 X124.827 Y122.564 E37.79623
G0 F6000 X124.827 Y123.13
G1 F1200 X122.149 Y120.452 E37.92219
G0 F6000 X122.149 Y121.017
G1 F1200 X124.827 Y123.696 E38.04818
G0 F6000 X124.827 Y124.261
G1 F1200 X122.149 Y121.583 E38.17414
G0 F6000 X122.149 Y122.149
G1 F1200 X124.827 Y124.827 E38.30011
G0 F6000 X124.827 Y125.393
G1 F1200 X122.149 Y122.714 E38.4261
G0 F6000 X122.149 Y123.28
G1 F1200 X124.827 Y125.959 E38.55209
G0 F6000 X124.486 Y126.183
G1 F1200 X122.149 Y123.846 E38.66201
G0 F6000 X122.149 Y124.411
G1 F1200 X123.921 Y126.183 E38.74536
G0 F6000 X123.355 Y126.183
G1 F1200 X122.149 Y124.977 E38.80209
G0 F6000 X122.149 Y125.543
G1 F1200 X122.789 Y126.183 E38.83219
G0 F6000 X122.224 Y126.183
G1 F1200 X122.149 Y126.108 E38.83572
G1 F2700 E33.83572
G0 F6000 X121.69 Y126.108
G0 X121.404 Y126.931
G0 X121.404 Y128.01
G0 X117.996 Y132.704
G0 X118.153 Y146.31
;TYPE:WALL-INNER
G1 F2700 E38.83572
G1 F1200 X127.852 Y139.986 E39.22082
G1 X116.718 Y133.419 E39.65076
G1 X117.509 Y140.532 E39.88879
G1 X118.153 Y146.31 E40.08216
G0 F6000 X117.827 Y147
;TYPE:WALL-OUTER
G1 F1200 X128.61 Y139.969 E40.51031
G1 X116.232 Y132.668 E40.98829
G1 X117.111 Y140.576 E41.25293
G1 X117.827 Y147 E41.46791
G0 F6000 X118.032 Y146.565
G0 X118.188 Y145.718
G0 X118.446 Y145.689
;TYPE:SKIN
G1 F1200 X122.824 Y142.834 E41.64175
G1 X127.17 Y140.001 E41.8143
G1 X117.159 Y134.098 E42.20084
G1 X118.446 Y145.689 E42.58873
G0 F6000 X118.697 Y145.284
G1 F1200 X118.59 Y145.177 E42.59376
G0 F6000 X119.04 Y145.061
G1 F1200 X118.519 Y144.541 E42.61824
G0 F6000 X118.448 Y143.904
G1 F1200 X119.382 Y144.838 E42.66218
G0 F6000 X119.724 Y144.614
G1 F1200 X118.378 Y143.268 E42.72549
G0 F6000 X118.307 Y142.631
G1 F1200 X120.067 Y144.391 E42.80827
G0 F6000 X120.409 Y144.168
G1 F1200 X118.236 Y141.995 E42.91049
G0 F6000 X118.166 Y141.359
G1 F1200 X120.751 Y143.945 E43.0321
G0 F6000 X121.094 Y143.721
G1 F1200 X118.095 Y140.722 E43.17316
G0 F6000 X118.024 Y140.086
G1 F1200 X121.437 Y143.498 E43.33368
G0 F6000 X121.779 Y143.275
G1 F1200 X117.953 Y139.449 E43.51364
G0 F6000 X117.883 Y138.813
G1 F1200 X122.121 Y143.051 E43.71298
G0 F6000 X122.464 Y142.829
G1 F1200 X117.812 Y138.177 E43.9318
G0 F6000 X117.741 Y137.54
G1 F1200 X122.806 Y142.605 E44.17004
G0 F6000 X123.149 Y142.382
G1 F1200 X117.671 Y136.904 E44.42771
G0 F6000 X117.6 Y136.267
G1 F1200 X123.491 Y142.159 E44.70483
G0 F6000 X123.834 Y141.936
G1 F1200 X117.529 Y135.631 E45.00139
G0 F6000 X117.458 Y134.995
G1 F1200 X124.176 Y141.712 E45.31737
G0 F6000 X124.518 Y141.489
G1 F1200 X117.649 Y134.619 E45.64049
G0 F6000 X117.883 Y134.223
G0 X119.261 Y135.036
G0 X119.027 Y135.432
G1 F1200 X124.861 Y141.266 E45.9149
G0 F6000 X125.203 Y141.043
G1 F1200 X120.406 Y136.245 E46.14056
G0 F6000 X120.64 Y135.849
G0 X122.017 Y136.662
G0 X121.784 Y137.057
G1 F1200 X125.546 Y140.819 E46.31751
G0 F6000 X125.889 Y140.596
G1 F1200 X123.162 Y137.87 E46.44576
G0 F6000 X123.395 Y137.475
G0 X124.773 Y138.287
G0 X124.54 Y138.682
G1 F1200 X126.231 Y140.373 E46.5253
G0 F6000 X126.573 Y140.149
G1 F1200 X125.919 Y139.495 E46.55606
G1 F2700 E41.55606
;MESH:NONMESH
G0 F300 X125.919 Y139.495 Z0.4
G0 F6000 X126.152 Y139.1
G0 X117.502 Y133.673
G0 X118.053 Y132.738
G0 X121.404 Y128.01
G0 X121.59 Y126.745
;TIME_ELAPSED:93.503183
;LAYER:1
M106 S85
;TYPE:WALL-INNER
;MESH:LETRA ??.stl
G1 F2700 E46.55606
G1 F1350 X125.388 Y126.745 E46.68238
G1 X125.388 Y90.598 E47.88464
G1 X125.388 Y87.945 E47.97287
G1 X106.589 Y87.946 E48.59813
G1 X106.588 Y126.745 E49.88859
G1 X110.385 Y126.745 E50.01488
G1 X110.385 Y93.343 E51.12584
G1 X110.423 Y93.13 E51.13303
G1 X110.526 Y92.955 E51.13979
G1 X110.663 Y92.836 E51.14582
G1 X110.867 Y92.743 E51.15328
G1 X121.11 Y92.743 E51.49396
G1 X121.312 Y92.836 E51.50136
G1 X121.449 Y92.955 E51.50739
G1 X121.552 Y93.13 E51.51415
G1 X121.59 Y93.343 E51.52134
G1 X121.59 Y126.745 E52.6323
G0 F7500 X121.19 Y127.145
;TYPE:WALL-OUTER
G1 F1350 X125.788 Y127.145 E52.78523
G1 X125.788 Y90.598 E54.00079
G1 X125.788 Y87.545 E54.10233
G1 X106.189 Y87.546 E54.7542
