;FLAVOR:Marlin
;TIME:544
;Filament used: 0.304784m
;Layer height: 0.2
;MINX:107.7
;MINY:97.7
;MINZ:0.2
;MAXX:127.3
;MAXY:137.3
;MAXZ:2
;Generated with Cura_SteamEngine 5.2.2
M140 S50
M105
M190 S50
M104 S200
M105
M109 S200
M82 ;absolute extrusion mode
; Ender 3 Custom Start G-code
G92 E0 ; Reset Extruder
G28 ; Home all axes
G1 Z2.0 F3000 ; Move Z Axis up little to prevent scratching of Heat Bed
G1 X0.1 Y20 Z0.3 F5000.0 ; Move to start position
G1 X0.1 Y200.0 Z0.3 F1500.0 E15 ; Draw the first line
G1 X0.4 Y200.0 Z0.3 F5000.0 ; Move to side a little
G1 X0.4 Y20 Z0.3 F1500.0 E30 ; Draw the second line
G92 E0 ; Reset Extruder
G1 Z2.0 F3000 ; Move Z Axis up little to prevent scratching of Heat Bed
G1 X5 Y20 Z0.3 F5000.0 ; Move over to prevent blob squish
G92 E0
G92 E0
G1 F2700 E-5
;LAYER_COUNT:10
;LAYER:0
M107
;MESH:LETRA G.stl
G0 F6000 X111.437 Y114.104 Z0.2
;TYPE:WALL-INNER
G1 F2700 E0
G1 F1200 X111.185 Y114.016 E0.00888
G1 X111.044 Y113.898 E0.01499
G1 X110.897 Y113.578 E0.02671
G1 X110.897 Y101.497 E0.42852
G1 X111.017 Y101.135 E0.44121
G1 X111.168 Y100.994 E0.44808
G1 X111.497 Y100.897 E0.45949
G1 X124.503 Y100.897 E0.89207
G1 F1137.4 X124.959 Y101.035 E0.90878
G1 F1027.8 X125.092 Y101.232 E0.91801
G1 F1078.7 X125.103 Y101.497 E0.92783
G1 F1200 X125.104 Y113.582 E1.32978
G1 X125.026 Y113.801 E1.33751
G1 X124.841 Y114 E1.34655
G1 X124.673 Y114.079 E1.35272
G1 X124.503 Y114.103 E1.35843
G1 X111.437 Y114.104 E1.79301
G0 F6000 X111.346 Y113.635
;TYPE:WALL-OUTER
G1 F1200 X111.299 Y113.538 E1.79659
G1 X111.297 Y101.497 E2.19708
G1 X111.337 Y101.376 E2.20132
G1 X111.497 Y101.297 E2.20725
G1 X124.503 Y101.297 E2.63983
G1 F1203 X124.64 Y101.351 E2.64472
G1 X124.703 Y101.437 E2.64826
G1 F1200 X124.701 Y113.585 E3.0523
G1 X124.56 Y113.695 E3.05825
G1 X124.503 Y113.703 E3.06016
G1 X111.468 Y113.702 E3.49371
G1 X111.346 Y113.635 E3.49834
G1 F2700 E-1.50166
G0 F6000 X111.579 Y114.204
G0 X124.931 Y114.133
G0 X125.3 Y101.095
G0 X125.633 Y101.381
G0 X126.731 Y102.94
G0 X126.737 Y115.542
G0 X123.766 Y118.734
G0 X111.069 Y119.07
G0 X111.069 Y132.931
G0 X126.728 Y133.275
G0 X126.737 Y134.468
G0 X124.625 Y136.736
G0 X111.449 Y136.736
G1 F2700 E3.49834
G0 F6000 X111.377 Y136.9
;TYPE:WALL-INNER
G1 F1200 X124.697 Y136.9 E3.94136
G1 X126.9 Y134.532 E4.04894
G1 X126.9 Y134.129 E4.06234
G1 X126.9 Y133.103 E4.09646
G1 X111.497 Y133.103 E4.60877
G1 X111.238 Y133.045 E4.6176
G1 X110.994 Y132.831 E4.62839
G1 X110.897 Y132.583 E4.63725
G1 X110.897 Y119.498 E5.07246
G1 X110.937 Y119.28 E5.07983
G1 X111.044 Y119.103 E5.08671
G1 X111.185 Y118.985 E5.09282
G1 X111.437 Y118.898 E5.10169
G1 X123.838 Y118.898 E5.51415
G1 X126.9 Y115.607 E5.66366
G1 X126.9 Y102.86 E6.08763
G1 X126.814 Y102.84 E6.09056
G1 X125.77 Y101.293 E6.15264
G1 F1078.7 X125.517 Y100.996 E6.16707
G1 F979.6 X125.346 Y100.743 E6.17952
G1 F1078.7 X124.943 Y100.07 E6.20854
G1 F1200 X123.612 Y98.1 E6.28762
G1 X112.609 Y98.1 E6.65358
G1 X108.101 Y102.312 E6.85878
G1 X108.1 Y133.391 E7.89247
G1 X111.377 Y136.9 E8.05216
G0 F6000 X111.203 Y137.3
;TYPE:WALL-OUTER
G1 F1200 X124.871 Y137.3 E8.50676
G1 X127.3 Y134.69 E8.62534
G1 X127.3 Y134.129 E8.644
G1 X127.3 Y132.703 E8.69143
G1 X111.432 Y132.703 E9.2192
G1 X111.299 Y132.537 E9.22628
G1 X111.297 Y119.44 E9.66189
G1 X111.393 Y119.327 E9.66682
G1 X111.479 Y119.298 E9.66984
G1 X124.012 Y119.298 E10.08669
G1 X127.3 Y115.764 E10.24723
G1 X127.3 Y102.652 E10.68334
G1 X127.146 Y102.616 E10.6886
G1 X123.824 Y97.7 E10.88594
G1 X112.451 Y97.7 E11.26421
G1 X107.701 Y102.138 E11.48042
G1 X107.7 Y133.549 E12.52515
G1 X111.203 Y137.3 E12.69586
G0 F6000 X111.533 Y136.539
;TYPE:SKIN
G1 F1200 X124.539 Y136.539 E13.12844
G1 X126.54 Y134.39 E13.2261
G1 X126.54 Y134.129 E13.23478
G1 X126.54 Y133.463 E13.25693
G1 X111.457 Y133.459 E13.7586
G1 X111.124 Y133.384 E13.76995
G1 X110.919 Y133.272 E13.77772
G1 X110.686 Y133.027 E13.78896
G1 X110.539 Y132.638 E13.80279
G1 X110.54 Y119.463 E14.241
G1 X110.599 Y119.148 E14.25166
G1 X110.754 Y118.896 E14.2615
G1 X110.999 Y118.672 E14.27254
G1 X111.412 Y118.54 E14.28696
G1 X123.68 Y118.538 E14.69499
G1 X126.54 Y115.464 E14.83464
G1 X126.54 Y103.053 E15.24743
G1 X126.506 Y103.029 E15.24882
G1 X125.466 Y101.491 E15.31057
G1 X125.462 Y113.632 E15.71438
G1 X125.34 Y113.989 E15.72693
G1 X125.044 Y114.298 E15.74116
G1 X124.777 Y114.427 E15.75102
G1 X124.523 Y114.462 E15.75955
G1 X111.472 Y114.463 E16.19363
G1 X111.232 Y114.429 E16.20169
G1 X111.02 Y114.335 E16.20941
G1 X110.772 Y114.134 E16.22002
G1 X110.616 Y113.88 E16.22994
G1 X110.539 Y113.634 E16.23851
G1 F1197 X110.537 Y101.47 E16.6441
G1 F1191.1 X110.718 Y100.921 E16.66347
G1 X110.973 Y100.682 E16.67518
G1 F1194 X111.469 Y100.537 E16.69245
G1 F1200 X124.525 Y100.537 E17.1267
G1 X124.826 Y100.615 E17.13704
G1 X124.638 Y100.264 E17.15028
G1 X123.42 Y98.46 E17.22268
G1 X112.751 Y98.46 E17.57753
G1 X108.461 Y102.468 E17.7728
G1 X108.46 Y133.249 E18.79658
G1 X111.533 Y136.539 E18.94632
G0 F6000 X112.013 Y136.337
G1 F1200 X108.659 Y132.984 E19.10406
G0 F6000 X108.659 Y132.418
G1 F1200 X112.579 Y136.337 E19.28842
G0 F6000 X113.144 Y136.337
G1 F1200 X108.659 Y131.852 E19.49938
G0 F6000 X108.659 Y131.287
G1 F1200 X110.656 Y133.283 E19.59329
G0 F6000 X110.808 Y133.435
G1 F1200 X113.71 Y136.337 E19.72979
G0 F6000 X114.276 Y136.337
G1 F1200 X111.6 Y133.662 E19.85564
G0 F6000 X112.166 Y133.662
G1 F1200 X114.841 Y136.337 E19.98146
G0 F6000 X115.407 Y136.337
G1 F1200 X112.731 Y133.662 E20.10731
G0 F6000 X113.297 Y133.662
G1 F1200 X115.973 Y136.337 E20.23315
G0 F6000 X116.538 Y136.337
G1 F1200 X113.863 Y133.662 E20.35898
G0 F6000 X114.428 Y133.662
G1 F1200 X117.104 Y136.337 E20.48482
G0 F6000 X117.67 Y136.337
G1 F1200 X114.994 Y133.662 E20.61067
G0 F6000 X115.56 Y133.662
G1 F1200 X118.236 Y136.337 E20.73652
G0 F6000 X118.801 Y136.337
G1 F1200 X116.126 Y133.662 E20.86234
G0 F6000 X116.691 Y133.662
G1 F1200 X119.367 Y136.337 E20.98819
G0 F6000 X119.933 Y136.337
G1 F1200 X117.257 Y133.662 E21.11404
G0 F6000 X117.823 Y133.662
G1 F1200 X120.498 Y136.337 E21.23986
G0 F6000 X121.064 Y136.337
G1 F1200 X118.388 Y133.662 E21.36571
G0 F6000 X118.954 Y133.662
G1 F1200 X121.63 Y136.337 E21.49156
G0 F6000 X122.195 Y136.337
G1 F1200 X119.52 Y133.662 E21.61738
G0 F6000 X120.085 Y133.662
G1 F1200 X122.761 Y136.337 E21.74323
G0 F6000 X123.327 Y136.337
G1 F1200 X120.651 Y133.662 E21.86907
G0 F6000 X121.217 Y133.662
G1 F1200 X123.892 Y136.337 E21.9949
G0 F6000 X124.455 Y136.335
G1 F1200 X121.782 Y133.662 E22.12063
G0 F6000 X122.348 Y133.662
G1 F1200 X124.728 Y136.042 E22.23258
G0 F6000 X125.001 Y135.749
G1 F1200 X122.914 Y133.662 E22.33074
G0 F6000 X123.479 Y133.662
G1 F1200 X125.273 Y135.456 E22.41513
G0 F6000 X125.546 Y135.163
G1 F1200 X124.045 Y133.662 E22.48573
G0 F6000 X124.611 Y133.662
G1 F1200 X125.819 Y134.87 E22.54255
G0 F6000 X126.092 Y134.577
G1 F1200 X125.176 Y133.662 E22.58561
G0 F6000 X125.742 Y133.662
G1 F1200 X126.34 Y134.259 E22.61372
G0 F6000 X126.8 Y134.259
G0 X126.728 Y133.275
G0 X111.069 Y132.931
G0 X110.797 Y132.398
G0 X110.336 Y132.398
G1 F1200 X108.659 Y130.721 E22.6926
G0 F6000 X108.659 Y130.155
G1 F1200 X110.336 Y131.832 E22.77148
G0 F6000 X110.336 Y131.267
G1 F1200 X108.659 Y129.59 E22.85036
G0 F6000 X108.659 Y129.024
G1 F1200 X110.336 Y130.701 E22.92924
G0 F6000 X110.336 Y130.135
G1 F1200 X108.659 Y128.458 E23.00812
G0 F6000 X108.659 Y127.892
G1 F1200 X110.336 Y129.57 E23.08703
G0 F6000 X110.336 Y129.004
G1 F1200 X108.659 Y127.327 E23.16591
G0 F6000 X108.659 Y126.761
G1 F1200 X110.336 Y128.438 E23.24479
G0 F6000 X110.336 Y127.873
G1 F1200 X108.659 Y126.195 E23.32369
G0 F6000 X108.659 Y125.63
G1 F1200 X110.336 Y127.307 E23.40257
G0 F6000 X110.336 Y126.741
G1 F1200 X108.659 Y125.064 E23.48145
G0 F6000 X108.659 Y124.498
G1 F1200 X110.336 Y126.176 E23.56036
G0 F6000 X110.336 Y125.61
G1 F1200 X108.659 Y123.933 E23.63924
G0 F6000 X108.659 Y123.367
G1 F1200 X110.336 Y125.044 E23.71812
G0 F6000 X110.336 Y124.479
G1 F1200 X108.659 Y122.801 E23.79702
G0 F6000 X108.659 Y122.236
G1 F1200 X110.336 Y123.913 E23.87591
G0 F6000 X110.336 Y123.347
G1 F1200 X108.659 Y121.67 E23.95479
G0 F6000 X108.659 Y121.104
G1 F1200 X110.336 Y122.782 E24.03369
G0 F6000 X110.336 Y122.216
G1 F1200 X108.659 Y120.539 E24.11257
G0 F6000 X108.659 Y119.973
G1 F1200 X110.336 Y121.65 E24.19145
G0 F6000 X110.336 Y121.084
G1 F1200 X108.659 Y119.407 E24.27033
G0 F6000 X108.659 Y118.842
G1 F1200 X110.336 Y120.519 E24.34921
G0 F6000 X110.336 Y119.953
G1 F1200 X108.659 Y118.276 E24.4281
G0 F6000 X108.659 Y117.71
G1 F1200 X110.348 Y119.399 E24.50754
G0 F6000 X110.477 Y118.962
G1 F1200 X108.659 Y117.144 E24.59305
G0 F6000 X108.659 Y116.579
G1 F1200 X110.73 Y118.649 E24.69044
G0 F6000 X111.08 Y118.434
G1 F1200 X108.659 Y116.013 E24.80432
G0 F6000 X108.659 Y115.447
G1 F1200 X111.551 Y118.339 E24.94035
G0 F6000 X112.116 Y118.339
G1 F1200 X108.659 Y114.882 E25.10296
G0 F6000 X108.659 Y114.316
G1 F1200 X112.682 Y118.339 E25.29219
G0 F6000 X113.248 Y118.339
G1 F1200 X108.659 Y113.75 E25.50804
G0 F6000 X108.659 Y113.185
G1 F1200 X113.813 Y118.339 E25.75047
G0 F6000 X114.379 Y118.339
G1 F1200 X108.659 Y112.619 E26.01952
G0 F6000 X108.659 Y112.053
G1 F1200 X110.375 Y113.769 E26.10023
G0 F6000 X110.341 Y113.17
G1 F1200 X108.659 Y111.488 E26.17935
G0 F6000 X108.659 Y110.922
G1 F1200 X110.341 Y112.604 E26.25847
G0 F6000 X110.341 Y112.038
G1 F1200 X108.659 Y110.356 E26.33758
G0 F6000 X108.659 Y109.791
G1 F1200 X110.341 Y111.472 E26.41668
G0 F6000 X110.341 Y110.906
G1 F1200 X108.659 Y109.225 E26.49577
G0 F6000 X108.659 Y108.659
G1 F1200 X110.34 Y110.34 E26.57484
G0 F6000 X110.34 Y109.774
G1 F1200 X108.659 Y108.093 E26.65391
G0 F6000 X108.659 Y107.528
G1 F1200 X110.34 Y109.209 E26.73298
G0 F6000 X110.339 Y108.642
G1 F1200 X108.659 Y106.962 E26.812
G0 F6000 X108.659 Y106.396
G1 F1200 X110.339 Y108.077 E26.89104
G0 F6000 X110.339 Y107.51
G1 F1200 X108.659 Y105.831 E26.97004
G0 F6000 X108.659 Y105.265
G1 F1200 X110.339 Y106.944 E27.04904
G0 F6000 X110.339 Y106.379
G1 F1200 X108.659 Y104.699 E27.12806
G0 F6000 X108.659 Y104.134
G1 F1200 X110.338 Y105.812 E27.20701
G0 F6000 X110.338 Y105.247
G1 F1200 X108.659 Y103.568 E27.28599
G0 F6000 X108.659 Y103.002
G1 F1200 X110.338 Y104.681 E27.36496
G0 F6000 X110.337 Y104.115
G1 F1200 X108.721 Y102.498 E27.441
G0 F6000 X109.013 Y102.225
G1 F1200 X110.337 Y103.549 E27.50328
G0 F6000 X110.337 Y102.983
G1 F1200 X109.306 Y101.952 E27.55177
G0 F6000 X109.599 Y101.679
G1 F1200 X110.336 Y102.417 E27.58646
G0 F6000 X110.336 Y101.851
G1 F1200 X109.892 Y101.406 E27.60737
G0 F6000 X110.185 Y101.134
G1 F1200 X110.374 Y101.323 E27.61626
G0 F6000 X109.77 Y100.89
G0 X111.133 Y99.616
G0 X111.164 Y100.416
G1 F1200 X111.063 Y100.315 E27.62101
G0 F6000 X111.353 Y100.04
G1 F1200 X111.65 Y100.336 E27.63496
G0 F6000 X112.215 Y100.336
G1 F1200 X111.645 Y99.766 E27.66177
G0 F6000 X111.938 Y99.493
G1 F1200 X112.781 Y100.336 E27.70142
G0 F6000 X113.347 Y100.336
G1 F1200 X112.231 Y99.22 E27.75391
G0 F6000 X112.523 Y98.946
G1 F1200 X113.912 Y100.336 E27.81927
G0 F6000 X114.478 Y100.336
G1 F1200 X112.816 Y98.673 E27.89747
G0 F6000 X113.368 Y98.66
G1 F1200 X115.044 Y100.336 E27.9763
G0 F6000 X115.609 Y100.336
G1 F1200 X113.933 Y98.66 E28.05514
G0 F6000 X114.499 Y98.66
G1 F1200 X116.175 Y100.336 E28.13397
G0 F6000 X116.741 Y100.336
G1 F1200 X115.065 Y98.66 E28.2128
G0 F6000 X115.631 Y98.66
G1 F1200 X117.306 Y100.336 E28.29162
G0 F6000 X117.872 Y100.336
G1 F1200 X116.196 Y98.66 E28.37045
G0 F6000 X116.762 Y98.66
G1 F1200 X118.437 Y100.335 E28.44924
G0 F6000 X119.003 Y100.335
G1 F1200 X117.328 Y98.66 E28.52802
G0 F6000 X117.893 Y98.66
G1 F1200 X119.568 Y100.335 E28.60681
G0 F6000 X120.134 Y100.335
G1 F1200 X118.459 Y98.66 E28.6856
G0 F6000 X119.025 Y98.66
G1 F1200 X120.7 Y100.335 E28.76438
G0 F6000 X121.265 Y100.335
G1 F1200 X119.59 Y98.66 E28.84317
G0 F6000 X120.156 Y98.66
G1 F1200 X121.831 Y100.335 E28.92196
G0 F6000 X122.397 Y100.335
G1 F1200 X120.722 Y98.66 E29.00074
G0 F6000 X121.287 Y98.66
G1 F1200 X122.963 Y100.335 E29.07955
G0 F6000 X123.528 Y100.335
G1 F1200 X121.853 Y98.66 E29.15834
G0 F6000 X122.419 Y98.66
G1 F1200 X124.094 Y100.335 E29.23713
G0 F6000 X123.998 Y99.674
G1 F1200 X122.984 Y98.66 E29.28482
G0 F6000 X123.594 Y98.252
G0 X124.811 Y100.162
G0 X125.397 Y101.188
G0 X125.204 Y102.47
G0 X125.663 Y102.47
G1 F1200 X126.339 Y103.146 E29.31662
G0 F6000 X126.339 Y103.712
G1 F1200 X125.663 Y103.036 E29.34842
G0 F6000 X125.662 Y103.601
G1 F1200 X126.339 Y104.277 E29.38024
G0 F6000 X126.339 Y104.843
G1 F1200 X125.662 Y104.166 E29.41208
G0 F6000 X125.662 Y104.732
G1 F1200 X126.339 Y105.409 E29.44393
G0 F6000 X126.339 Y105.974
G1 F1200 X125.662 Y105.297 E29.47577
G0 F6000 X125.662 Y105.863
G1 F1200 X126.339 Y106.54 E29.50761
G0 F6000 X126.339 Y107.106
G1 F1200 X125.662 Y106.428 E29.53948
G0 F6000 X125.661 Y106.993
G1 F1200 X126.339 Y107.671 E29.57137
G0 F6000 X126.339 Y108.237
G1 F1200 X125.661 Y107.559 E29.60326
G0 F6000 X125.66 Y108.124
G1 F1200 X126.339 Y108.803 E29.6352
G0 F6000 X126.339 Y109.368
G1 F1200 X125.66 Y108.69 E29.66712
G0 F6000 X125.66 Y109.255
G1 F1200 X126.339 Y109.934 E29.69905
G0 F6000 X126.339 Y110.5
G1 F1200 X125.659 Y109.82 E29.73104
G0 F6000 X125.659 Y110.386
G1 F1200 X126.339 Y111.065 E29.763
G0 F6000 X126.339 Y111.631
G1 F1200 X125.659 Y110.951 E29.79499
G0 F6000 X125.659 Y111.517
G1 F1200 X126.339 Y112.197 E29.82697
G0 F6000 X126.339 Y112.763
G1 F1200 X125.659 Y112.082 E29.85898
G0 F6000 X125.658 Y112.647
G1 F1200 X126.339 Y113.328 E29.89101
G0 F6000 X126.339 Y113.894
G1 F1200 X125.658 Y113.213 E29.92304
G0 F6000 X125.629 Y113.75
G1 F1200 X126.339 Y114.46 E29.95644
G0 F6000 X126.339 Y115.025
G1 F1200 X125.461 Y114.148 E29.99772
G0 F6000 X125.189 Y114.44
G1 F1200 X126.24 Y115.492 E30.04717
G0 F6000 X125.967 Y115.785
G1 F1200 X124.795 Y114.613 E30.1023
G0 F6000 X124.277 Y114.66
G1 F1200 X125.695 Y116.078 E30.169
G0 F6000 X125.422 Y116.371
G1 F1200 X123.711 Y114.66 E30.24948
G0 F6000 X123.146 Y114.66
G1 F1200 X125.15 Y116.664 E30.34374
G0 F6000 X124.877 Y116.957
G1 F1200 X122.58 Y114.66 E30.45179
G0 F6000 X122.014 Y114.66
G1 F1200 X124.604 Y117.251 E30.57364
G0 F6000 X124.331 Y117.543
G1 F1200 X121.449 Y114.66 E30.70922
G0 F6000 X120.884 Y114.661
G1 F1200 X124.059 Y117.837 E30.85859
G0 F6000 X123.786 Y118.129
G1 F1200 X120.318 Y114.661 E31.02171
G0 F6000 X119.752 Y114.661
G1 F1200 X123.429 Y118.338 E31.19466
G0 F6000 X122.864 Y118.338
G1 F1200 X119.187 Y114.661 E31.36762
G0 F6000 X118.621 Y114.661
G1 F1200 X122.298 Y118.338 E31.54057
G0 F6000 X121.732 Y118.338
G1 F1200 X118.055 Y114.661 E31.71353
G0 F6000 X117.49 Y114.662
G1 F1200 X121.166 Y118.338 E31.88644
G0 F6000 X120.601 Y118.338
G1 F1200 X116.925 Y114.662 E32.05934
G0 F6000 X116.359 Y114.662
G1 F1200 X120.035 Y118.338 E32.23225
G0 F6000 X119.469 Y118.338
G1 F1200 X115.793 Y114.662 E32.40516
G0 F6000 X115.227 Y114.662
G1 F1200 X118.904 Y118.338 E32.57809
G0 F6000 X118.338 Y118.338
G1 F1200 X114.663 Y114.663 E32.75095
G0 F6000 X114.097 Y114.663
G1 F1200 X117.772 Y118.338 E32.92381
G0 F6000 X117.207 Y118.339
G1 F1200 X113.531 Y114.663 E33.09672
G0 F6000 X112.965 Y114.663
G1 F1200 X116.642 Y118.339 E33.26965
G0 F6000 X116.076 Y118.339
G1 F1200 X112.4 Y114.663 E33.44256
G0 F6000 X111.834 Y114.663
G1 F1200 X115.51 Y118.339 E33.61547
G0 F6000 X114.945 Y118.339
G1 F1200 X111.236 Y114.63 E33.78993
;MESH:NONMESH
G0 F300 X111.236 Y114.63 Z0.4
G0 F6000 X111.437 Y114.104
;TIME_ELAPSED:70.701179
;LAYER:1
M106 S85
;TYPE:WALL-INNER
;MESH:LETRA G.stl
G1 F1350 X111.185 Y114.016 E33.79881
G1 X111.044 Y113.898 E33.80492
G1 X110.897 Y113.578 E33.81663
G1 X110.897 Y101.497 E34.21845
G1 X111.017 Y101.135 E34.23113
G1 X111.168 Y100.994 E34.238
G1 X111.497 Y100.897 E34.24941
G1 X124.503 Y100.897 E34.68199
G1 F1279.6 X124.959 Y101.035 E34.69871
G1 F1156.3 X125.092 Y101.232 E34.70794
G1 F1213.5 X125.103 Y101.497 E34.71776
G1 F1350 X125.104 Y113.582 E35.1197
G1 X125.026 Y113.801 E35.12744
G1 X124.841 Y114 E35.13647
G1 X124.673 Y114.079 E35.14265
G1 X124.503 Y114.103 E35.14836
G1 X111.437 Y114.104 E35.58294
G0 F7500 X111.346 Y113.635
;TYPE:WALL-OUTER
