;FLAVOR:Marlin
;TIME:412
;Filament used: 0.247999m
;Layer height: 0.2
;MINX:107.7
;MINY:97.701
;MINZ:0.2
;MAXX:127.3
;MAXY:137.3
;MAXZ:2
;Generated with Cura_SteamEngine 5.2.2
M140 S50
M105
M190 S50
M104 S200
M105
M109 S200
M82 ;absolute extrusion mode
; Ender 3 Custom Start G-code
G92 E0 ; Reset Extruder
G28 ; Home all axes
G1 Z2.0 F3000 ; Move Z Axis up little to prevent scratching of Heat Bed
G1 X0.1 Y20 Z0.3 F5000.0 ; Move to start position
G1 X0.1 Y200.0 Z0.3 F1500.0 E15 ; Draw the first line
G1 X0.4 Y200.0 Z0.3 F5000.0 ; Move to side a little
G1 X0.4 Y20 Z0.3 F1500.0 E30 ; Draw the second line
G92 E0 ; Reset Extruder
G1 Z2.0 F3000 ; Move Z Axis up little to prevent scratching of Heat Bed
G1 X5 Y20 Z0.3 F5000.0 ; Move over to prevent blob squish
G92 E0
G92 E0
G1 F2700 E-5
;LAYER_COUNT:10
;LAYER:0
M107
;MESH:LETRA Y (NUEVA).stl
G0 F6000 X110.115 Y136.899 Z0.2
;TYPE:WALL-INNER
G1 F2700 E0
G1 F1200 X115.979 Y126.103 E0.40863
G1 X116.979 Y124.216 E0.47966
G1 X117.168 Y124.004 E0.4891
G1 X117.399 Y123.908 E0.49742
G1 X117.618 Y123.907 E0.50471
G1 X117.851 Y124.004 E0.5131
G1 X117.994 Y124.128 E0.5194
G1 X121.64 Y131.02 E0.77873
G1 X124.858 Y136.9 E1.00167
G1 X126.9 Y136.9 E1.06958
G1 X126.9 Y133.028 E1.19837
G1 X126.9 Y132.621 E1.2119
G1 X119.947 Y116.744 E1.78839
G1 X119.899 Y116.556 E1.79485
G1 X119.897 Y98.101 E2.40866
G1 X115.103 Y98.101 E2.56811
G1 X115.103 Y116.628 E3.18432
G1 X108.101 Y132.621 E3.765
G1 X108.1 Y136.9 E3.90732
G1 X110.115 Y136.899 E3.97434
G0 F6000 X110.353 Y137.299
;TYPE:WALL-OUTER
G1 F1200 X116.333 Y126.291 E4.391
G1 X117.35 Y124.372 E4.46324
G1 X117.434 Y124.312 E4.46667
G1 X117.585 Y124.312 E4.47169
G1 X117.67 Y124.372 E4.47515
G1 X121.289 Y131.212 E4.73253
G1 X124.621 Y137.3 E4.96337
G1 X127.3 Y137.3 E5.05247
G1 X127.3 Y133.028 E5.19456
G1 X127.3 Y132.537 E5.21089
G1 X120.297 Y116.547 E5.79149
G1 X120.297 Y97.701 E6.41831
G1 X114.703 Y97.701 E6.60436
G1 X114.702 Y116.547 E7.23118
G1 X107.701 Y132.537 E7.81176
G1 X107.7 Y137.3 E7.97017
G1 X110.353 Y137.299 E8.05841
G0 F6000 X110.106 Y136.703
G0 X108.272 Y136.728
G0 X108.461 Y136.539
;TYPE:SKIN
G1 F1200 X109.899 Y136.539 E8.10624
G1 X115.652 Y125.95 E8.50706
G1 X116.748 Y123.884 E8.58484
G1 X117.144 Y123.603 E8.60099
G1 X117.508 Y123.532 E8.61333
G1 X117.874 Y123.604 E8.62573
G1 X118.27 Y123.881 E8.64181
G1 X121.95 Y130.835 E8.90349
G1 X125.073 Y136.54 E9.11981
G1 X126.54 Y136.54 E9.1686
G1 X126.54 Y133.028 E9.28541
G1 X126.54 Y132.696 E9.29645
G1 X119.617 Y116.889 E9.87041
G1 X119.539 Y116.578 E9.88107
G1 X119.537 Y98.461 E10.48364
G1 X115.463 Y98.461 E10.61915
G1 X115.462 Y116.707 E11.22601
G1 X108.461 Y132.696 E11.80655
G1 X108.461 Y136.539 E11.93437
G0 F6000 X109.185 Y136.338
G1 F1200 X108.66 Y135.813 E11.95906
G0 F6000 X108.66 Y135.247
G1 F1200 X109.751 Y136.338 E12.01038
G0 F6000 X109.969 Y135.99
G1 F1200 X108.66 Y134.681 E12.07195
G0 F6000 X108.66 Y134.116
G1 F1200 X110.168 Y135.624 E12.14289
G0 F6000 X110.367 Y135.257
G1 F1200 X108.66 Y133.55 E12.22318
G0 F6000 X108.66 Y132.984
G1 F1200 X110.566 Y134.891 E12.31285
G0 F6000 X110.766 Y134.524
G1 F1200 X108.757 Y132.516 E12.40733
G0 F6000 X108.929 Y132.122
G1 F1200 X110.964 Y134.157 E12.50305
G0 F6000 X111.164 Y133.791
G1 F1200 X109.101 Y131.729 E12.60006
G0 F6000 X109.273 Y131.335
G1 F1200 X111.362 Y133.424 E12.69832
G0 F6000 X111.562 Y133.058
G1 F1200 X109.445 Y130.942 E12.79787
G0 F6000 X109.618 Y130.548
G1 F1200 X111.761 Y132.692 E12.8987
G0 F6000 X111.96 Y132.325
G1 F1200 X109.79 Y130.155 E13.00077
G0 F6000 X109.962 Y129.761
G1 F1200 X112.159 Y131.958 E13.10411
G0 F6000 X112.358 Y131.591
G1 F1200 X110.134 Y129.368 E13.2087
G0 F6000 X110.307 Y128.974
G1 F1200 X112.557 Y131.225 E13.31455
G0 F6000 X112.757 Y130.859
G1 F1200 X110.479 Y128.581 E13.4217
G0 F6000 X110.651 Y128.187
G1 F1200 X112.956 Y130.492 E13.53012
G0 F6000 X113.155 Y130.126
G1 F1200 X110.824 Y127.794 E13.63979
G0 F6000 X110.996 Y127.401
G1 F1200 X113.354 Y129.759 E13.7507
G0 F6000 X113.553 Y129.392
G1 F1200 X111.168 Y127.007 E13.86288
G0 F6000 X111.341 Y126.614
G1 F1200 X113.752 Y129.026 E13.97631
G0 F6000 X113.951 Y128.659
G1 F1200 X111.512 Y126.22 E14.09104
G0 F6000 X111.685 Y125.827
G1 F1200 X114.151 Y128.293 E14.20703
G0 F6000 X114.35 Y127.926
G1 F1200 X111.857 Y125.434 E14.32427
G0 F6000 X112.029 Y125.04
G1 F1200 X114.549 Y127.559 E14.44278
G0 F6000 X114.748 Y127.193
G1 F1200 X112.202 Y124.647 E14.56254
G0 F6000 X112.374 Y124.253
G1 F1200 X114.947 Y126.826 E14.68356
G0 F6000 X115.146 Y126.46
G1 F1200 X112.546 Y123.86 E14.80586
G0 F6000 X112.719 Y123.467
G1 F1200 X115.346 Y126.094 E14.92942
G0 F6000 X115.544 Y125.726
G1 F1200 X112.891 Y123.073 E15.05421
G0 F6000 X113.063 Y122.68
G1 F1200 X115.739 Y125.356 E15.18008
G0 F6000 X115.935 Y124.986
G1 F1200 X113.236 Y122.287 E15.30704
G0 F6000 X113.407 Y121.893
G1 F1200 X116.132 Y124.617 E15.43519
G0 F6000 X116.328 Y124.247
G1 F1200 X113.58 Y121.5 E15.56442
G0 F6000 X113.752 Y121.106
G1 F1200 X116.524 Y123.878 E15.69481
G0 F6000 X116.806 Y123.595
G1 F1200 X113.924 Y120.713 E15.83037
G0 F6000 X114.097 Y120.319
G1 F1200 X117.17 Y123.392 E15.97491
G0 F6000 X117.709 Y123.366
G1 F1200 X114.269 Y119.926 E16.13672
G0 F6000 X114.441 Y119.532
G1 F1200 X125.321 Y130.413 E16.64851
G0 F6000 X125.742 Y130.229
G0 X126.183 Y131.235
G0 X125.762 Y131.419
G1 F1200 X118.802 Y124.459 E16.97588
G0 F6000 X118.395 Y124.673
G0 X119.03 Y125.874
G0 X119.438 Y125.66
G1 F1200 X126.203 Y132.425 E17.29409
G0 F6000 X126.339 Y133.127
G1 F1200 X120.073 Y126.862 E17.5888
G0 F6000 X119.666 Y127.076
G0 X120.302 Y128.278
G0 X120.71 Y128.064
G1 F1200 X126.339 Y133.693 E17.85357
G0 F6000 X126.339 Y134.259
G1 F1200 X121.345 Y129.265 E18.08847
G0 F6000 X120.937 Y129.478
G0 X121.574 Y130.682
G0 X121.982 Y130.467
G1 F1200 X126.339 Y134.824 E18.29341
G0 F6000 X126.339 Y135.39
G1 F1200 X122.656 Y131.707 E18.46665
G0 F6000 X122.251 Y131.928
G0 X122.935 Y133.178
G0 X123.34 Y132.957
G1 F1200 X126.339 Y135.956 E18.60771
G0 F6000 X126.157 Y136.339
G1 F1200 X124.025 Y134.207 E18.70799
G0 F6000 X123.619 Y134.429
G0 X124.304 Y135.677
G0 X124.709 Y135.457
G1 F1200 X125.591 Y136.339 E18.74948
G0 F6000 X125.008 Y136.8
G0 X126.728 Y136.728
G0 X126.739 Y132.655
G0 X125.299 Y129.218
G0 X124.88 Y129.406
G1 F1200 X114.613 Y119.139 E19.23241
G0 F6000 X114.786 Y118.745
G1 F1200 X124.44 Y128.399 E19.6865
G0 F6000 X124.861 Y128.216
G0 X124.42 Y127.209
G0 X123.999 Y127.393
G1 F1200 X114.958 Y118.352 E20.11176
G0 F6000 X115.13 Y117.958
G1 F1200 X123.558 Y126.386 E20.50819
G0 F6000 X123.979 Y126.202
G0 X123.538 Y125.196
G0 X123.117 Y125.38
G1 F1200 X115.302 Y117.565 E20.87579
G0 F6000 X115.475 Y117.172
G1 F1200 X122.677 Y124.374 E21.21455
G0 F6000 X123.098 Y124.19
G0 X122.657 Y123.183
G0 X122.236 Y123.367
G1 F1200 X115.647 Y116.778 E21.52447
G0 F6000 X115.662 Y116.227
G1 F1200 X121.795 Y122.361 E21.81297
G0 F6000 X122.216 Y122.177
G0 X121.776 Y121.172
G0 X121.355 Y121.355
G1 F1200 X115.662 Y115.662 E22.08075
G0 F6000 X115.662 Y115.096
G1 F1200 X120.913 Y120.348 E22.32777
G0 F6000 X121.334 Y120.164
G0 X120.895 Y119.159
G0 X120.473 Y119.341
G1 F1200 X115.662 Y114.53 E22.55406
G0 F6000 X115.662 Y113.965
G1 F1200 X120.032 Y118.335 E22.75962
G0 F6000 X120.454 Y118.151
G0 X120.013 Y117.144
G0 X119.591 Y117.328
G1 F1200 X115.662 Y113.399 E22.94442
G0 F6000 X115.662 Y112.833
G1 F1200 X119.338 Y116.509 E23.11733
G0 F6000 X119.338 Y115.944
G1 F1200 X115.662 Y112.268 E23.29024
G0 F6000 X115.662 Y111.702
G1 F1200 X119.338 Y115.378 E23.46315
G0 F6000 X119.338 Y114.812
G1 F1200 X115.662 Y111.136 E23.63605
G0 F6000 X115.662 Y110.57
G1 F1200 X119.338 Y114.247 E23.80899
G0 F6000 X119.338 Y113.681
G1 F1200 X115.662 Y110.005 E23.98189
G0 F6000 X115.662 Y109.439
G1 F1200 X119.338 Y113.115 E24.1548
G0 F6000 X119.338 Y112.55
G1 F1200 X115.662 Y108.873 E24.32773
G0 F6000 X115.662 Y108.308
G1 F1200 X119.338 Y111.984 E24.50064
G0 F6000 X119.338 Y111.418
G1 F1200 X115.662 Y107.742 E24.67355
G0 F6000 X115.662 Y107.176
G1 F1200 X119.338 Y110.853 E24.84648
G0 F6000 X119.337 Y110.286
G1 F1200 X115.662 Y106.611 E25.01934
G0 F6000 X115.662 Y106.045
G1 F1200 X119.337 Y109.721 E25.19222
G0 F6000 X119.337 Y109.155
G1 F1200 X115.662 Y105.479 E25.36511
G0 F6000 X115.662 Y104.914
G1 F1200 X119.337 Y108.589 E25.53797
G0 F6000 X119.337 Y108.023
G1 F1200 X115.662 Y104.348 E25.71083
G0 F6000 X115.662 Y103.782
G1 F1200 X119.337 Y107.458 E25.88371
G0 F6000 X119.337 Y106.892
G1 F1200 X115.662 Y103.217 E26.05657
G0 F6000 X115.662 Y102.651
G1 F1200 X119.337 Y106.326 E26.22944
G0 F6000 X119.337 Y105.761
G1 F1200 X115.662 Y102.085 E26.40232
G0 F6000 X115.662 Y101.52
G1 F1200 X119.337 Y105.195 E26.57518
G0 F6000 X119.336 Y104.629
G1 F1200 X115.662 Y100.954 E26.74802
G0 F6000 X115.662 Y100.388
G1 F1200 X119.336 Y104.063 E26.92086
G0 F6000 X119.336 Y103.497
G1 F1200 X115.662 Y99.822 E27.09369
G0 F6000 X115.662 Y99.257
G1 F1200 X119.336 Y102.932 E27.26653
G0 F6000 X119.336 Y102.366
G1 F1200 X115.662 Y98.691 E27.43937
G0 F6000 X116.196 Y98.66
G1 F1200 X119.336 Y101.8 E27.58706
G0 F6000 X119.336 Y101.235
G1 F1200 X116.762 Y98.66 E27.70816
G0 F6000 X117.328 Y98.66
G1 F1200 X119.336 Y100.669 E27.80263
G0 F6000 X119.336 Y100.103
G1 F1200 X117.893 Y98.66 E27.87051
G0 F6000 X118.459 Y98.66
G1 F1200 X119.336 Y99.538 E27.91178
G0 F6000 X119.336 Y98.972
G1 F1200 X119.025 Y98.66 E27.92643
G1 F2700 E22.92643
;MESH:NONMESH
G0 F300 X119.025 Y98.66 Z0.4
G0 F6000 X119.025 Y98.201
G0 X115.275 Y98.273
G0 X114.941 Y116.595
G0 X108.262 Y132.655
G0 X108.272 Y136.728
G0 X110.106 Y136.703
G1 F2700 E27.92643
G0 F6000 X110.115 Y136.899
;TIME_ELAPSED:56.447620
;LAYER:1
M106 S85
;TYPE:WALL-INNER
;MESH:LETRA Y (NUEVA).stl
G1 F1350 X115.979 Y126.103 E28.33506
G1 X116.979 Y124.216 E28.40609
G1 X117.168 Y124.004 E28.41554
G1 X117.399 Y123.908 E28.42386
G1 X117.618 Y123.907 E28.43114
G1 X117.851 Y124.004 E28.43954
G1 X117.994 Y124.128 E28.44583
G1 X121.64 Y131.02 E28.70516
G1 X124.858 Y136.9 E28.9281
G1 X126.9 Y136.9 E28.99602
G1 X126.9 Y133.028 E29.1248
G1 X126.9 Y132.621 E29.13834
G1 X119.947 Y116.744 E29.71483
G1 X119.899 Y116.556 E29.72128
G1 X119.897 Y98.101 E30.3351
G1 X115.103 Y98.101 E30.49455
G1 X115.103 Y116.628 E31.11076
G1 X108.101 Y132.621 E31.69143
G1 X108.1 Y136.9 E31.83375
G1 X110.115 Y136.899 E31.90077
G0 F7500 X110.353 Y137.299
;TYPE:WALL-OUTER
G1 F1350 X116.333 Y126.291 E32.31744
G1 X117.35 Y124.372 E32.38967
G1 X117.434 Y124.312 E32.39311
G1 X117.585 Y124.312 E32.39813
G1 X117.67 Y124.372 E32.40159
G1 X121.289 Y131.212 E32.65897
G1 X124.621 Y137.3 E32.8898
G1 X127.3 Y137.3 E32.9789
G1 X127.3 Y133.028 E33.12099
G1 X127.3 Y132.537 E33.13732
G1 X120.297 Y116.547 E33.71792
G1 X120.297 Y97.701 E34.34474
G1 X114.703 Y97.701 E34.5308
G1 X114.702 Y116.547 E35.15762
G1 X107.701 Y132.537 E35.73819
G1 X107.7 Y137.3 E35.89661
G1 X110.353 Y137.299 E35.98485
G0 F7500 X110.106 Y136.703
G0 X108.272 Y136.728
G0 X108.461 Y136.539
;TYPE:SKIN
G1 F1350 X109.899 Y136.539 E36.03268
G1 X115.652 Y125.95 E36.43349
G1 X116.748 Y123.884 E36.51128
G1 X117.144 Y123.603 E36.52743
G1 X117.508 Y123.532 E36.53976
G1 X117.874 Y123.604 E36.55217
G1 X118.27 Y123.881 E36.56824
G1 X121.95 Y130.835 E36.82992
G1 X125.073 Y136.54 E37.04624
G1 X126.54 Y136.54 E37.09503
G1 X126.54 Y133.028 E37.21184
G1 X126.54 Y132.696 E37.22288
G1 X119.617 Y116.889 E37.79684
G1 X119.539 Y116.578 E37.8075
G1 X119.537 Y98.461 E38.41008
G1 X115.463 Y98.461 E38.54558
G1 X115.462 Y116.707 E39.15244
G1 X108.461 Y132.696 E39.73299
G1 X108.461 Y136.539 E39.8608
G1 F2700 E34.8608
G0 F7500 X108.2 Y136.539
G0 X110.016 Y136.733
G0 X117.25 Y124.064
G0 X117.772 Y124.064
G0 X124.601 Y136.777
G0 X126.138 Y136.8
G1 F2700 E39.8608
G0 F7500 X126.138 Y136.339
G1 F1350 X126.339 Y136.138 E39.87026
G0 F7500 X126.339 Y135.572
G1 F1350 X125.572 Y136.339 E39.90634
G0 F7500 X125.127 Y136.219
G1 F1350 X126.339 Y135.007 E39.96335
G0 F7500 X126.339 Y134.441
G1 F1350 X124.927 Y135.853 E40.02976
G0 F7500 X124.727 Y135.488
G1 F1350 X126.339 Y133.875 E40.10561
G0 F7500 X126.339 Y133.31
G1 F1350 X124.527 Y135.122 E40.19084
G0 F7500 X124.327 Y134.756
G1 F1350 X126.339 Y132.744 E40.28548
G0 F7500 X126.169 Y132.349
G1 F1350 X124.126 Y134.391 E40.38155
G0 F7500 X123.926 Y134.025
G1 F1350 X125.996 Y131.956 E40.47889
G0 F7500 X125.824 Y131.562
G1 F1350 X123.726 Y133.66 E40.57758
G0 F7500 X123.526 Y133.294
G1 F1350 X125.652 Y131.169 E40.67755
G0 F7500 X125.479 Y130.775
G1 F1350 X123.325 Y132.929 E40.77887
G0 F7500 X123.125 Y132.564
G1 F1350 X125.307 Y130.382 E40.88151
G0 F7500 X125.135 Y129.988
G1 F1350 X122.925 Y132.198 E40.98546
G0 F7500 X122.725 Y131.832
G1 F1350 X124.962 Y129.595 E41.09068
G0 F7500 X124.79 Y129.201
G1 F1350 X122.525 Y131.467 E41.19724
G0 F7500 X122.325 Y131.101
G1 F1350 X124.618 Y128.808 E41.3051
G0 F7500 X124.445 Y128.415
G1 F1350 X122.125 Y130.736 E41.41425
G0 F7500 X121.929 Y130.366
G1 F1350 X124.274 Y128.021 E41.52455
G0 F7500 X124.101 Y127.628
G1 F1350 X121.733 Y129.996 E41.63593
G0 F7500 X121.537 Y129.626
G1 F1350 X123.928 Y127.235 E41.7484
G0 F7500 X123.757 Y126.841
G1 F1350 X121.341 Y129.256 E41.86201
G0 F7500 X121.146 Y128.886
G1 F1350 X123.584 Y126.448 E41.97669
G0 F7500 X123.412 Y126.054
G1 F1350 X120.95 Y128.516 E42.0925
G0 F7500 X120.754 Y128.146
G1 F1350 X123.24 Y125.661 E42.20941
G0 F7500 X123.067 Y125.268
G1 F1350 X120.558 Y127.777 E42.32742
G0 F7500 X120.363 Y127.407
G1 F1350 X122.895 Y124.874 E42.44654
G0 F7500 X122.723 Y124.481
G1 F1350 X120.167 Y127.037 E42.56677
G0 F7500 X119.971 Y126.667
G1 F1350 X122.55 Y124.088 E42.68808
G0 F7500 X122.378 Y123.694
G1 F1350 X119.776 Y126.297 E42.81049
G0 F7500 X119.58 Y125.927
G1 F1350 X122.206 Y123.301 E42.93401
G0 F7500 X122.033 Y122.907
G1 F1350 X119.384 Y125.557 E43.05863
G0 F7500 X119.188 Y125.187
G1 F1350 X121.862 Y122.514 E43.18439
G0 F7500 X121.689 Y122.12
G1 F1350 X118.992 Y124.817 E43.31125
G0 F7500 X118.796 Y124.447
G1 F1350 X121.517 Y121.727 E43.43921
G0 F7500 X121.345 Y121.333
G1 F1350 X118.6 Y124.078 E43.56833
G0 F7500 X118.383 Y123.73
G1 F1350 X121.172 Y120.94 E43.69954
G0 F7500 X121 Y120.547
G1 F1350 X118.059 Y123.488 E43.83787
G0 F7500 X117.63 Y123.351
G1 F1350 X120.828 Y120.153 E43.9883
G0 F7500 X120.655 Y119.76
G1 F1350 X116.851 Y123.564 E44.16722
G0 F7500 X116.507 Y123.908
G1 F1350 X109.425 Y130.99 E44.50034
G0 F7500 X109.006 Y130.806
G0 X109.447 Y129.799
G0 X109.866 Y129.984
G1 F1350 X120.483 Y119.366 E44.99975
G0 F7500 X120.311 Y118.973
G1 F1350 X110.306 Y128.978 E45.47036
G0 F7500 X109.887 Y128.794
G0 X110.327 Y127.787
G0 X110.747 Y127.972
G1 F1350 X120.138 Y118.58 E45.91211
G0 F7500 X119.967 Y118.186
G1 F1350 X111.187 Y126.965 E46.32507
G0 F7500 X110.768 Y126.781
G0 X111.208 Y125.775
G0 X111.628 Y125.959
G1 F1350 X119.794 Y117.793 E46.70917
G0 F7500 X119.621 Y117.4
G1 F1350 X112.068 Y124.953 E47.06444
G0 F7500 X111.649 Y124.769
G0 X112.089 Y123.763
G0 X112.509 Y123.947
G1 F1350 X119.45 Y117.006 E47.39092
G0 F7500 X119.337 Y116.553
G1 F1350 X112.95 Y122.94 E47.69135
G0 F7500 X112.53 Y122.755
G0 X112.971 Y121.749
G0 X113.39 Y121.934
G1 F1350 X119.337 Y115.987 E47.97108
G0 F7500 X119.337 Y115.421
G1 F1350 X113.831 Y120.927 E48.23006
G0 F7500 X113.411 Y120.742
G0 X113.852 Y119.736
G0 X114.271 Y119.921
G1 F1350 X119.337 Y114.856 E48.46833
G0 F7500 X119.337 Y114.29
G1 F1350 X114.712 Y118.915 E48.68587
G0 F7500 X114.292 Y118.73
G0 X114.733 Y117.725
G0 X115.153 Y117.909
G1 F1350 X119.337 Y113.724 E48.8827
G0 F7500 X119.337 Y113.159
G1 F1350 X115.593 Y116.903 E49.05881
G0 F7500 X115.662 Y116.268
G1 F1350 X119.337 Y112.593 E49.23167
G0 F7500 X119.337 Y112.027
G1 F1350 X115.662 Y115.702 E49.40453
G0 F7500 X115.662 Y115.136
G1 F1350 X119.337 Y111.461 E49.57739
G0 F7500 X119.337 Y110.896
G1 F1350 X115.662 Y114.571 E49.75025
G0 F7500 X115.662 Y114.005
G1 F1350 X119.336 Y110.331 E49.92306
G0 F7500 X119.336 Y109.765
G1 F1350 X115.662 Y113.439 E50.09588
G0 F7500 X115.662 Y112.874
G1 F1350 X119.336 Y109.199 E50.26871
G0 F7500 X119.336 Y108.634
G1 F1350 X115.662 Y112.308 E50.44153
G0 F7500 X115.662 Y111.742
G1 F1350 X119.336 Y108.068 E50.61434
G0 F7500 X119.336 Y107.502
