;FLAVOR:Marlin
;TIME:634
;Filament used: 0.359034m
;Layer height: 0.2
;MINX:107.7
;MINY:97.7
;MINZ:0.2
;MAXX:127.3
;MAXY:137.3
;MAXZ:2
;Generated with Cura_SteamEngine 5.2.2
M140 S50
M105
M190 S50
M104 S200
M105
M109 S200
M82 ;absolute extrusion mode
; Ender 3 Custom Start G-code
G92 E0 ; Reset Extruder
G28 ; Home all axes
G1 Z2.0 F3000 ; Move Z Axis up little to prevent scratching of Heat Bed
G1 X0.1 Y20 Z0.3 F5000.0 ; Move to start position
G1 X0.1 Y200.0 Z0.3 F1500.0 E15 ; Draw the first line
G1 X0.4 Y200.0 Z0.3 F5000.0 ; Move to side a little
G1 X0.4 Y20 Z0.3 F1500.0 E30 ; Draw the second line
G92 E0 ; Reset Extruder
G1 Z2.0 F3000 ; Move Z Axis up little to prevent scratching of Heat Bed
G1 X5 Y20 Z0.3 F5000.0 ; Move over to prevent blob squish
G92 E0
G92 E0
G1 F2700 E-5
;LAYER_COUNT:10
;LAYER:0
M107
;MESH:LETRA R.stl
G0 F6000 X108.101 Y136.899 Z0.2
;TYPE:WALL-INNER
G1 F2700 E0
G1 F1200 X126.9 Y136.9 E0.62526
G1 X126.9 Y119.844 E1.19254
G1 X126.9 Y118.103 E1.25045
G1 X117.497 Y118.103 E1.56319
G1 X117.257 Y118.053 E1.57135
G1 X117.07 Y117.926 E1.57887
G1 X116.956 Y117.765 E1.58543
G1 X116.904 Y117.601 E1.59115
G1 X116.903 Y117.411 E1.59747
G1 X116.965 Y117.223 E1.60405
G1 X126.9 Y98.353 E2.31334
G1 X126.9 Y98.1 E2.32176
G1 X122.871 Y98.1 E2.45576
G1 X113.051 Y117.739 E3.18607
G1 X112.935 Y117.898 E3.19261
G1 X112.618 Y118.061 E3.20447
G1 X112.359 Y118.05 E3.21309
G1 X112.174 Y117.972 E3.21977
G1 X111.977 Y117.766 E3.22925
G1 X111.897 Y117.465 E3.23961
G1 X111.897 Y98.1 E3.88369
G1 X108.1 Y98.1 E4.00998
G1 X108.101 Y136.899 E5.30044
G0 F6000 X107.701 Y137.299
;TYPE:WALL-OUTER
G1 F1200 X127.3 Y137.3 E5.9523
G1 X127.3 Y119.844 E6.53289
G1 X127.3 Y117.703 E6.6041
G1 X117.434 Y117.703 E6.93225
G1 X117.316 Y117.591 E6.93766
G1 X117.296 Y117.452 E6.94233
G1 X127.3 Y98.452 E7.65652
G1 X127.3 Y97.7 E7.68153
G1 X122.624 Y97.7 E7.83705
G1 X112.672 Y117.601 E8.57711
G1 X112.489 Y117.668 E8.5836
G1 X112.389 Y117.634 E8.58711
G1 X112.299 Y117.5 E8.59248
G1 X112.297 Y97.7 E9.25103
G1 X107.7 Y97.7 E9.40392
G1 X107.701 Y137.299 E10.72099
G1 F2700 E5.72099
G0 F6000 X107.97 Y137.03
G0 X112.497 Y137.08
G0 X112.498 Y134.284
G0 X112.497 Y134.103
;TYPE:WALL-INNER
G1 F2700 E10.72099
G1 F1200 X112.272 Y134.06 E10.72861
G1 X112.092 Y133.947 E10.73568
G1 X111.975 Y133.8 E10.74193
G1 X111.897 Y133.61 E10.74876
G1 X111.897 Y121.498 E11.15161
G1 X111.977 Y121.197 E11.16197
G1 X112.174 Y120.991 E11.17145
G1 X112.387 Y120.901 E11.17914
G1 X123.503 Y120.898 E11.54886
G1 X123.742 Y120.947 E11.55697
G1 X123.928 Y121.074 E11.56446
G1 X124.055 Y121.259 E11.57193
G1 X124.104 Y121.498 E11.58004
G1 X124.104 Y133.577 E11.98179
G1 X124.055 Y133.742 E11.98751
G1 X123.928 Y133.928 E11.99501
G1 X123.742 Y134.054 E12.00248
G1 X123.607 Y134.095 E12.00717
G1 X123.503 Y134.103 E12.01064
G1 X112.497 Y134.103 E12.3767
G0 F6000 X112.362 Y133.651
;TYPE:WALL-OUTER
G1 F1200 X112.299 Y133.538 E12.381
G1 X112.297 Y121.498 E12.78146
G1 X112.323 Y121.397 E12.78492
G1 X112.467 Y121.297 E12.79076
G1 X123.567 Y121.298 E13.15994
G1 X123.704 Y121.435 E13.16639
G1 X123.701 Y133.538 E13.56893
G1 X123.645 Y133.645 E13.57295
G1 X123.538 Y133.701 E13.57697
G1 X112.444 Y133.703 E13.94596
G1 X112.362 Y133.651 E13.94919
G0 F6000 X112.139 Y134.398
;TYPE:SKIN
G1 F1200 X111.847 Y134.214 E13.96066
G1 X111.66 Y133.978 E13.97068
G1 X111.539 Y133.665 E13.98184
G1 X111.538 Y121.478 E14.38718
G1 X111.565 Y121.266 E14.39429
G1 X111.692 Y120.978 E14.40476
G1 X111.968 Y120.694 E14.41793
G1 X112.311 Y120.544 E14.43038
G1 X123.498 Y120.538 E14.80246
G1 X123.886 Y120.613 E14.81561
G1 X124.182 Y120.819 E14.8276
G1 X124.389 Y121.113 E14.83956
G1 X124.464 Y121.503 E14.85277
G1 X124.462 Y133.63 E15.25612
G1 X124.388 Y133.89 E15.26511
G1 X124.182 Y134.182 E15.27699
G1 X123.916 Y134.368 E15.28779
G1 X123.635 Y134.461 E15.29763
G1 X112.463 Y134.46 E15.66921
G1 X112.139 Y134.398 E15.68019
G1 F2700 E10.68019
G0 F6000 X112.234 Y134.153
G0 X111.818 Y133.889
G0 X110.174 Y136.699
G0 X108.461 Y136.539
G1 F2700 E15.68019
G1 F1200 X126.54 Y136.54 E16.2815
G1 X126.54 Y119.844 E16.83681
G1 X126.54 Y118.463 E16.88274
G1 X117.461 Y118.459 E17.18471
G1 X117.112 Y118.387 E17.19656
G1 X116.814 Y118.184 E17.20855
G1 X116.631 Y117.92 E17.21924
G1 X116.556 Y117.687 E17.22738
G1 X116.545 Y117.352 E17.23853
G1 X116.639 Y117.067 E17.24851
G1 X126.431 Y98.463 E17.94776
G1 X123.094 Y98.461 E18.05875
G1 X113.371 Y117.901 E18.78169
G1 X113.186 Y118.161 E18.7923
G1 X112.887 Y118.36 E18.80424
G1 X112.544 Y118.427 E18.81587
G1 X112.247 Y118.392 E18.82581
G1 X111.967 Y118.268 E18.836
G1 X111.665 Y117.956 E18.85044
G1 X111.539 Y117.629 E18.8621
G1 X111.537 Y98.46 E19.49966
G1 X108.461 Y98.46 E19.60197
G1 X108.461 Y136.539 E20.86848
G0 F6000 X109.185 Y136.338
G1 F1200 X108.66 Y135.813 E20.89318
G0 F6000 X108.66 Y135.247
G1 F1200 X109.751 Y136.338 E20.94449
G0 F6000 X110.317 Y136.338
G1 F1200 X108.66 Y134.681 E21.02243
G0 F6000 X108.66 Y134.116
G1 F1200 X110.882 Y136.338 E21.12695
G0 F6000 X111.448 Y136.338
G1 F1200 X108.66 Y133.55 E21.25809
G0 F6000 X108.66 Y132.984
G1 F1200 X112.014 Y136.338 E21.41585
G0 F6000 X112.579 Y136.338
G1 F1200 X108.66 Y132.419 E21.60019
G0 F6000 X108.66 Y131.853
G1 F1200 X113.145 Y136.338 E21.81115
G0 F6000 X113.711 Y136.338
G1 F1200 X111.779 Y134.406 E21.90202
G0 F6000 X111.618 Y134.246
G1 F1200 X108.66 Y131.287 E22.04118
G0 F6000 X108.66 Y130.722
G1 F1200 X111.341 Y133.403 E22.16729
G0 F6000 X111.341 Y132.837
G1 F1200 X108.66 Y130.156 E22.2934
G0 F6000 X108.66 Y129.59
G1 F1200 X111.341 Y132.272 E22.41953
G0 F6000 X111.341 Y131.706
G1 F1200 X108.66 Y129.025 E22.54563
G0 F6000 X108.66 Y128.459
G1 F1200 X111.341 Y131.14 E22.67174
G0 F6000 X111.341 Y130.574
G1 F1200 X108.66 Y127.893 E22.79784
G0 F6000 X108.66 Y127.328
G1 F1200 X111.341 Y130.008 E22.92393
G0 F6000 X111.341 Y129.442
G1 F1200 X108.66 Y126.762 E23.05001
G0 F6000 X108.66 Y126.196
G1 F1200 X111.341 Y128.877 E23.17611
G0 F6000 X111.341 Y128.311
G1 F1200 X108.66 Y125.63 E23.30222
G0 F6000 X108.66 Y125.065
G1 F1200 X111.341 Y127.745 E23.4283
G0 F6000 X111.34 Y127.179
G1 F1200 X108.66 Y124.499 E23.55436
G0 F6000 X108.66 Y123.933
G1 F1200 X111.34 Y126.613 E23.68042
G0 F6000 X111.34 Y126.048
G1 F1200 X108.66 Y123.368 E23.80648
G0 F6000 X108.66 Y122.802
G1 F1200 X111.34 Y125.482 E23.93254
G0 F6000 X111.34 Y124.916
G1 F1200 X108.66 Y122.236 E24.0586
G0 F6000 X108.66 Y121.671
G1 F1200 X111.339 Y124.35 E24.18461
G0 F6000 X111.339 Y123.784
G1 F1200 X108.66 Y121.105 E24.31062
G0 F6000 X108.66 Y120.539
G1 F1200 X111.339 Y123.219 E24.43666
G0 F6000 X111.339 Y122.653
G1 F1200 X108.66 Y119.974 E24.56267
G0 F6000 X108.66 Y119.408
G1 F1200 X111.339 Y122.087 E24.68868
G0 F6000 X111.339 Y121.521
G1 F1200 X108.66 Y118.842 E24.81469
G0 F6000 X108.66 Y118.277
G1 F1200 X111.437 Y121.053 E24.94529
G0 F6000 X111.665 Y120.716
G1 F1200 X108.66 Y117.711 E25.08664
G0 F6000 X108.66 Y117.145
G1 F1200 X111.98 Y120.465 E25.2428
G0 F6000 X112.425 Y120.344
G1 F1200 X108.66 Y116.579 E25.41989
G0 F6000 X108.66 Y116.014
G1 F1200 X112.99 Y120.344 E25.62356
G0 F6000 X113.555 Y120.343
G1 F1200 X108.66 Y115.448 E25.85381
G0 F6000 X108.66 Y114.882
G1 F1200 X111.341 Y117.564 E25.97994
G0 F6000 X111.341 Y116.998
G1 F1200 X108.66 Y114.317 E26.10604
G0 F6000 X108.66 Y113.751
G1 F1200 X111.341 Y116.432 E26.23215
G0 F6000 X111.341 Y115.867
G1 F1200 X108.66 Y113.185 E26.35828
G0 F6000 X108.66 Y112.62
G1 F1200 X111.341 Y115.3 E26.48436
G0 F6000 X111.341 Y114.735
G1 F1200 X108.66 Y112.054 E26.61047
G0 F6000 X108.66 Y111.488
G1 F1200 X111.341 Y114.169 E26.73657
G0 F6000 X111.341 Y113.603
G1 F1200 X108.66 Y110.923 E26.86266
G0 F6000 X108.66 Y110.357
G1 F1200 X111.341 Y113.038 E26.98876
G0 F6000 X111.34 Y112.471
G1 F1200 X108.66 Y109.791 E27.11482
G0 F6000 X108.66 Y109.226
G1 F1200 X111.34 Y111.906 E27.24088
G0 F6000 X111.34 Y111.34
G1 F1200 X108.66 Y108.66 E27.36694
G0 F6000 X108.66 Y108.094
G1 F1200 X111.34 Y110.774 E27.493
G0 F6000 X111.339 Y110.208
G1 F1200 X108.66 Y107.529 E27.61901
G0 F6000 X108.66 Y106.963
G1 F1200 X111.339 Y109.642 E27.74502
G0 F6000 X111.339 Y109.076
G1 F1200 X108.66 Y106.397 E27.87104
G0 F6000 X108.66 Y105.831
G1 F1200 X111.339 Y108.511 E27.99707
G0 F6000 X111.338 Y107.944
G1 F1200 X108.66 Y105.266 E28.12304
G0 F6000 X108.66 Y104.7
G1 F1200 X111.338 Y107.379 E28.24902
G0 F6000 X111.338 Y106.813
G1 F1200 X108.66 Y104.134 E28.37501
G0 F6000 X108.66 Y103.569
G1 F1200 X111.338 Y106.247 E28.50098
G0 F6000 X111.338 Y105.681
G1 F1200 X108.66 Y103.003 E28.62694
G0 F6000 X108.66 Y102.437
G1 F1200 X111.338 Y105.115 E28.75291
G0 F6000 X111.338 Y104.549
G1 F1200 X108.66 Y101.872 E28.87885
G0 F6000 X108.66 Y101.306
G1 F1200 X111.338 Y103.984 E29.00481
G0 F6000 X111.338 Y103.418
G1 F1200 X108.66 Y100.74 E29.13078
G0 F6000 X108.66 Y100.175
G1 F1200 X111.337 Y102.852 E29.2567
G0 F6000 X111.337 Y102.286
G1 F1200 X108.66 Y99.609 E29.38261
G0 F6000 X108.66 Y99.043
G1 F1200 X111.337 Y101.72 E29.50853
G0 F6000 X111.337 Y101.155
G1 F1200 X108.842 Y98.66 E29.62589
G0 F6000 X109.408 Y98.66
G1 F1200 X111.336 Y100.588 E29.71658
G0 F6000 X111.336 Y100.023
G1 F1200 X109.974 Y98.66 E29.78066
G0 F6000 X110.539 Y98.66
G1 F1200 X111.336 Y99.457 E29.81815
G0 F6000 X111.336 Y98.891
G1 F1200 X111.105 Y98.66 E29.82902
G1 F2700 E24.82902
G0 F6000 X111.105 Y98.2
G0 X111.725 Y98.272
G0 X112.066 Y117.844
G0 X112.729 Y118.001
G0 X120.467 Y103.135
G1 F2700 E29.82902
G0 F6000 X120.877 Y103.34
G1 F1200 X122.685 Y105.149 E29.91408
G0 F6000 X122.881 Y104.779
G1 F1200 X121.065 Y102.963 E29.9995
G0 F6000 X121.253 Y102.586
G1 F1200 X123.076 Y104.408 E30.08523
G0 F6000 X123.271 Y104.038
G1 F1200 X121.442 Y102.209 E30.17126
G0 F6000 X121.63 Y101.831
G1 F1200 X123.466 Y103.667 E30.25762
G0 F6000 X123.66 Y103.296
G1 F1200 X121.819 Y101.454 E30.34424
G0 F6000 X122.008 Y101.078
G1 F1200 X123.856 Y102.925 E30.43114
G0 F6000 X124.051 Y102.555
G1 F1200 X122.197 Y100.701 E30.51834
G0 F6000 X122.385 Y100.323
G1 F1200 X124.246 Y102.184 E30.60588
G0 F6000 X124.441 Y101.814
G1 F1200 X122.574 Y99.946 E30.69372
G0 F6000 X122.762 Y99.569
G1 F1200 X124.636 Y101.443 E30.78187
G0 F6000 X124.831 Y101.073
G1 F1200 X122.951 Y99.192 E30.87032
G0 F6000 X123.139 Y98.815
G1 F1200 X125.026 Y100.701 E30.95906
G0 F6000 X125.221 Y100.331
G1 F1200 X123.552 Y98.661 E31.03759
G0 F6000 X124.117 Y98.661
G1 F1200 X125.416 Y99.96 E31.09869
G0 F6000 X125.611 Y99.59
G1 F1200 X124.684 Y98.662 E31.14231
G0 F6000 X125.25 Y98.663
G1 F1200 X125.807 Y99.219 E31.16849
G0 F6000 X126.002 Y98.849
G1 F1200 X125.816 Y98.663 E31.17724
G0 F6000 X125.818 Y98.203
G0 X122.974 Y98.266
G0 X120.278 Y103.513
G0 X120.688 Y103.717
G1 F1200 X122.49 Y105.52 E31.26202
G0 F6000 X122.296 Y105.891
G1 F1200 X120.499 Y104.094 E31.34655
G0 F6000 X120.31 Y104.471
G1 F1200 X122.101 Y106.261 E31.43077
G0 F6000 X121.905 Y106.632
G1 F1200 X120.122 Y104.849 E31.51463
G0 F6000 X119.933 Y105.225
G1 F1200 X121.71 Y107.002 E31.59822
G0 F6000 X121.515 Y107.373
G1 F1200 X119.744 Y105.602 E31.68152
G0 F6000 X119.556 Y105.979
G1 F1200 X121.32 Y107.743 E31.76449
G0 F6000 X121.125 Y108.114
G1 F1200 X119.368 Y106.357 E31.84714
G0 F6000 X119.179 Y106.734
G1 F1200 X120.93 Y108.485 E31.9295
G0 F6000 X120.735 Y108.856
G1 F1200 X118.99 Y107.111 E32.01158
G0 F6000 X118.802 Y107.488
G1 F1200 X120.54 Y109.226 E32.09333
G0 F6000 X120.345 Y109.597
G1 F1200 X118.613 Y107.865 E32.1748
G0 F6000 X118.424 Y108.242
G1 F1200 X120.15 Y109.967 E32.25596
G0 F6000 X119.955 Y110.338
G1 F1200 X118.236 Y108.619 E32.33682
G0 F6000 X118.047 Y108.996
G1 F1200 X119.76 Y110.709 E32.41739
G0 F6000 X119.565 Y111.08
G1 F1200 X117.859 Y109.373 E32.49766
G0 F6000 X117.67 Y109.75
G1 F1200 X119.37 Y111.45 E32.57762
G0 F6000 X119.175 Y111.821
G1 F1200 X117.482 Y110.128 E32.65726
G0 F6000 X117.293 Y110.505
G1 F1200 X118.979 Y112.191 E32.73656
G0 F6000 X118.784 Y112.562
G1 F1200 X117.104 Y110.882 E32.81558
G0 F6000 X116.915 Y111.259
G1 F1200 X118.589 Y112.932 E32.8943
G0 F6000 X118.395 Y113.303
G1 F1200 X116.727 Y111.636 E32.97273
G0 F6000 X116.538 Y112.013
G1 F1200 X118.199 Y113.674 E33.05086
G0 F6000 X118.004 Y114.045
G1 F1200 X116.35 Y112.39 E33.12868
G0 F6000 X116.162 Y112.767
G1 F1200 X117.809 Y114.415 E33.20618
G0 F6000 X117.614 Y114.786
G1 F1200 X115.973 Y113.144 E33.28339
G0 F6000 X115.784 Y113.521
G1 F1200 X117.419 Y115.156 E33.36029
G0 F6000 X117.224 Y115.527
G1 F1200 X115.595 Y113.898 E33.43692
G0 F6000 X115.407 Y114.276
G1 F1200 X117.029 Y115.898 E33.51321
G0 F6000 X116.834 Y116.268
G1 F1200 X115.218 Y114.653 E33.5892
G0 F6000 X115.03 Y115.03
G1 F1200 X116.639 Y116.639 E33.66488
G0 F6000 X116.448 Y117.014
G1 F1200 X114.841 Y115.407 E33.74047
G0 F6000 X114.653 Y115.784
G1 F1200 X116.353 Y117.485 E33.82045
G0 F6000 X116.904 Y117.122
G0 X116.873 Y117.774
G0 X117.533 Y118.204
G0 X117.531 Y118.663
G1 F1200 X119.209 Y120.34 E33.89936
G0 F6000 X119.773 Y120.339
G1 F1200 X118.097 Y118.663 E33.97819
G0 F6000 X118.663 Y118.663
G1 F1200 X120.339 Y120.339 E34.05703
G0 F6000 X120.904 Y120.338
G1 F1200 X119.228 Y118.663 E34.13584
G0 F6000 X119.794 Y118.663
G1 F1200 X121.47 Y120.338 E34.21465
G0 F6000 X122.035 Y120.338
G1 F1200 X120.36 Y118.663 E34.29343
G0 F6000 X120.925 Y118.663
G1 F1200 X122.6 Y120.337 E34.3722
G0 F6000 X123.165 Y120.337
G1 F1200 X121.491 Y118.663 E34.45094
G0 F6000 X122.057 Y118.663
G1 F1200 X123.78 Y120.386 E34.53198
G0 F6000 X123.687 Y120.837
G0 X124.204 Y121.593
G0 X124.612 Y121.218
G1 F1200 X126.339 Y122.945 E34.61322
G0 F6000 X126.339 Y123.511
G1 F1200 X124.662 Y121.833 E34.69212
G0 F6000 X124.662 Y122.399
G1 F1200 X126.339 Y124.076 E34.771
G0 F6000 X126.339 Y124.642
G1 F1200 X124.662 Y122.965 E34.84988
G0 F6000 X124.661 Y123.53
G1 F1200 X126.339 Y125.208 E34.92881
G0 F6000 X126.339 Y125.773
G1 F1200 X124.661 Y124.095 E35.00774
G0 F6000 X124.661 Y124.661
G1 F1200 X126.339 Y126.339 E35.08667
G0 F6000 X126.339 Y126.905
G1 F1200 X124.661 Y125.227 E35.16559
G0 F6000 X124.66 Y125.792
G1 F1200 X126.339 Y127.47 E35.24455
G0 F6000 X126.339 Y128.036
G1 F1200 X124.66 Y126.357 E35.32352
G0 F6000 X124.66 Y126.923
G1 F1200 X126.339 Y128.602 E35.4025
G0 F6000 X126.339 Y129.167
G1 F1200 X124.66 Y127.489 E35.48145
G0 F6000 X124.66 Y128.054
G1 F1200 X126.339 Y129.733 E35.56042
G0 F6000 X126.339 Y130.299
G1 F1200 X124.66 Y128.619 E35.63942
G0 F6000 X124.66 Y129.185
G1 F1200 X126.339 Y130.864 E35.7184
G0 F6000 X126.339 Y131.43
G1 F1200 X124.659 Y129.75 E35.79742
G0 F6000 X124.659 Y130.316
G1 F1200 X126.339 Y131.996 E35.87644
G0 F6000 X126.339 Y132.562
G1 F1200 X124.659 Y130.881 E35.95548
G0 F6000 X124.659 Y131.447
G1 F1200 X126.339 Y133.127 E36.03451
G0 F6000 X126.339 Y133.693
G1 F1200 X124.658 Y132.012 E36.11358
G0 F6000 X124.658 Y132.578
G1 F1200 X126.339 Y134.259 E36.19265
G0 F6000 X126.339 Y134.824
G1 F1200 X124.658 Y133.143 E36.27171
G0 F6000 X124.648 Y133.699
G1 F1200 X126.339 Y135.39 E36.35125
G0 F6000 X126.339 Y135.956
G1 F1200 X124.484 Y134.1 E36.43853
G0 F6000 X124.219 Y134.401
G1 F1200 X126.156 Y136.338 E36.52964
G0 F6000 X125.59 Y136.338
G1 F1200 X123.855 Y134.603 E36.61125
G0 F6000 X123.344 Y134.657
G1 F1200 X125.024 Y136.338 E36.6903
G0 F6000 X124.459 Y136.338
G1 F1200 X122.778 Y134.657 E36.76936
G0 F6000 X122.212 Y134.657
G1 F1200 X123.893 Y136.338 E36.84843
G0 F6000 X123.327 Y136.338
G1 F1200 X121.647 Y134.658 E36.92746
G0 F6000 X121.082 Y134.658
G1 F1200 X122.762 Y136.338 E37.00648
G0 F6000 X122.196 Y136.338
G1 F1200 X120.516 Y134.658 E37.0855
G0 F6000 X119.951 Y134.659
G1 F1200 X121.63 Y136.338 E37.16448
G0 F6000 X121.065 Y136.338
G1 F1200 X119.385 Y134.659 E37.24347
G0 F6000 X118.82 Y134.66
G1 F1200 X120.499 Y136.338 E37.32243
G0 F6000 X119.933 Y136.338
G1 F1200 X118.255 Y134.66 E37.40135
G0 F6000 X117.689 Y134.66
G1 F1200 X119.368 Y136.338 E37.4803
G0 F6000 X118.802 Y136.338
G1 F1200 X117.124 Y134.66 E37.55923
G0 F6000 X116.558 Y134.66
G1 F1200 X118.236 Y136.338 E37.63816
G0 F6000 X117.671 Y136.338
G1 F1200 X115.993 Y134.66 E37.71709
G0 F6000 X115.428 Y134.661
G1 F1200 X117.105 Y136.338 E37.79597
G0 F6000 X116.539 Y136.338
G1 F1200 X114.862 Y134.661 E37.87485
G0 F6000 X114.296 Y134.661
