;FLAVOR:Marlin
;TIME:582
;Filament used: 0.346364m
;Layer height: 0.2
;MINX:107.7
;MINY:97.7
;MINZ:0.2
;MAXX:127.3
;MAXY:137.3
;MAXZ:2
;Generated with Cura_SteamEngine 5.2.2
M140 S50
M105
M190 S50
M104 S200
M105
M109 S200
M82 ;absolute extrusion mode
; Ender 3 Custom Start G-code
G92 E0 ; Reset Extruder
G28 ; Home all axes
G1 Z2.0 F3000 ; Move Z Axis up little to prevent scratching of Heat Bed
G1 X0.1 Y20 Z0.3 F5000.0 ; Move to start position
G1 X0.1 Y200.0 Z0.3 F1500.0 E15 ; Draw the first line
G1 X0.4 Y200.0 Z0.3 F5000.0 ; Move to side a little
G1 X0.4 Y20 Z0.3 F1500.0 E30 ; Draw the second line
G92 E0 ; Reset Extruder
G1 Z2.0 F3000 ; Move Z Axis up little to prevent scratching of Heat Bed
G1 X5 Y20 Z0.3 F5000.0 ; Move over to prevent blob squish
G92 E0
G92 E0
G1 F2700 E-5
;LAYER_COUNT:10
;LAYER:0
M107
;MESH:LETRA U.stl
G0 F6000 X111.897 Y136.9 Z0.2
;TYPE:WALL-INNER
G1 F2700 E0
G1 F1200 X111.897 Y103.498 E1.11096
G1 X111.935 Y103.285 E1.11815
G1 X112.038 Y103.11 E1.12491
G1 X112.175 Y102.991 E1.13094
G1 X112.379 Y102.898 E1.1384
G1 X122.622 Y102.898 E1.47908
G1 X122.824 Y102.991 E1.48648
G1 X122.961 Y103.11 E1.49251
G1 X123.064 Y103.285 E1.49927
G1 X123.102 Y103.498 E1.50646
G1 X123.102 Y136.9 E2.61742
G1 X126.9 Y136.9 E2.74374
G1 X126.9 Y100.753 E3.94599
G1 X126.9 Y98.1 E4.03423
G1 X108.101 Y98.101 E4.65949
G1 X108.1 Y136.9 E5.94995
G1 X111.897 Y136.9 E6.07624
G0 F6000 X112.297 Y137.3
;TYPE:WALL-OUTER
G1 F1200 X112.297 Y103.442 E7.20236
G1 X112.389 Y103.329 E7.20721
G1 X112.462 Y103.3 E7.20982
G1 X122.543 Y103.298 E7.54512
G1 X122.655 Y103.368 E7.54951
G1 X122.702 Y103.447 E7.55257
G1 X122.702 Y137.3 E8.67852
G1 X127.3 Y137.3 E8.83145
G1 X127.3 Y100.753 E10.04701
G1 X127.3 Y97.7 E10.14855
G1 X107.701 Y97.701 E10.80042
G1 X107.7 Y137.3 E12.11749
G1 X112.297 Y137.3 E12.27038
G0 F6000 X112.027 Y137.03
G0 X111.797 Y136.54
G0 X111.537 Y136.54
;TYPE:SKIN
G1 F1200 X111.54 Y103.463 E13.37053
G1 X111.597 Y103.156 E13.38091
G1 X111.759 Y102.876 E13.39167
G1 X111.957 Y102.704 E13.4004
G1 X112.198 Y102.585 E13.40934
G1 X112.474 Y102.539 E13.41864
G1 X122.524 Y102.54 E13.75291
G1 X122.808 Y102.589 E13.76249
G1 X123.016 Y102.686 E13.77013
G1 X123.242 Y102.878 E13.77999
G1 X123.402 Y103.156 E13.79066
G1 X123.459 Y103.463 E13.80104
G1 X123.462 Y136.54 E14.90119
G1 X126.54 Y136.54 E15.00356
G1 X126.54 Y100.753 E16.19384
G1 X126.54 Y98.46 E16.27011
G1 X108.462 Y98.462 E16.87139
G1 X108.461 Y136.54 E18.13786
G1 X111.537 Y136.54 E18.24017
G0 F6000 X111.797 Y136.54
G0 X109.186 Y136.8
G0 X109.186 Y136.339
G1 F1200 X108.66 Y135.813 E18.26491
G0 F6000 X108.66 Y135.247
G1 F1200 X109.752 Y136.339 E18.31628
G0 F6000 X110.317 Y136.339
G1 F1200 X108.66 Y134.681 E18.39424
G0 F6000 X108.66 Y134.116
G1 F1200 X110.883 Y136.339 E18.49881
G0 F6000 X111.337 Y136.227
G1 F1200 X108.66 Y133.55 E18.62472
G0 F6000 X108.66 Y132.984
G1 F1200 X111.337 Y135.661 E18.75064
G0 F6000 X111.337 Y135.096
G1 F1200 X108.66 Y132.419 E18.87656
G0 F6000 X108.66 Y131.853
G1 F1200 X111.337 Y134.53 E19.00248
G0 F6000 X111.337 Y133.964
G1 F1200 X108.66 Y131.287 E19.1284
G0 F6000 X108.66 Y130.722
G1 F1200 X111.337 Y133.399 E19.25431
G0 F6000 X111.337 Y132.833
G1 F1200 X108.66 Y130.156 E19.38023
G0 F6000 X108.66 Y129.59
G1 F1200 X111.337 Y132.267 E19.50615
G0 F6000 X111.337 Y131.702
G1 F1200 X108.66 Y129.025 E19.63207
G0 F6000 X108.66 Y128.459
G1 F1200 X111.337 Y131.136 E19.75798
G0 F6000 X111.337 Y130.57
G1 F1200 X108.66 Y127.893 E19.8839
G0 F6000 X108.66 Y127.328
G1 F1200 X111.337 Y130.005 E20.00982
G0 F6000 X111.337 Y129.439
G1 F1200 X108.66 Y126.762 E20.13574
G0 F6000 X108.66 Y126.196
G1 F1200 X111.337 Y128.873 E20.26166
G0 F6000 X111.337 Y128.308
G1 F1200 X108.66 Y125.63 E20.3876
G0 F6000 X108.66 Y125.065
G1 F1200 X111.337 Y127.742 E20.51352
G0 F6000 X111.337 Y127.176
G1 F1200 X108.66 Y124.499 E20.63943
G0 F6000 X108.66 Y123.933
G1 F1200 X111.337 Y126.611 E20.76537
G0 F6000 X111.337 Y126.045
G1 F1200 X108.66 Y123.368 E20.89129
G0 F6000 X108.66 Y122.802
G1 F1200 X111.337 Y125.479 E21.01721
G0 F6000 X111.337 Y124.913
G1 F1200 X108.66 Y122.236 E21.14313
G0 F6000 X108.66 Y121.671
G1 F1200 X111.337 Y124.348 E21.26905
G0 F6000 X111.337 Y123.782
G1 F1200 X108.66 Y121.105 E21.39496
G0 F6000 X108.66 Y120.539
G1 F1200 X111.337 Y123.216 E21.52088
G0 F6000 X111.337 Y122.651
G1 F1200 X108.66 Y119.974 E21.6468
G0 F6000 X108.66 Y119.408
G1 F1200 X111.337 Y122.085 E21.77272
G0 F6000 X111.337 Y121.519
G1 F1200 X108.66 Y118.842 E21.89864
G0 F6000 X108.66 Y118.277
G1 F1200 X111.337 Y120.954 E22.02455
G0 F6000 X111.337 Y120.388
G1 F1200 X108.66 Y117.711 E22.15047
G0 F6000 X108.661 Y117.146
G1 F1200 X111.337 Y119.822 E22.27634
G0 F6000 X111.337 Y119.257
G1 F1200 X108.661 Y116.58 E22.40224
G0 F6000 X108.661 Y116.015
G1 F1200 X111.337 Y118.691 E22.52811
G0 F6000 X111.337 Y118.125
G1 F1200 X108.661 Y115.449 E22.65398
G0 F6000 X108.661 Y114.883
G1 F1200 X111.337 Y117.56 E22.77987
G0 F6000 X111.337 Y116.994
G1 F1200 X108.661 Y114.317 E22.90577
G0 F6000 X108.661 Y113.752
G1 F1200 X111.337 Y116.428 E23.03164
G0 F6000 X111.337 Y115.862
G1 F1200 X108.661 Y113.186 E23.15751
G0 F6000 X108.661 Y112.62
G1 F1200 X111.337 Y115.297 E23.2834
G0 F6000 X111.337 Y114.731
G1 F1200 X108.661 Y112.055 E23.40927
G0 F6000 X108.661 Y111.489
G1 F1200 X111.337 Y114.165 E23.53514
G0 F6000 X111.337 Y113.6
G1 F1200 X108.661 Y110.923 E23.66104
G0 F6000 X108.661 Y110.358
G1 F1200 X111.337 Y113.034 E23.78691
G0 F6000 X111.337 Y112.468
G1 F1200 X108.661 Y109.792 E23.91278
G0 F6000 X108.661 Y109.226
G1 F1200 X111.337 Y111.903 E24.03867
G0 F6000 X111.337 Y111.337
G1 F1200 X108.661 Y108.661 E24.16455
G0 F6000 X108.661 Y108.095
G1 F1200 X111.337 Y110.771 E24.29042
G0 F6000 X111.337 Y110.206
G1 F1200 X108.661 Y107.529 E24.41631
G0 F6000 X108.661 Y106.964
G1 F1200 X111.337 Y109.64 E24.54218
G0 F6000 X111.337 Y109.074
G1 F1200 X108.661 Y106.398 E24.66805
G0 F6000 X108.661 Y105.832
G1 F1200 X111.337 Y108.509 E24.79395
G0 F6000 X111.337 Y107.943
G1 F1200 X108.661 Y105.266 E24.91984
G0 F6000 X108.661 Y104.701
G1 F1200 X111.337 Y107.377 E25.04571
G0 F6000 X111.337 Y106.812
G1 F1200 X108.661 Y104.135 E25.17161
G0 F6000 X108.661 Y103.569
G1 F1200 X111.337 Y106.246 E25.2975
G0 F6000 X111.337 Y105.68
G1 F1200 X108.661 Y103.004 E25.42337
G0 F6000 X108.661 Y102.438
G1 F1200 X111.337 Y105.114 E25.54924
G0 F6000 X111.337 Y104.549
G1 F1200 X108.661 Y101.872 E25.67514
G0 F6000 X108.661 Y101.307
G1 F1200 X111.337 Y103.983 E25.80101
G0 F6000 X111.343 Y103.424
G1 F1200 X108.661 Y100.741 E25.92718
G0 F6000 X108.661 Y100.175
G1 F1200 X111.466 Y102.981 E26.05915
G0 F6000 X111.707 Y102.656
G1 F1200 X108.661 Y99.61 E26.20242
G0 F6000 X108.661 Y99.044
G1 F1200 X112.05 Y102.433 E26.36183
G0 F6000 X112.522 Y102.34
G1 F1200 X108.844 Y98.661 E26.53485
G0 F6000 X109.409 Y98.661
G1 F1200 X113.088 Y102.34 E26.7079
G0 F6000 X113.653 Y102.34
G1 F1200 X109.975 Y98.661 E26.88093
G0 F6000 X110.541 Y98.661
G1 F1200 X114.219 Y102.34 E27.05395
G0 F6000 X114.784 Y102.339
G1 F1200 X111.106 Y98.661 E27.22696
G0 F6000 X111.672 Y98.661
G1 F1200 X115.35 Y102.339 E27.39996
G0 F6000 X115.916 Y102.339
G1 F1200 X112.238 Y98.661 E27.57296
G0 F6000 X112.804 Y98.661
G1 F1200 X116.48 Y102.338 E27.74589
G0 F6000 X117.046 Y102.338
G1 F1200 X113.369 Y98.661 E27.91885
G0 F6000 X113.935 Y98.661
G1 F1200 X117.612 Y102.338 E28.0918
G0 F6000 X118.178 Y102.338
G1 F1200 X114.501 Y98.661 E28.26476
G0 F6000 X115.066 Y98.661
G1 F1200 X118.743 Y102.338 E28.43771
G0 F6000 X119.308 Y102.338
G1 F1200 X115.632 Y98.661 E28.61064
G0 F6000 X116.198 Y98.661
G1 F1200 X119.874 Y102.338 E28.78357
G0 F6000 X120.44 Y102.338
G1 F1200 X116.763 Y98.661 E28.95653
G0 F6000 X117.329 Y98.661
G1 F1200 X121.005 Y102.337 E29.12944
G0 F6000 X121.57 Y102.337
G1 F1200 X117.894 Y98.661 E29.30234
G0 F6000 X118.46 Y98.661
G1 F1200 X122.136 Y102.337 E29.47525
G0 F6000 X122.733 Y102.369
G1 F1200 X119.025 Y98.661 E29.64966
G0 F6000 X119.591 Y98.661
G1 F1200 X126.339 Y105.409 E29.96707
G0 F6000 X126.339 Y105.974
G1 F1200 X123.624 Y103.259 E30.09477
G0 F6000 X123.661 Y103.862
G1 F1200 X126.339 Y106.54 E30.22074
G0 F6000 X126.339 Y107.106
G1 F1200 X123.661 Y104.428 E30.3467
G0 F6000 X123.661 Y104.994
G1 F1200 X126.339 Y107.671 E30.47265
G0 F6000 X126.339 Y108.237
G1 F1200 X123.661 Y105.559 E30.59861
G0 F6000 X123.661 Y106.125
G1 F1200 X126.339 Y108.803 E30.72458
G0 F6000 X126.339 Y109.368
G1 F1200 X123.661 Y106.691 E30.85052
G0 F6000 X123.661 Y107.256
G1 F1200 X126.339 Y109.934 E30.97648
G0 F6000 X126.339 Y110.5
G1 F1200 X123.661 Y107.822 E31.10245
G0 F6000 X123.661 Y108.388
G1 F1200 X126.339 Y111.065 E31.22839
G0 F6000 X126.339 Y111.631
G1 F1200 X123.661 Y108.953 E31.35435
G0 F6000 X123.661 Y109.519
G1 F1200 X126.339 Y112.197 E31.48032
G0 F6000 X126.339 Y112.763
G1 F1200 X123.661 Y110.085 E31.60628
G0 F6000 X123.661 Y110.65
G1 F1200 X126.339 Y113.328 E31.73225
G0 F6000 X126.339 Y113.894
G1 F1200 X123.661 Y111.216 E31.85821
G0 F6000 X123.661 Y111.782
G1 F1200 X126.339 Y114.46 E31.98418
G0 F6000 X126.339 Y115.025
G1 F1200 X123.661 Y112.347 E32.11014
G0 F6000 X123.661 Y112.913
G1 F1200 X126.339 Y115.591 E32.23611
G0 F6000 X126.339 Y116.157
G1 F1200 X123.661 Y113.479 E32.36207
G0 F6000 X123.661 Y114.045
G1 F1200 X126.339 Y116.722 E32.48801
G0 F6000 X126.339 Y117.288
G1 F1200 X123.661 Y114.61 E32.61398
G0 F6000 X123.661 Y115.176
G1 F1200 X126.339 Y117.854 E32.73994
G0 F6000 X126.339 Y118.419
G1 F1200 X123.661 Y115.742 E32.86588
G0 F6000 X123.661 Y116.307
G1 F1200 X126.339 Y118.985 E32.99185
G0 F6000 X126.339 Y119.551
G1 F1200 X123.661 Y116.873 E33.11781
G0 F6000 X123.661 Y117.439
G1 F1200 X126.339 Y120.116 E33.24376
G0 F6000 X126.339 Y120.682
G1 F1200 X123.661 Y118.004 E33.36972
G0 F6000 X123.661 Y118.57
G1 F1200 X126.339 Y121.248 E33.49569
G0 F6000 X126.339 Y121.813
G1 F1200 X123.661 Y119.136 E33.62163
G0 F6000 X123.661 Y119.701
G1 F1200 X126.339 Y122.379 E33.74759
G0 F6000 X126.339 Y122.945
G1 F1200 X123.661 Y120.267 E33.87356
G0 F6000 X123.661 Y120.833
G1 F1200 X126.339 Y123.511 E33.99952
G0 F6000 X126.339 Y124.076
G1 F1200 X123.661 Y121.398 E34.12549
G0 F6000 X123.661 Y121.964
G1 F1200 X126.339 Y124.642 E34.25145
G0 F6000 X126.339 Y125.208
G1 F1200 X123.661 Y122.53 E34.37742
G0 F6000 X123.661 Y123.095
G1 F1200 X126.339 Y125.773 E34.50338
G0 F6000 X126.339 Y126.339
G1 F1200 X123.661 Y123.661 E34.62935
G0 F6000 X123.661 Y124.227
G1 F1200 X126.339 Y126.905 E34.75531
G0 F6000 X126.339 Y127.47
G1 F1200 X123.661 Y124.793 E34.88125
G0 F6000 X123.661 Y125.358
G1 F1200 X126.339 Y128.036 E35.00722
G0 F6000 X126.339 Y128.602
G1 F1200 X123.661 Y125.924 E35.13318
G0 F6000 X123.661 Y126.49
G1 F1200 X126.339 Y129.167 E35.25912
G0 F6000 X126.339 Y129.733
G1 F1200 X123.661 Y127.055 E35.38509
G0 F6000 X123.661 Y127.621
G1 F1200 X126.339 Y130.299 E35.51105
G0 F6000 X126.339 Y130.864
G1 F1200 X123.661 Y128.187 E35.63699
G0 F6000 X123.661 Y128.752
G1 F1200 X126.339 Y131.43 E35.76296
G0 F6000 X126.339 Y131.996
G1 F1200 X123.661 Y129.318 E35.88892
G0 F6000 X123.661 Y129.884
G1 F1200 X126.339 Y132.562 E36.01489
G0 F6000 X126.339 Y133.127
G1 F1200 X123.661 Y130.449 E36.14085
G0 F6000 X123.661 Y131.015
G1 F1200 X126.339 Y133.693 E36.26682
G0 F6000 X126.339 Y134.259
G1 F1200 X123.661 Y131.581 E36.39278
G0 F6000 X123.661 Y132.146
G1 F1200 X126.339 Y134.824 E36.51875
G0 F6000 X126.339 Y135.39
G1 F1200 X123.661 Y132.712 E36.64471
G0 F6000 X123.661 Y133.278
G1 F1200 X126.339 Y135.956 E36.77068
G0 F6000 X126.157 Y136.339
G1 F1200 X123.661 Y133.843 E36.88808
G0 F6000 X123.661 Y134.409
G1 F1200 X125.591 Y136.339 E36.97886
G0 F6000 X125.025 Y136.339
G1 F1200 X123.661 Y134.975 E37.04302
G0 F6000 X123.661 Y135.541
G1 F1200 X124.459 Y136.339 E37.08056
G0 F6000 X123.894 Y136.339
G1 F1200 X123.661 Y136.106 E37.09152
G1 F2700 E32.09152
G0 F6000 X123.202 Y136.106
G0 X123.274 Y136.728
G0 X126.728 Y136.728
G0 X126.8 Y104.843
G1 F2700 E37.09152
G0 F6000 X126.339 Y104.843
G1 F1200 X120.157 Y98.661 E37.3823
G0 F6000 X120.722 Y98.661
G1 F1200 X126.339 Y104.277 E37.64648
G0 F6000 X126.339 Y103.712
G1 F1200 X121.288 Y98.661 E37.88407
G0 F6000 X121.854 Y98.661
G1 F1200 X126.339 Y103.146 E38.09503
G0 F6000 X126.339 Y102.58
G1 F1200 X122.419 Y98.661 E38.27939
G0 F6000 X122.985 Y98.661
G1 F1200 X126.339 Y102.015 E38.43715
G0 F6000 X126.339 Y101.449
G1 F1200 X123.551 Y98.661 E38.56829
G0 F6000 X124.117 Y98.661
G1 F1200 X126.339 Y100.883 E38.67281
G0 F6000 X126.339 Y100.317
G1 F1200 X124.682 Y98.661 E38.75072
G0 F6000 X125.248 Y98.661
G1 F1200 X126.339 Y99.752 E38.80204
G0 F6000 X126.339 Y99.186
G1 F1200 X125.814 Y98.661 E38.82673
G1 F2700 E33.82673
;MESH:NONMESH
G0 F300 X125.814 Y98.661 Z0.4
G0 F6000 X125.814 Y98.2
G0 X126.728 Y98.272
G0 X126.728 Y136.728
G0 X123.274 Y136.728
G0 X122.93 Y103.07
G0 X112.069 Y103.07
G0 X111.897 Y136.9
;TIME_ELAPSED:77.780077
;LAYER:1
M106 S85
;TYPE:WALL-INNER
;MESH:LETRA U.stl
G1 F2700 E38.82673
G1 F1350 X111.897 Y103.498 E39.93769
G1 X111.935 Y103.285 E39.94489
G1 X112.038 Y103.11 E39.95164
G1 X112.175 Y102.991 E39.95767
G1 X112.379 Y102.898 E39.96513
G1 X122.622 Y102.898 E40.30582
G1 X122.824 Y102.991 E40.31321
G1 X122.961 Y103.11 E40.31925
G1 X123.064 Y103.285 E40.326
G1 X123.102 Y103.498 E40.3332
G1 X123.102 Y136.9 E41.44415
G1 X126.9 Y136.9 E41.57047
G1 X126.9 Y100.753 E42.77273
G1 X126.9 Y98.1 E42.86097
G1 X108.101 Y98.101 E43.48622
G1 X108.1 Y136.9 E44.77668
G1 X111.897 Y136.9 E44.90297
G0 F7500 X112.297 Y137.3
;TYPE:WALL-OUTER
G1 F1350 X112.297 Y103.442 E46.0291
G1 X112.389 Y103.329 E46.03394
G1 X112.462 Y103.3 E46.03655
G1 X122.543 Y103.298 E46.37185
G1 X122.655 Y103.368 E46.37624
G1 X122.702 Y103.447 E46.3793
G1 X122.702 Y137.3 E47.50526
G1 X127.3 Y137.3 E47.65819
G1 X127.3 Y100.753 E48.87374
G1 X127.3 Y97.7 E48.97529
G1 X107.701 Y97.701 E49.62715
G1 X107.7 Y137.3 E50.94422
G1 X112.297 Y137.3 E51.09712
G0 F7500 X112.027 Y137.03
G0 X111.797 Y136.54
G0 X111.537 Y136.54
;TYPE:SKIN
G1 F1350 X111.54 Y103.463 E52.19726
G1 X111.597 Y103.156 E52.20765
G1 X111.759 Y102.876 E52.21841
G1 X111.957 Y102.704 E52.22713
G1 X112.198 Y102.585 E52.23607
G1 X112.474 Y102.539 E52.24538
G1 X122.524 Y102.54 E52.57964
G1 X122.808 Y102.589 E52.58923
G1 X123.016 Y102.686 E52.59686
G1 X123.242 Y102.878 E52.60672
G1 X123.402 Y103.156 E52.61739
G1 X123.459 Y103.463 E52.62778
G1 X123.462 Y136.54 E53.72792
G1 X126.54 Y136.54 E53.8303
G1 X126.54 Y100.753 E55.02058
G1 X126.54 Y98.46 E55.09684
G1 X108.462 Y98.462 E55.69812
G1 X108.461 Y136.54 E56.9646
G1 X111.537 Y136.54 E57.06691
G1 F2700 E52.06691
G0 F7500 X111.797 Y136.54
G0 X112.069 Y103.07
G0 X122.93 Y103.07
G0 X122.941 Y136.742
G0 X126.138 Y136.8
G1 F2700 E57.06691
G0 F7500 X126.138 Y136.339
G1 F1350 X126.339 Y136.138 E57.07636
G0 F7500 X126.339 Y135.572
G1 F1350 X125.572 Y136.339 E57.11244
G0 F7500 X125.007 Y136.339
G1 F1350 X126.339 Y135.007 E57.17509
G0 F7500 X126.339 Y134.441
G1 F1350 X124.441 Y136.339 E57.26437
G0 F7500 X123.875 Y136.339
G1 F1350 X126.339 Y133.875 E57.38027
G0 F7500 X126.339 Y133.31
G1 F1350 X123.662 Y135.987 E57.50619
G0 F7500 X123.662 Y135.421
G1 F1350 X126.339 Y132.744 E57.6321
G0 F7500 X126.339 Y132.178
G1 F1350 X123.662 Y134.855 E57.75802
G0 F7500 X123.662 Y134.29
G1 F1350 X126.339 Y131.613 E57.88394
G0 F7500 X126.339 Y131.047
G1 F1350 X123.662 Y133.724 E58.00986
G0 F7500 X123.662 Y133.158
G1 F1350 X126.339 Y130.481 E58.13577
G0 F7500 X126.339 Y129.916
G1 F1350 X123.662 Y132.593 E58.26169
G0 F7500 X123.662 Y132.027
G1 F1350 X126.339 Y129.35 E58.38761
G0 F7500 X126.339 Y128.784
G1 F1350 X123.662 Y131.461 E58.51353
G0 F7500 X123.662 Y130.896
G1 F1350 X126.339 Y128.218 E58.63947
G0 F7500 X126.339 Y127.653
G1 F1350 X123.662 Y130.33 E58.76539
G0 F7500 X123.662 Y129.764
G1 F1350 X126.339 Y127.087 E58.89131
G0 F7500 X126.339 Y126.521
G1 F1350 X123.662 Y129.199 E59.01725
G0 F7500 X123.662 Y128.633
G1 F1350 X126.339 Y125.956 E59.14316
G0 F7500 X126.339 Y125.39
G1 F1350 X123.662 Y128.067 E59.26908
G0 F7500 X123.662 Y127.501
G1 F1350 X126.339 Y124.824 E59.395
G0 F7500 X126.339 Y124.259
G1 F1350 X123.662 Y126.936 E59.52092
G0 F7500 X123.662 Y126.37
