;FLAVOR:Marlin
;TIME:531
;Filament used: 0.324962m
;Layer height: 0.2
;MINX:107.7
;MINY:97.7
;MINZ:0.2
;MAXX:127.3
;MAXY:137.3
;MAXZ:2
;Generated with Cura_SteamEngine 5.2.2
M140 S50
M105
M190 S50
M104 S200
M105
M109 S200
M82 ;absolute extrusion mode
; Ender 3 Custom Start G-code
G92 E0 ; Reset Extruder
G28 ; Home all axes
G1 Z2.0 F3000 ; Move Z Axis up little to prevent scratching of Heat Bed
G1 X0.1 Y20 Z0.3 F5000.0 ; Move to start position
G1 X0.1 Y200.0 Z0.3 F1500.0 E15 ; Draw the first line
G1 X0.4 Y200.0 Z0.3 F5000.0 ; Move to side a little
G1 X0.4 Y20 Z0.3 F1500.0 E30 ; Draw the second line
G92 E0 ; Reset Extruder
G1 Z2.0 F3000 ; Move Z Axis up little to prevent scratching of Heat Bed
G1 X5 Y20 Z0.3 F5000.0 ; Move over to prevent blob squish
G92 E0
G92 E0
G1 F2700 E-5
;LAYER_COUNT:10
;LAYER:0
M107
;MESH:LETRA Z.stl
G0 F6000 X108.101 Y136.9 Z0.2
;TYPE:WALL-INNER
G1 F2700 E0
G1 F1200 X126.9 Y136.9 E0.62526
G1 X126.9 Y130.284 E0.84531
G1 X126.9 Y129.649 E0.86643
G1 X112.944 Y103.733 E1.84543
G1 X112.905 Y103.394 E1.85678
G1 X112.99 Y103.176 E1.86456
G1 X113.189 Y102.982 E1.87381
G1 X113.497 Y102.898 E1.88443
G1 X126.9 Y102.898 E2.33021
G1 X126.9 Y98.1 E2.48979
G1 X108.1 Y98.1 E3.11508
G1 X108.1 Y105.352 E3.35629
G1 X122.055 Y131.268 E4.33528
G1 X122.094 Y131.607 E4.34663
G1 X122.009 Y131.825 E4.35441
G1 X121.81 Y132.019 E4.36365
G1 X121.502 Y132.103 E4.37427
G1 X108.101 Y132.104 E4.81999
G1 X108.101 Y136.9 E4.97951
G0 F6000 X107.701 Y137.3
;TYPE:WALL-OUTER
G1 F1200 X127.3 Y137.3 E5.63137
G1 X127.3 Y130.284 E5.86472
G1 X127.3 Y129.548 E5.8892
G1 X113.312 Y103.577 E6.87033
G1 X113.297 Y103.48 E6.87359
G1 X113.355 Y103.356 E6.87814
G1 X113.462 Y103.3 E6.88216
G1 X127.3 Y103.298 E7.34241
G1 X127.3 Y97.7 E7.5286
G1 X107.7 Y97.7 E8.1805
G1 X107.7 Y105.453 E8.43837
G1 X121.687 Y131.424 E9.41947
G1 X121.702 Y131.521 E9.42274
G1 X121.644 Y131.645 E9.42729
G1 X121.537 Y131.701 E9.43131
G1 X107.701 Y131.704 E9.8915
G1 X107.701 Y137.3 E10.07762
G0 F6000 X107.97 Y137.03
G0 X108.201 Y136.54
G0 X108.461 Y136.54
;TYPE:SKIN
G1 F1200 X126.54 Y136.54 E10.67893
G1 X126.54 Y130.285 E10.88697
G1 X126.54 Y129.74 E10.9051
G1 X112.611 Y103.872 E11.88227
G1 X112.55 Y103.668 E11.88936
G1 X112.547 Y103.329 E11.90063
G1 X112.686 Y102.973 E11.91334
G1 X112.995 Y102.673 E11.92767
G1 X113.319 Y102.54 E11.93932
G1 X126.54 Y102.538 E12.37905
G1 X126.54 Y98.46 E12.51468
G1 X108.461 Y98.461 E13.11599
G1 X108.46 Y105.261 E13.34216
G1 X122.379 Y131.11 E14.31862
G1 X122.451 Y131.331 E14.32635
G1 X122.45 Y131.668 E14.33756
G1 X122.315 Y132.024 E14.35023
G1 X122.004 Y132.327 E14.36467
G1 X121.68 Y132.461 E14.37633
G1 X108.461 Y132.464 E14.81599
G1 X108.461 Y136.54 E14.95156
G0 F6000 X109.186 Y136.339
G1 F1200 X108.66 Y135.813 E14.9763
G0 F6000 X108.66 Y135.247
G1 F1200 X109.752 Y136.339 E15.02767
G0 F6000 X110.317 Y136.339
G1 F1200 X108.66 Y134.681 E15.10563
G0 F6000 X108.66 Y134.116
G1 F1200 X110.883 Y136.339 E15.21019
G0 F6000 X111.449 Y136.339
G1 F1200 X108.66 Y133.55 E15.34138
G0 F6000 X108.66 Y132.984
G1 F1200 X112.014 Y136.339 E15.49917
G0 F6000 X112.58 Y136.339
G1 F1200 X108.904 Y132.663 E15.67207
G0 F6000 X109.47 Y132.663
G1 F1200 X113.146 Y136.339 E15.84498
G0 F6000 X113.711 Y136.339
G1 F1200 X110.035 Y132.663 E16.01789
G0 F6000 X110.6 Y132.662
G1 F1200 X114.277 Y136.339 E16.19084
G0 F6000 X114.843 Y136.339
G1 F1200 X111.166 Y132.662 E16.3638
G0 F6000 X111.732 Y132.662
G1 F1200 X115.409 Y136.339 E16.53675
G0 F6000 X115.974 Y136.339
G1 F1200 X112.297 Y132.661 E16.70973
G0 F6000 X112.862 Y132.661
G1 F1200 X116.54 Y136.339 E16.88273
G0 F6000 X117.106 Y136.339
G1 F1200 X113.428 Y132.661 E17.05574
G0 F6000 X113.993 Y132.661
G1 F1200 X117.671 Y136.339 E17.22874
G0 F6000 X118.237 Y136.339
G1 F1200 X114.559 Y132.661 E17.40174
G0 F6000 X115.124 Y132.661
G1 F1200 X118.803 Y136.339 E17.57477
G0 F6000 X119.368 Y136.339
G1 F1200 X115.689 Y132.66 E17.74781
G0 F6000 X116.255 Y132.66
G1 F1200 X119.934 Y136.339 E17.92086
G0 F6000 X120.5 Y136.339
G1 F1200 X116.821 Y132.66 E18.09391
G0 F6000 X117.386 Y132.659
G1 F1200 X121.065 Y136.339 E18.26698
G0 F6000 X121.631 Y136.339
G1 F1200 X117.951 Y132.659 E18.44008
G0 F6000 X118.516 Y132.658
G1 F1200 X122.197 Y136.339 E18.61322
G0 F6000 X122.762 Y136.339
G1 F1200 X119.082 Y132.658 E18.78634
G0 F6000 X119.648 Y132.658
G1 F1200 X123.328 Y136.339 E18.95946
G0 F6000 X123.894 Y136.339
G1 F1200 X120.213 Y132.658 E19.1326
G0 F6000 X120.778 Y132.658
G1 F1200 X124.459 Y136.339 E19.30575
G0 F6000 X125.025 Y136.339
G1 F1200 X121.344 Y132.658 E19.47889
G0 F6000 X121.859 Y132.607
G1 F1200 X125.591 Y136.339 E19.65443
G0 F6000 X126.157 Y136.339
G1 F1200 X122.217 Y132.399 E19.83976
G0 F6000 X122.493 Y132.11
G1 F1200 X126.34 Y135.956 E20.02069
G0 F6000 X126.34 Y135.391
G1 F1200 X122.646 Y131.697 E20.19444
G0 F6000 X122.567 Y131.053
G1 F1200 X126.34 Y134.825 E20.37189
G0 F6000 X126.34 Y134.259
G1 F1200 X121.924 Y129.843 E20.5796
G0 F6000 X121.521 Y130.06
G0 X120.86 Y128.834
G0 X121.263 Y128.617
G1 F1200 X126.34 Y133.694 E20.81841
G0 F6000 X126.34 Y133.128
G1 F1200 X120.604 Y127.392 E21.08821
G0 F6000 X120.201 Y127.609
G0 X119.54 Y126.383
G0 X119.943 Y126.166
G1 F1200 X126.34 Y132.562 E21.38908
G0 F6000 X126.34 Y131.997
G1 F1200 X119.283 Y124.94 E21.72102
G0 F6000 X118.88 Y125.156
G0 X118.22 Y123.931
G0 X118.623 Y123.714
G1 F1200 X126.34 Y131.431 E22.08401
G0 F6000 X126.34 Y130.865
G1 F1200 X117.963 Y122.488 E22.47804
G0 F6000 X117.559 Y122.705
G0 X116.899 Y121.479
G0 X117.303 Y121.263
G1 F1200 X126.34 Y130.299 E22.90309
G0 F6000 X126.275 Y129.669
G1 F1200 X116.642 Y120.037 E23.35617
G0 F6000 X116.239 Y120.254
G0 X115.579 Y119.027
G0 X115.983 Y118.811
G1 F1200 X125.616 Y128.444 E23.80928
G0 F6000 X126.02 Y128.226
G0 X125.36 Y127.002
G0 X124.956 Y127.219
G1 F1200 X115.322 Y117.585 E24.26243
G0 F6000 X114.919 Y117.802
G0 X114.258 Y116.575
G0 X114.662 Y116.359
G1 F1200 X124.295 Y125.992 E24.71554
G0 F6000 X124.699 Y125.775
G0 X124.04 Y124.55
G0 X123.636 Y124.767
G1 F1200 X114.002 Y115.133 E25.16869
G0 F6000 X113.598 Y115.35
G0 X112.938 Y114.124
G0 X113.342 Y113.907
G1 F1200 X122.976 Y123.542 E25.62187
G0 F6000 X123.38 Y123.325
G0 X122.72 Y122.1
G0 X122.316 Y122.316
G1 F1200 X112.682 Y112.682 E26.07502
G0 F6000 X112.278 Y112.899
G0 X111.618 Y111.673
G0 X112.021 Y111.456
G1 F1200 X121.656 Y121.09 E26.5282
G0 F6000 X122.06 Y120.874
G0 X121.4 Y119.649
G0 X120.996 Y119.865
G1 F1200 X111.362 Y110.23 E26.98138
G0 F6000 X110.958 Y110.448
G0 X110.297 Y109.221
G0 X110.701 Y109.004
G1 F1200 X120.336 Y118.639 E27.43458
G0 F6000 X120.739 Y118.422
G0 X120.08 Y117.198
G0 X119.676 Y117.413
G1 F1200 X110.041 Y107.778 E27.88778
G0 F6000 X109.637 Y107.995
G0 X108.977 Y106.77
G0 X109.381 Y106.553
G1 F1200 X119.016 Y116.188 E28.34098
G0 F6000 X119.419 Y115.971
G0 X118.76 Y114.747
G0 X118.356 Y114.962
G1 F1200 X108.721 Y105.327 E28.79418
G0 F6000 X108.658 Y104.699
G1 F1200 X117.696 Y113.736 E29.21928
G0 F6000 X118.099 Y113.52
G0 X117.439 Y112.295
G0 X117.036 Y112.511
G1 F1200 X108.658 Y104.133 E29.61335
G0 F6000 X108.658 Y103.567
G1 F1200 X116.376 Y111.285 E29.97638
G0 F6000 X116.779 Y111.069
G0 X116.119 Y109.843
G0 X115.716 Y110.059
G1 F1200 X108.658 Y103.002 E30.30835
G0 F6000 X108.658 Y102.436
G1 F1200 X115.056 Y108.834 E30.60929
G0 F6000 X115.459 Y108.618
G0 X114.799 Y107.393
G0 X114.396 Y107.608
G1 F1200 X108.659 Y101.871 E30.87914
G0 F6000 X108.659 Y101.305
G1 F1200 X113.736 Y106.382 E31.11794
G0 F6000 X114.139 Y106.168
G0 X113.478 Y104.941
G0 X113.076 Y105.157
G1 F1200 X108.659 Y100.74 E31.32571
G0 F6000 X108.659 Y100.174
G1 F1200 X112.422 Y103.937 E31.50271
G0 F6000 X112.345 Y103.294
G1 F1200 X108.659 Y99.608 E31.67609
G0 F6000 X108.659 Y99.043
G1 F1200 X112.504 Y102.888 E31.85694
G0 F6000 X112.782 Y102.599
G1 F1200 X108.842 Y98.66 E32.04224
G0 F6000 X109.408 Y98.66
G1 F1200 X113.14 Y102.392 E32.21779
G0 F6000 X113.655 Y102.341
G1 F1200 X109.974 Y98.66 E32.39093
G0 F6000 X110.539 Y98.66
G1 F1200 X114.221 Y102.341 E32.5641
G0 F6000 X114.786 Y102.341
G1 F1200 X111.105 Y98.66 E32.73724
G0 F6000 X111.671 Y98.66
G1 F1200 X115.352 Y102.341 E32.91038
G0 F6000 X115.917 Y102.34
G1 F1200 X112.236 Y98.66 E33.0835
G0 F6000 X112.802 Y98.66
G1 F1200 X116.483 Y102.34 E33.25662
G0 F6000 X117.048 Y102.34
G1 F1200 X113.368 Y98.66 E33.42972
G0 F6000 X113.933 Y98.66
G1 F1200 X117.614 Y102.34 E33.60284
G0 F6000 X118.179 Y102.34
G1 F1200 X114.499 Y98.66 E33.77593
G0 F6000 X115.065 Y98.66
G1 F1200 X118.745 Y102.34 E33.94903
G0 F6000 X119.31 Y102.34
G1 F1200 X115.631 Y98.66 E34.1221
G0 F6000 X116.196 Y98.66
G1 F1200 X119.875 Y102.339 E34.29515
G0 F6000 X120.441 Y102.339
G1 F1200 X116.762 Y98.66 E34.4682
G0 F6000 X117.328 Y98.66
G1 F1200 X121.007 Y102.339 E34.64125
G0 F6000 X121.572 Y102.339
G1 F1200 X117.893 Y98.66 E34.8143
G0 F6000 X118.459 Y98.66
G1 F1200 X122.137 Y102.338 E34.9873
G0 F6000 X122.703 Y102.338
G1 F1200 X119.025 Y98.66 E35.1603
G0 F6000 X119.59 Y98.66
G1 F1200 X123.269 Y102.338 E35.33332
G0 F6000 X123.834 Y102.338
G1 F1200 X120.156 Y98.66 E35.50633
G0 F6000 X120.722 Y98.66
G1 F1200 X124.399 Y102.338 E35.6793
G0 F6000 X124.965 Y102.338
G1 F1200 X121.287 Y98.66 E35.85231
G0 F6000 X121.853 Y98.66
G1 F1200 X125.531 Y102.338 E36.02531
G0 F6000 X126.096 Y102.338
G1 F1200 X122.419 Y98.66 E36.19829
G0 F6000 X122.984 Y98.66
G1 F1200 X126.339 Y102.015 E36.3561
G0 F6000 X126.339 Y101.449
G1 F1200 X123.55 Y98.66 E36.48728
G0 F6000 X124.116 Y98.66
G1 F1200 X126.339 Y100.883 E36.59184
G0 F6000 X126.339 Y100.317
G1 F1200 X124.682 Y98.66 E36.66978
G0 F6000 X125.247 Y98.66
G1 F1200 X126.339 Y99.752 E36.72115
G0 F6000 X126.339 Y99.186
G1 F1200 X125.813 Y98.66 E36.74589
G1 F2700 E31.74589
;MESH:NONMESH
G0 F300 X125.813 Y98.66 Z0.4
G0 F6000 X125.813 Y98.2
G0 X108.272 Y98.272
G0 X108.262 Y105.311
G0 X116.135 Y119.85
G0 X122.206 Y131.923
G0 X110.35 Y131.94
G0 X108.273 Y132.276
G0 X108.201 Y136.63
G1 F2700 E36.74589
G0 F6000 X108.101 Y136.9
;TIME_ELAPSED:71.163238
;LAYER:1
M106 S85
;TYPE:WALL-INNER
;MESH:LETRA Z.stl
G1 F1350 X126.9 Y136.9 E37.37115
G1 X126.9 Y130.284 E37.5912
G1 X126.9 Y129.649 E37.61232
G1 X112.944 Y103.733 E38.59132
G1 X112.905 Y103.394 E38.60267
G1 X112.99 Y103.176 E38.61046
G1 X113.189 Y102.982 E38.6197
G1 X113.497 Y102.898 E38.63032
G1 X126.9 Y102.898 E39.0761
G1 X126.9 Y98.1 E39.23568
G1 X108.1 Y98.1 E39.86098
G1 X108.1 Y105.352 E40.10218
G1 X122.055 Y131.268 E41.08117
G1 X122.094 Y131.607 E41.09252
G1 X122.009 Y131.825 E41.1003
G1 X121.81 Y132.019 E41.10954
G1 X121.502 Y132.103 E41.12016
G1 X108.101 Y132.104 E41.56588
G1 X108.101 Y136.9 E41.7254
G0 F7500 X107.701 Y137.3
;TYPE:WALL-OUTER
G1 F1350 X127.3 Y137.3 E42.37726
G1 X127.3 Y130.284 E42.61062
G1 X127.3 Y129.548 E42.63509
G1 X113.312 Y103.577 E43.61622
G1 X113.297 Y103.48 E43.61948
G1 X113.355 Y103.356 E43.62403
G1 X113.462 Y103.3 E43.62805
G1 X127.3 Y103.298 E44.0883
G1 X127.3 Y97.7 E44.27449
G1 X107.7 Y97.7 E44.92639
G1 X107.7 Y105.453 E45.18426
G1 X121.687 Y131.424 E46.16536
G1 X121.702 Y131.521 E46.16863
G1 X121.644 Y131.645 E46.17318
G1 X121.537 Y131.701 E46.1772
G1 X107.701 Y131.704 E46.63739
G1 X107.701 Y137.3 E46.82351
G0 F7500 X107.97 Y137.03
G0 X108.201 Y136.54
G0 X108.461 Y136.54
;TYPE:SKIN
G1 F1350 X126.54 Y136.54 E47.42482
G1 X126.54 Y130.285 E47.63286
G1 X126.54 Y129.74 E47.65099
G1 X112.611 Y103.872 E48.62816
G1 X112.55 Y103.668 E48.63525
G1 X112.547 Y103.329 E48.64652
G1 X112.686 Y102.973 E48.65923
G1 X112.995 Y102.673 E48.67356
G1 X113.319 Y102.54 E48.68521
G1 X126.54 Y102.538 E49.12494
G1 X126.54 Y98.46 E49.26057
G1 X108.461 Y98.461 E49.86188
G1 X108.46 Y105.261 E50.08805
G1 X122.379 Y131.11 E51.06451
G1 X122.451 Y131.331 E51.07224
G1 X122.45 Y131.668 E51.08345
G1 X122.315 Y132.024 E51.09612
G1 X122.004 Y132.327 E51.11056
G1 X121.68 Y132.461 E51.12222
G1 X108.461 Y132.464 E51.56188
G1 X108.461 Y136.54 E51.69745
G0 F7500 X108.201 Y136.54
G0 X126.138 Y136.8
G0 X126.138 Y136.339
G1 F1350 X126.339 Y136.138 E51.70691
G0 F7500 X126.339 Y135.572
G1 F1350 X125.572 Y136.339 E51.74298
G0 F7500 X125.007 Y136.339
G1 F1350 X126.339 Y135.007 E51.80564
G0 F7500 X126.339 Y134.441
G1 F1350 X124.441 Y136.339 E51.89491
G0 F7500 X123.875 Y136.339
G1 F1350 X126.339 Y133.875 E52.01081
G0 F7500 X126.339 Y133.31
G1 F1350 X123.31 Y136.339 E52.15329
G0 F7500 X122.744 Y136.339
G1 F1350 X126.339 Y132.744 E52.32239
G0 F7500 X126.339 Y132.178
G1 F1350 X122.178 Y136.339 E52.51811
G0 F7500 X121.613 Y136.339
G1 F1350 X126.339 Y131.613 E52.7404
G0 F7500 X126.339 Y131.047
G1 F1350 X121.047 Y136.339 E52.98932
G0 F7500 X120.481 Y136.339
G1 F1350 X126.339 Y130.481 E53.26486
G0 F7500 X126.339 Y129.916
G1 F1350 X119.916 Y136.339 E53.56698
G0 F7500 X119.35 Y136.339
G1 F1350 X126.186 Y129.503 E53.88853
G0 F7500 X125.988 Y129.136
G1 F1350 X118.784 Y136.339 E54.22736
G0 F7500 X118.219 Y136.339
G1 F1350 X122.021 Y132.536 E54.40622
G0 F7500 X121.335 Y132.657
G1 F1350 X117.653 Y136.339 E54.57941
G0 F7500 X117.087 Y136.339
G1 F1350 X120.769 Y132.657 E54.7526
G0 F7500 X120.203 Y132.657
G1 F1350 X116.522 Y136.339 E54.92576
G0 F7500 X115.956 Y136.339
G1 F1350 X119.637 Y132.658 E55.09891
G0 F7500 X119.071 Y132.658
G1 F1350 X115.39 Y136.339 E55.27205
G0 F7500 X114.824 Y136.339
G1 F1350 X118.506 Y132.658 E55.44521
G0 F7500 X117.939 Y132.658
G1 F1350 X114.259 Y136.339 E55.61833
G0 F7500 X113.693 Y136.339
G1 F1350 X117.374 Y132.658 E55.79148
G0 F7500 X116.807 Y132.659
G1 F1350 X113.127 Y136.339 E55.96457
G0 F7500 X112.562 Y136.339
G1 F1350 X116.241 Y132.659 E56.13765
G0 F7500 X115.676 Y132.659
G1 F1350 X111.996 Y136.339 E56.31074
G0 F7500 X111.43 Y136.339
G1 F1350 X115.109 Y132.66 E56.48379
G0 F7500 X114.544 Y132.66
G1 F1350 X110.865 Y136.339 E56.65684
G0 F7500 X110.299 Y136.339
G1 F1350 X113.978 Y132.66 E56.82989
G0 F7500 X113.412 Y132.661
G1 F1350 X109.733 Y136.339 E57.00291
G0 F7500 X109.168 Y136.339
G1 F1350 X112.846 Y132.661 E57.17592
G0 F7500 X112.28 Y132.661
G1 F1350 X108.661 Y136.28 E57.34614
G0 F7500 X108.661 Y135.715
G1 F1350 X111.714 Y132.661 E57.48977
G0 F7500 X111.148 Y132.661
G1 F1350 X108.661 Y135.149 E57.60677
G0 F7500 X108.661 Y134.583
G1 F1350 X110.583 Y132.661 E57.69718
G0 F7500 X110.016 Y132.662
G1 F1350 X108.661 Y134.017 E57.76091
G0 F7500 X108.661 Y133.452
G1 F1350 X109.45 Y132.662 E57.79805
G0 F7500 X108.885 Y132.662
G1 F1350 X108.661 Y132.886 E57.80859
G0 F7500 X108.201 Y132.886
G0 X108.273 Y132.276
G0 X110.004 Y131.921
G0 X122.206 Y131.923
G0 X121.438 Y130.485
G0 X119.725 Y126.725
G0 X120.129 Y126.509
G1 F1350 X123.018 Y123.62 E57.94448
G0 F7500 X123.216 Y123.988
G1 F1350 X120.327 Y126.876 E58.08034
G0 F7500 X120.525 Y127.244
G1 F1350 X123.414 Y124.356 E58.21621
G0 F7500 X123.612 Y124.723
G1 F1350 X120.723 Y127.612 E58.3521
G0 F7500 X120.921 Y127.979
G1 F1350 X123.81 Y125.091 E58.48796
G0 F7500 X124.008 Y125.459
G1 F1350 X121.119 Y128.347 E58.62383
G0 F7500 X121.317 Y128.715
G1 F1350 X124.206 Y125.826 E58.75972
G0 F7500 X124.404 Y126.194
G1 F1350 X121.515 Y129.083 E58.89561
G0 F7500 X121.713 Y129.45
G1 F1350 X124.602 Y126.562 E59.03148
G0 F7500 X124.8 Y126.929
G1 F1350 X121.911 Y129.818 E59.16736
G0 F7500 X122.109 Y130.186
G1 F1350 X124.998 Y127.297 E59.30325
G0 F7500 X125.196 Y127.665
G1 F1350 X122.307 Y130.553 E59.43912
G0 F7500 X122.505 Y130.921
G1 F1350 X125.394 Y128.032 E59.57501
G0 F7500 X125.592 Y128.4
G1 F1350 X122.651 Y131.34 E59.71332
G0 F7500 X122.524 Y132.033
G1 F1350 X125.79 Y128.768 E59.86692
G0 F7500 X126.195 Y128.551
G0 X123.224 Y123.035
G0 X122.82 Y123.252
G1 F1350 X119.93 Y126.142 E60.00286
G0 F7500 X119.732 Y125.774
G1 F1350 X122.622 Y122.885 E60.13877
G0 F7500 X122.424 Y122.517
G1 F1350 X119.534 Y125.406 E60.27468
G0 F7500 X119.336 Y125.039
G1 F1350 X122.226 Y122.149 E60.41062
G0 F7500 X122.028 Y121.782
G1 F1350 X119.139 Y124.671 E60.54651
G0 F7500 X118.941 Y124.303
G1 F1350 X121.83 Y121.414 E60.6824
G0 F7500 X121.632 Y121.046
G1 F1350 X118.743 Y123.936 E60.81831
G0 F7500 X118.545 Y123.568
G1 F1350 X121.434 Y120.679 E60.9542
G0 F7500 X121.236 Y120.311
G1 F1350 X118.347 Y123.2 E61.09009
G0 F7500 X118.149 Y122.832
G1 F1350 X121.038 Y119.943 E61.22598
G0 F7500 X120.84 Y119.575
