;FLAVOR:Marlin
;TIME:790
;Filament used: 0.472907m
;Layer height: 0.2
;MINX:106.188
;MINY:87.545
;MINZ:0.2
;MAXX:128.61
;MAXY:147
;MAXZ:2
;Generated with Cura_SteamEngine 5.2.2
M140 S50
M105
M190 S50
M104 S200
M105
M109 S200
M82 ;absolute extrusion mode
; Ender 3 Custom Start G-code
G92 E0 ; Reset Extruder
G28 ; Home all axes
G1 Z2.0 F3000 ; Move Z Axis up little to prevent scratching of Heat Bed
G1 X0.1 Y20 Z0.3 F5000.0 ; Move to start position
G1 X0.1 Y200.0 Z0.3 F1500.0 E15 ; Draw the first line
G1 X0.4 Y200.0 Z0.3 F5000.0 ; Move to side a little
G1 X0.4 Y20 Z0.3 F1500.0 E30 ; Draw the second line
G92 E0 ; Reset Extruder
G1 Z2.0 F3000 ; Move Z Axis up little to prevent scratching of Heat Bed
G1 X5 Y20 Z0.3 F5000.0 ; Move over to prevent blob squish
G92 E0
G92 E0
G1 F2700 E-5
;LAYER_COUNT:10
;LAYER:0
M107
;MESH:LETRA ??.stl
G0 F6000 X121.094 Y120.94 Z0.2
;TYPE:WALL-INNER
G1 F2700 E0
G1 F1200 X120.99 Y120.948 E0.00347
G1 X110.905 Y120.948 E0.3389
G1 X110.628 Y120.831 E0.3489
G1 X110.507 Y120.711 E0.35457
G1 X110.385 Y120.421 E0.36503
G1 X110.385 Y94.343 E1.23239
G1 X110.417 Y94.146 E1.23903
G1 X110.507 Y93.98 E1.24531
G1 X110.628 Y93.86 E1.25098
G1 X110.909 Y93.743 E1.2611
G1 X121.07 Y93.743 E1.59906
G1 X121.347 Y93.859 E1.60904
G1 X121.468 Y93.98 E1.61474
G1 X121.558 Y94.146 E1.62102
G1 X121.59 Y94.343 E1.62765
G1 X121.59 Y120.421 E2.49501
G1 X121.468 Y120.711 E2.50548
G1 X121.347 Y120.831 E2.51114
G1 X121.094 Y120.94 E2.52031
G0 F6000 X121.15 Y120.469
;TYPE:WALL-OUTER
G1 F1200 X121.025 Y120.546 E2.52519
G1 X110.946 Y120.545 E2.86042
G1 X110.825 Y120.469 E2.86517
G1 X110.787 Y120.383 E2.8683
G1 X110.785 Y94.29 E3.73615
G1 X110.866 Y94.182 E3.74064
G1 X110.95 Y94.145 E3.7437
G1 X121.029 Y94.146 E4.07893
G1 X121.109 Y94.181 E4.08183
G1 X121.19 Y94.291 E4.08637
G1 X121.188 Y120.383 E4.9542
G1 X121.15 Y120.469 E4.95733
G1 F2700 E-0.04267
G0 F6000 X121.49 Y120.469
G0 X121.454 Y120.977
G0 X125.188 Y120.977
G0 X125.388 Y126.745
;TYPE:WALL-INNER
G1 F2700 E4.95733
G1 F1200 X125.388 Y90.977 E6.14697
G1 X125.388 Y87.945 E6.24782
G1 X106.588 Y87.945 E6.87311
G1 X106.589 Y126.744 E8.16357
G1 X125.388 Y126.745 E8.78883
G0 F6000 X125.788 Y127.145
;TYPE:WALL-OUTER
G1 F1200 X125.788 Y90.977 E9.99178
G1 X125.788 Y87.545 E10.10593
G1 X106.188 Y87.545 E10.75783
G1 X106.189 Y127.144 E12.07489
G1 X125.788 Y127.145 E12.72676
G0 F6000 X125.518 Y126.875
G0 X125.288 Y126.385
G0 X125.028 Y126.385
;TYPE:SKIN
G1 F1200 X125.028 Y90.986 E13.90414
G1 X125.028 Y88.305 E13.99331
G1 X106.949 Y88.306 E14.59462
G1 X106.95 Y126.383 E15.86106
G1 X125.028 Y126.385 E16.46234
G1 F2700 E11.46234
G0 F6000 X125.288 Y126.385
G0 X125.188 Y121.038
G0 X121.729 Y120.603
G0 X121.131 Y121.306
G1 F2700 E16.46234
G1 F1200 X110.839 Y121.308 E16.80465
G1 X110.412 Y121.125 E16.8201
G1 X110.202 Y120.904 E16.83024
G1 X110.089 Y120.693 E16.8382
G1 X110.068 Y120.631 E16.84038
G1 X110.027 Y120.381 E16.84881
G1 X110.027 Y94.313 E17.71583
G1 X110.074 Y94.022 E17.72564
G1 X110.236 Y93.742 E17.7364
G1 X110.454 Y93.548 E17.7461
G1 X110.845 Y93.385 E17.76019
G1 X121.138 Y93.383 E18.10254
G1 X121.522 Y93.546 E18.11641
G1 X121.737 Y93.739 E18.12602
G1 X121.901 Y94.022 E18.1369
G1 X121.948 Y94.315 E18.14677
G1 X121.948 Y120.477 E19.01692
G1 X121.765 Y120.927 E19.03308
G1 X121.524 Y121.142 E19.04382
G1 X121.131 Y121.306 E19.05799
G1 F2700 E14.05799
G0 F6000 X121.116 Y121.038
G0 X110.985 Y121.129
G0 X109.62 Y126.544
G0 X107.514 Y126.182
G1 F2700 E19.05799
G1 F1200 X107.149 Y125.816 E19.07518
G0 F6000 X107.149 Y125.251
G1 F1200 X108.08 Y126.182 E19.11897
G0 F6000 X108.646 Y126.182
G1 F1200 X107.149 Y124.685 E19.18938
G0 F6000 X107.149 Y124.119
G1 F1200 X109.211 Y126.182 E19.2864
G0 F6000 X109.777 Y126.182
G1 F1200 X107.149 Y123.554 E19.41001
G0 F6000 X107.149 Y122.988
G1 F1200 X110.343 Y126.182 E19.56025
G0 F6000 X110.908 Y126.182
G1 F1200 X107.149 Y122.422 E19.73708
G0 F6000 X107.149 Y121.857
G1 F1200 X111.474 Y126.182 E19.94052
G0 F6000 X112.04 Y126.182
G1 F1200 X107.149 Y121.291 E20.17057
G0 F6000 X107.149 Y120.725
G1 F1200 X112.606 Y126.182 E20.42725
G0 F6000 X113.171 Y126.182
G1 F1200 X107.149 Y120.16 E20.71051
G0 F6000 X107.149 Y119.594
G1 F1200 X113.737 Y126.182 E21.02039
G0 F6000 X114.303 Y126.182
G1 F1200 X107.149 Y119.028 E21.35689
G0 F6000 X107.149 Y118.463
G1 F1200 X114.868 Y126.182 E21.71997
G0 F6000 X115.434 Y126.182
G1 F1200 X110.731 Y121.479 E21.94118
G0 F6000 X111.325 Y121.507
G1 F1200 X116 Y126.183 E22.16111
G0 F6000 X116.566 Y126.183
G1 F1200 X111.891 Y121.507 E22.38103
G0 F6000 X112.456 Y121.507
G1 F1200 X117.132 Y126.183 E22.60097
G0 F6000 X117.697 Y126.183
G1 F1200 X113.021 Y121.507 E22.82092
G0 F6000 X113.586 Y121.506
G1 F1200 X118.263 Y126.183 E23.04091
G0 F6000 X118.829 Y126.183
G1 F1200 X114.152 Y121.506 E23.2609
G0 F6000 X114.717 Y121.505
G1 F1200 X119.394 Y126.183 E23.48092
G0 F6000 X119.96 Y126.183
G1 F1200 X115.283 Y121.505 E23.70093
G0 F6000 X115.848 Y121.505
G1 F1200 X120.526 Y126.183 E23.92097
G0 F6000 X121.092 Y126.183
G1 F1200 X116.413 Y121.504 E24.14106
G0 F6000 X116.979 Y121.504
G1 F1200 X121.657 Y126.183 E24.36112
G0 F6000 X122.223 Y126.183
G1 F1200 X117.544 Y121.504 E24.5812
G0 F6000 X118.11 Y121.504
G1 F1200 X122.789 Y126.183 E24.80129
G0 F6000 X123.354 Y126.183
G1 F1200 X118.675 Y121.503 E25.0214
G0 F6000 X119.24 Y121.503
G1 F1200 X123.92 Y126.183 E25.24153
G0 F6000 X124.486 Y126.183
G1 F1200 X119.806 Y121.503 E25.46166
G0 F6000 X120.371 Y121.502
G1 F1200 X124.827 Y125.959 E25.67128
G0 F6000 X124.827 Y125.393
G1 F1200 X120.937 Y121.502 E25.85428
G0 F6000 X121.409 Y121.409
G1 F1200 X124.827 Y124.827 E26.01505
G0 F6000 X124.827 Y124.261
G1 F1200 X121.759 Y121.193 E26.15936
G0 F6000 X122.002 Y120.871
G1 F1200 X124.827 Y123.696 E26.29224
G0 F6000 X124.827 Y123.13
G1 F1200 X122.144 Y120.447 E26.41844
G0 F6000 X122.144 Y119.881
G1 F1200 X124.827 Y122.564 E26.54464
G0 F6000 X124.827 Y121.999
G1 F1200 X122.144 Y119.315 E26.67087
G0 F6000 X122.144 Y118.75
G1 F1200 X124.827 Y121.433 E26.79707
G0 F6000 X124.827 Y120.867
G1 F1200 X122.144 Y118.184 E26.92327
G0 F6000 X122.144 Y117.618
G1 F1200 X124.827 Y120.302 E27.04949
G0 F6000 X124.827 Y119.736
G1 F1200 X122.144 Y117.053 E27.17569
G0 F6000 X122.144 Y116.488
G1 F1200 X124.827 Y119.17 E27.30187
G0 F6000 X124.827 Y118.605
G1 F1200 X122.144 Y115.922 E27.42807
G0 F6000 X122.144 Y115.356
G1 F1200 X124.827 Y118.039 E27.55427
G0 F6000 X124.827 Y117.473
G1 F1200 X122.144 Y114.791 E27.68044
G0 F6000 X122.144 Y114.225
G1 F1200 X124.827 Y116.908 E27.80664
G0 F6000 X124.827 Y116.342
G1 F1200 X122.144 Y113.659 E27.93284
G0 F6000 X122.144 Y113.093
G1 F1200 X124.827 Y115.776 E28.05904
G0 F6000 X124.827 Y115.211
G1 F1200 X122.145 Y112.528 E28.18522
G0 F6000 X122.145 Y111.963
G1 F1200 X124.827 Y114.645 E28.31137
G0 F6000 X124.827 Y114.079
G1 F1200 X122.145 Y111.397 E28.43753
G0 F6000 X122.145 Y110.831
G1 F1200 X124.827 Y113.513 E28.56368
G0 F6000 X124.827 Y112.948
G1 F1200 X122.145 Y110.266 E28.68983
G0 F6000 X122.145 Y109.7
G1 F1200 X124.827 Y112.382 E28.81599
G0 F6000 X124.827 Y111.816
G1 F1200 X122.146 Y109.135 E28.94209
G0 F6000 X122.146 Y108.569
G1 F1200 X124.827 Y111.251 E29.06822
G0 F6000 X124.827 Y110.685
G1 F1200 X122.146 Y108.004 E29.19433
G0 F6000 X122.146 Y107.438
G1 F1200 X124.827 Y110.119 E29.32043
G0 F6000 X124.827 Y109.554
G1 F1200 X122.146 Y106.872 E29.44656
G0 F6000 X122.146 Y106.307
G1 F1200 X124.827 Y108.988 E29.57267
G0 F6000 X124.827 Y108.422
G1 F1200 X122.146 Y105.741 E29.69877
G0 F6000 X122.147 Y105.176
G1 F1200 X124.827 Y107.857 E29.82486
G0 F6000 X124.827 Y107.291
G1 F1200 X122.147 Y104.61 E29.95094
G0 F6000 X122.147 Y104.045
G1 F1200 X124.827 Y106.725 E30.077
G0 F6000 X124.827 Y106.16
G1 F1200 X122.147 Y103.479 E30.20308
G0 F6000 X122.147 Y102.913
G1 F1200 X124.827 Y105.594 E30.32916
G0 F6000 X124.827 Y105.028
G1 F1200 X122.147 Y102.348 E30.45522
G0 F6000 X122.147 Y101.783
G1 F1200 X124.827 Y104.463 E30.58128
G0 F6000 X124.827 Y103.897
G1 F1200 X122.147 Y101.217 E30.70734
G0 F6000 X122.147 Y100.651
G1 F1200 X124.827 Y103.331 E30.8334
G0 F6000 X124.827 Y102.765
G1 F1200 X122.147 Y100.086 E30.95944
G0 F6000 X122.147 Y99.52
G1 F1200 X124.827 Y102.2 E31.08549
G0 F6000 X124.827 Y101.634
G1 F1200 X122.147 Y98.954 E31.21155
G0 F6000 X122.147 Y98.388
G1 F1200 X124.827 Y101.068 E31.33761
G0 F6000 X124.827 Y100.503
G1 F1200 X122.148 Y97.823 E31.46365
G0 F6000 X122.148 Y97.258
G1 F1200 X124.827 Y99.937 E31.58966
G0 F6000 X124.827 Y99.371
G1 F1200 X122.148 Y96.692 E31.71567
G0 F6000 X122.148 Y96.126
G1 F1200 X124.827 Y98.806 E31.84171
G0 F6000 X124.827 Y98.24
G1 F1200 X122.148 Y95.561 E31.96772
G0 F6000 X122.148 Y94.995
G1 F1200 X124.827 Y97.674 E32.09373
G0 F6000 X124.827 Y97.109
G1 F1200 X122.148 Y94.429 E32.21977
G0 F6000 X121.69 Y94.429
G0 X121.446 Y93.967
G0 X120.901 Y93.643
G0 X120.901 Y93.183
G1 F1200 X116.224 Y88.505 E32.43978
G0 F6000 X116.789 Y88.505
G1 F1200 X124.827 Y96.543 E32.81786
G0 F6000 X124.827 Y95.977
G1 F1200 X117.355 Y88.505 E33.16932
G0 F6000 X117.921 Y88.505
G1 F1200 X124.827 Y95.412 E33.49418
G0 F6000 X124.827 Y94.846
G1 F1200 X118.487 Y88.505 E33.79242
G0 F6000 X119.052 Y88.505
G1 F1200 X124.827 Y94.28 E34.06406
G0 F6000 X124.827 Y93.714
G1 F1200 X119.618 Y88.505 E34.30908
G0 F6000 X120.184 Y88.505
G1 F1200 X124.827 Y93.149 E34.52749
G0 F6000 X124.827 Y92.583
G1 F1200 X120.749 Y88.505 E34.71931
G0 F6000 X121.315 Y88.505
G1 F1200 X124.827 Y92.017 E34.8845
G0 F6000 X124.827 Y91.452
G1 F1200 X121.881 Y88.505 E35.0231
G0 F6000 X122.446 Y88.505
G1 F1200 X124.827 Y90.886 E35.13509
G0 F6000 X124.827 Y90.32
G1 F1200 X123.012 Y88.505 E35.22046
G0 F6000 X123.578 Y88.505
G1 F1200 X124.827 Y89.755 E35.27924
G0 F6000 X124.827 Y89.189
G1 F1200 X124.143 Y88.505 E35.31141
G0 F6000 X124.709 Y88.505
G1 F1200 X124.827 Y88.623 E35.31696
G1 F2700 E30.31696
G0 F6000 X125.288 Y88.623
G0 X125.188 Y93.643
G0 X121.729 Y94.086
G0 X120.336 Y93.183
G1 F2700 E35.31696
G1 F1200 X115.658 Y88.505 E35.537
G0 F6000 X115.092 Y88.505
G1 F1200 X119.77 Y93.183 E35.75704
G0 F6000 X119.205 Y93.183
G1 F1200 X114.527 Y88.505 E35.97708
G0 F6000 X113.961 Y88.505
G1 F1200 X118.639 Y93.183 E36.19712
G0 F6000 X118.074 Y93.184
G1 F1200 X113.395 Y88.505 E36.4172
G0 F6000 X112.83 Y88.505
G1 F1200 X117.509 Y93.184 E36.63729
G0 F6000 X116.943 Y93.184
G1 F1200 X112.264 Y88.505 E36.85737
G0 F6000 X111.698 Y88.505
G1 F1200 X116.378 Y93.185 E37.07751
G0 F6000 X115.812 Y93.185
G1 F1200 X111.133 Y88.505 E37.29762
G0 F6000 X110.567 Y88.505
G1 F1200 X115.247 Y93.185 E37.51775
G0 F6000 X114.682 Y93.186
G1 F1200 X110.001 Y88.505 E37.73793
G0 F6000 X109.436 Y88.505
G1 F1200 X114.116 Y93.186 E37.95808
G0 F6000 X113.551 Y93.186
G1 F1200 X108.87 Y88.505 E38.17826
G0 F6000 X108.304 Y88.505
G1 F1200 X112.985 Y93.186 E38.39844
G0 F6000 X112.42 Y93.186
G1 F1200 X107.739 Y88.505 E38.61862
G0 F6000 X107.173 Y88.505
G1 F1200 X111.855 Y93.187 E38.83885
G0 F6000 X111.289 Y93.187
G1 F1200 X107.147 Y89.045 E39.03368
G0 F6000 X107.147 Y89.611
G1 F1200 X110.742 Y93.205 E39.20275
G0 F6000 X110.352 Y93.381
G1 F1200 X107.147 Y90.177 E39.35348
G0 F6000 X107.147 Y90.743
G1 F1200 X110.061 Y93.656 E39.49052
G0 F6000 X109.869 Y94.03
G1 F1200 X107.147 Y91.308 E39.61856
G0 F6000 X107.147 Y91.874
G1 F1200 X109.824 Y94.551 E39.74448
G0 F6000 X109.824 Y95.117
G1 F1200 X107.147 Y92.44 E39.87039
G0 F6000 X107.147 Y93.005
G1 F1200 X109.824 Y95.682 E39.99631
G0 F6000 X109.824 Y96.248
G1 F1200 X107.147 Y93.571 E40.12223
G0 F6000 X107.147 Y94.137
G1 F1200 X109.824 Y96.814 E40.24815
G0 F6000 X109.824 Y97.379
G1 F1200 X107.147 Y94.702 E40.37407
G0 F6000 X107.147 Y95.268
G1 F1200 X109.824 Y97.945 E40.49998
G0 F6000 X109.824 Y98.511
G1 F1200 X107.147 Y95.834 E40.6259
G0 F6000 X107.147 Y96.399
G1 F1200 X109.824 Y99.076 E40.75182
G0 F6000 X109.824 Y99.642
G1 F1200 X107.147 Y96.965 E40.87774
G0 F6000 X107.147 Y97.531
G1 F1200 X109.824 Y100.208 E41.00366
G0 F6000 X109.824 Y100.774
G1 F1200 X107.147 Y98.096 E41.1296
G0 F6000 X107.147 Y98.662
G1 F1200 X109.824 Y101.339 E41.25551
G0 F6000 X109.824 Y101.905
G1 F1200 X107.147 Y99.228 E41.38143
G0 F6000 X107.147 Y99.793
G1 F1200 X109.824 Y102.471 E41.50737
G0 F6000 X109.824 Y103.036
G1 F1200 X107.147 Y100.359 E41.63329
G0 F6000 X107.147 Y100.925
G1 F1200 X109.824 Y103.602 E41.75921
G0 F6000 X109.824 Y104.168
G1 F1200 X107.148 Y101.491 E41.8851
G0 F6000 X107.148 Y102.057
G1 F1200 X109.824 Y104.733 E42.01097
G0 F6000 X109.824 Y105.299
G1 F1200 X107.148 Y102.623 E42.13685
G0 F6000 X107.148 Y103.188
G1 F1200 X109.824 Y105.865 E42.26274
G0 F6000 X109.824 Y106.43
G1 F1200 X107.148 Y103.754 E42.38861
G0 F6000 X107.148 Y104.32
G1 F1200 X109.824 Y106.996 E42.51448
G0 F6000 X109.824 Y107.562
G1 F1200 X107.148 Y104.885 E42.64038
G0 F6000 X107.148 Y105.451
G1 F1200 X109.824 Y108.127 E42.76625
G0 F6000 X109.824 Y108.693
G1 F1200 X107.148 Y106.017 E42.89212
G0 F6000 X107.148 Y106.582
G1 F1200 X109.824 Y109.259 E43.01801
G0 F6000 X109.824 Y109.824
G1 F1200 X107.148 Y107.148 E43.14388
G0 F6000 X107.148 Y107.714
G1 F1200 X109.824 Y110.39 E43.26975
G0 F6000 X109.824 Y110.956
G1 F1200 X107.148 Y108.279 E43.39565
G0 F6000 X107.148 Y108.845
G1 F1200 X109.824 Y111.522 E43.52154
G0 F6000 X109.824 Y112.087
G1 F1200 X107.148 Y109.411 E43.64741
G0 F6000 X107.148 Y109.977
G1 F1200 X109.824 Y112.653 E43.77328
G0 F6000 X109.824 Y113.219
G1 F1200 X107.148 Y110.542 E43.89918
G0 F6000 X107.148 Y111.108
G1 F1200 X109.824 Y113.784 E44.02505
G0 F6000 X109.824 Y114.35
G1 F1200 X107.148 Y111.674 E44.15092
G0 F6000 X107.148 Y112.239
G1 F1200 X109.824 Y114.916 E44.27681
G0 F6000 X109.824 Y115.481
G1 F1200 X107.148 Y112.805 E44.40269
G0 F6000 X107.148 Y113.371
G1 F1200 X109.824 Y116.047 E44.52856
G0 F6000 X109.824 Y116.613
G1 F1200 X107.149 Y113.937 E44.6544
G0 F6000 X107.149 Y114.503
G1 F1200 X109.824 Y117.178 E44.78023
G0 F6000 X109.824 Y117.744
G1 F1200 X107.149 Y115.068 E44.90607
G0 F6000 X107.149 Y115.634
G1 F1200 X109.824 Y118.31 E45.03192
G0 F6000 X109.824 Y118.875
G1 F1200 X107.149 Y116.2 E45.15775
G0 F6000 X107.149 Y116.765
G1 F1200 X109.824 Y119.441 E45.28359
G0 F6000 X109.824 Y120.007
G1 F1200 X107.149 Y117.331 E45.40944
G0 F6000 X107.149 Y117.897
G1 F1200 X109.863 Y120.611 E45.5371
G1 F2700 E40.5371
G0 F6000 X110.302 Y120.498
G0 X110.531 Y120.748
G0 X118.205 Y121.128
G0 X116.485 Y133.06
G0 X118.153 Y146.31
;TYPE:WALL-INNER
G1 F2700 E45.5371
G1 F1200 X123.02 Y143.136 E45.73036
G1 X127.852 Y139.986 E45.9222
G1 X116.718 Y133.419 E46.35214
G1 X118.153 Y146.31 E46.78354
G0 F6000 X117.827 Y147
;TYPE:WALL-OUTER
G1 F1200 X123.238 Y143.471 E46.99841
G1 X128.61 Y139.969 E47.21169
G1 X116.232 Y132.668 E47.68967
G1 X117.827 Y147 E48.16929
G0 F6000 X118.032 Y146.565
G0 X118.188 Y145.718
G0 X118.446 Y145.689
;TYPE:SKIN
G1 F1200 X127.17 Y140.001 E48.51568
G1 X117.159 Y134.098 E48.90222
G1 X118.446 Y145.689 E49.29011
G0 F6000 X118.697 Y145.284
G1 F1200 X118.59 Y145.177 E49.29514
G0 F6000 X119.04 Y145.061
G1 F1200 X118.519 Y144.541 E49.31962
G0 F6000 X118.448 Y143.904
G1 F1200 X119.382 Y144.838 E49.36356
G0 F6000 X119.724 Y144.614
G1 F1200 X118.378 Y143.268 E49.42687
G0 F6000 X118.307 Y142.631
G1 F1200 X120.067 Y144.391 E49.50965
G0 F6000 X120.409 Y144.168
G1 F1200 X118.236 Y141.995 E49.61187
G0 F6000 X118.166 Y141.359
G1 F1200 X120.751 Y143.945 E49.73348
G0 F6000 X121.094 Y143.721
G1 F1200 X118.095 Y140.722 E49.87454
G0 F6000 X118.024 Y140.086
G1 F1200 X121.437 Y143.498 E50.03506
G0 F6000 X121.779 Y143.275
G1 F1200 X117.953 Y139.449 E50.21502
G0 F6000 X117.883 Y138.813
G1 F1200 X122.121 Y143.051 E50.41436
G0 F6000 X122.464 Y142.829
G1 F1200 X117.812 Y138.177 E50.63318
G0 F6000 X117.741 Y137.54
G1 F1200 X122.806 Y142.605 E50.87142
G0 F6000 X123.149 Y142.382
G1 F1200 X117.671 Y136.904 E51.12909
G0 F6000 X117.6 Y136.267
G1 F1200 X123.491 Y142.159 E51.40621
G0 F6000 X123.834 Y141.936
G1 F1200 X117.529 Y135.631 E51.70277
G0 F6000 X117.458 Y134.995
G1 F1200 X124.176 Y141.712 E52.01875
G0 F6000 X124.518 Y141.489
G1 F1200 X117.649 Y134.619 E52.34187
G0 F6000 X117.883 Y134.223
G0 X119.261 Y135.036
G0 X119.027 Y135.432
G1 F1200 X124.861 Y141.266 E52.61628
G0 F6000 X125.203 Y141.043
G1 F1200 X120.406 Y136.245 E52.84194
G0 F6000 X120.64 Y135.849
G0 X122.017 Y136.662
G0 X121.784 Y137.057
G1 F1200 X125.546 Y140.819 E53.01889
G0 F6000 X125.889 Y140.596
G1 F1200 X123.162 Y137.87 E53.14714
G0 F6000 X123.395 Y137.475
G0 X124.773 Y138.287
G0 X124.54 Y138.682
G1 F1200 X126.231 Y140.373 E53.22668
G0 F6000 X126.573 Y140.149
G1 F1200 X125.919 Y139.495 E53.25744
G1 F2700 E48.25744
;MESH:NONMESH
G0 F300 X125.919 Y139.495 Z0.4
G0 F6000 X126.152 Y139.1
G0 X116.485 Y133.06
G0 X116.485 Y121.128
G0 X121.094 Y120.94
;TIME_ELAPSED:104.400350
;LAYER:1
M106 S85
;TYPE:WALL-INNER
;MESH:LETRA ??.stl
G1 F2700 E53.25744
G1 F1350 X120.99 Y120.948 E53.26091
G1 X110.905 Y120.948 E53.59634
G1 X110.628 Y120.831 E53.60634
G1 X110.507 Y120.711 E53.61201
G1 X110.385 Y120.421 E53.62247
G1 X110.385 Y94.343 E54.48983
G1 X110.417 Y94.146 E54.49647
G1 X110.507 Y93.98 E54.50275
G1 X110.628 Y93.86 E54.50841
G1 X110.909 Y93.743 E54.51854
G1 X121.07 Y93.743 E54.85649
G1 X121.347 Y93.859 E54.86648
G1 X121.468 Y93.98 E54.87217
G1 X121.558 Y94.146 E54.87846
G1 X121.59 Y94.343 E54.88509
G1 X121.59 Y120.421 E55.75245
G1 X121.468 Y120.711 E55.76292
G1 X121.347 Y120.831 E55.76858
G1 X121.094 Y120.94 E55.77775
G0 F7500 X121.15 Y120.469
;TYPE:WALL-OUTER
G1 F1350 X121.025 Y120.546 E55.78263
G1 X110.946 Y120.545 E56.11786
G1 X110.825 Y120.469 E56.12261
G1 X110.787 Y120.383 E56.12574
G1 X110.785 Y94.29 E56.99359
G1 X110.866 Y94.182 E56.99808
G1 X110.95 Y94.145 E57.00114
G1 X121.029 Y94.146 E57.33637
G1 X121.109 Y94.181 E57.33927
G1 X121.19 Y94.291 E57.34381
G1 X121.188 Y120.383 E58.21164
G1 X121.15 Y120.469 E58.21476
G1 F2700 E53.21476
G0 F7500 X121.49 Y120.469
G0 X121.454 Y120.977
G0 X125.188 Y120.977
G0 X125.388 Y126.745
;TYPE:WALL-INNER
G1 F2700 E58.21476
G1 F1350 X125.388 Y90.977 E59.40441
G1 X125.388 Y87.945 E59.50526
G1 X106.588 Y87.945 E60.13055
G1 X106.589 Y126.744 E61.42101
G1 X125.388 Y126.745 E62.04627
G0 F7500 X125.788 Y127.145
;TYPE:WALL-OUTER
G1 F1350 X125.788 Y90.977 E63.24922
G1 X125.788 Y87.545 E63.36337
G1 X106.188 Y87.545 E64.01527
G1 X106.189 Y127.144 E65.33233
G1 X125.788 Y127.145 E65.9842
G0 F7500 X125.518 Y126.875
G0 X125.288 Y126.385
G0 X125.028 Y126.385
;TYPE:SKIN
G1 F1350 X125.028 Y90.986 E67.16157
G1 X125.028 Y88.305 E67.25074
G1 X106.949 Y88.306 E67.85205
G1 X106.95 Y126.383 E69.1185
G1 X125.028 Y126.385 E69.71978
G1 F2700 E64.71978
G0 F7500 X125.288 Y126.385
G0 X125.188 Y121.038
G0 X121.729 Y120.603
G0 X121.131 Y121.306
G1 F2700 E69.71978
G1 F1350 X110.839 Y121.308 E70.06209
G1 X110.412 Y121.125 E70.07754
G1 X110.202 Y120.904 E70.08768
G1 X110.068 Y120.631 E70.0978
G1 X110.027 Y120.381 E70.10622
G1 X110.027 Y94.313 E70.97325
G1 X110.074 Y94.022 E70.98305
G1 X110.236 Y93.742 E70.99381
G1 X110.392 Y93.589 E71.00108
G1 X110.454 Y93.548 E71.00355
G1 X110.845 Y93.385 E71.01764
G1 X121.138 Y93.383 E71.35999
G1 X121.522 Y93.546 E71.37386
G1 X121.737 Y93.739 E71.38347
G1 X121.901 Y94.022 E71.39435
G1 X121.948 Y94.315 E71.40422
G1 X121.948 Y120.477 E72.27437
G1 X121.765 Y120.927 E72.29053
G1 X121.524 Y121.142 E72.30127
G1 X121.131 Y121.306 E72.31544
G1 F2700 E67.31544
G0 F7500 X121.116 Y121.038
G0 X121.284 Y126.545
G0 X124.414 Y126.183
G1 F2700 E72.31544
G1 F1350 X124.827 Y125.77 E72.33486
G0 F7500 X124.827 Y125.205
G1 F1350 X123.849 Y126.183 E72.38086
G0 F7500 X123.283 Y126.183
G1 F1350 X124.827 Y124.639 E72.45349
G0 F7500 X124.827 Y124.073
G1 F1350 X122.717 Y126.183 E72.55274
G0 F7500 X122.151 Y126.183
G1 F1350 X124.827 Y123.508 E72.67858
G0 F7500 X124.827 Y122.942
G1 F1350 X121.586 Y126.183 E72.83103
G0 F7500 X121.02 Y126.183
G1 F1350 X124.827 Y122.376 E73.0101
G0 F7500 X124.827 Y121.811
G1 F1350 X120.454 Y126.183 E73.21577
G0 F7500 X119.889 Y126.183
G1 F1350 X124.827 Y121.245 E73.44804
G0 F7500 X124.827 Y120.679
G1 F1350 X119.323 Y126.183 E73.70693
G0 F7500 X118.757 Y126.183
G1 F1350 X124.827 Y120.114 E73.99242
G0 F7500 X124.827 Y119.548
G1 F1350 X118.192 Y126.183 E74.30451
G0 F7500 X117.626 Y126.183
G1 F1350 X124.827 Y118.982 E74.64322
G0 F7500 X124.827 Y118.417
G1 F1350 X117.06 Y126.183 E75.00853
G0 F7500 X116.495 Y126.183
G1 F1350 X121.176 Y121.502 E75.22871
G0 F7500 X120.611 Y121.502
G1 F1350 X115.93 Y126.183 E75.44889
G0 F7500 X115.364 Y126.183
G1 F1350 X120.045 Y121.502 E75.66907
G0 F7500 X119.479 Y121.502
G1 F1350 X114.798 Y126.183 E75.88925
G0 F7500 X114.233 Y126.183
G1 F1350 X118.913 Y121.502 E76.10941
G0 F7500 X118.347 Y121.503
G1 F1350 X113.667 Y126.183 E76.32954
G0 F7500 X113.101 Y126.183
G1 F1350 X117.781 Y121.503 E76.54968
G0 F7500 X117.214 Y121.504
G1 F1350 X112.536 Y126.183 E76.76974
G0 F7500 X111.97 Y126.183
G1 F1350 X116.649 Y121.504 E76.98982
G0 F7500 X116.083 Y121.504
G1 F1350 X111.404 Y126.183 E77.20991
G0 F7500 X110.838 Y126.183
G1 F1350 X115.517 Y121.504 E77.43
G0 F7500 X114.951 Y121.504
G1 F1350 X110.273 Y126.183 E77.65006
G0 F7500 X109.707 Y126.183
G1 F1350 X114.385 Y121.505 E77.8701
G0 F7500 X113.819 Y121.505
G1 F1350 X109.141 Y126.183 E78.09014
G0 F7500 X108.576 Y126.183
G1 F1350 X113.253 Y121.506 E78.31013
G0 F7500 X112.687 Y121.506
G1 F1350 X108.01 Y126.183 E78.53012
G0 F7500 X107.444 Y126.183
G1 F1350 X112.121 Y121.506 E78.75011
G0 F7500 X111.555 Y121.507
G1 F1350 X107.15 Y125.912 E78.95731
G0 F7500 X107.15 Y125.346
G1 F1350 X110.989 Y121.507 E79.13788
G0 F7500 X110.535 Y121.395
G1 F1350 X107.15 Y124.781 E79.29713
G0 F7500 X107.15 Y124.215
G1 F1350 X110.191 Y121.173 E79.44019
G0 F7500 X109.95 Y120.849
G1 F1350 X107.15 Y123.649 E79.57189
G0 F7500 X107.15 Y123.083
G1 F1350 X109.832 Y120.401 E79.69805
G0 F7500 X109.824 Y119.843
G1 F1350 X107.15 Y122.518 E79.82385
G0 F7500 X107.15 Y121.952
G1 F1350 X109.824 Y119.278 E79.94962
G0 F7500 X109.824 Y118.712
G1 F1350 X107.15 Y121.386 E80.0754
G0 F7500 X107.15 Y120.821
G1 F1350 X109.824 Y118.146 E80.2012
G0 F7500 X109.824 Y117.581
G1 F1350 X107.15 Y120.255 E80.32698
G0 F7500 X107.15 Y119.689
G1 F1350 X109.824 Y117.015 E80.45275
G0 F7500 X109.824 Y116.449
G1 F1350 X107.15 Y119.124 E80.57855
G0 F7500 X107.15 Y118.558
G1 F1350 X109.824 Y115.884 E80.70433
G0 F7500 X109.824 Y115.318
G1 F1350 X107.15 Y117.992 E80.83011
G0 F7500 X107.15 Y117.427
G1 F1350 X109.824 Y114.752 E80.95591
G0 F7500 X109.824 Y114.187
G1 F1350 X107.15 Y116.861 E81.08169
G0 F7500 X107.15 Y116.295
G1 F1350 X109.824 Y113.621 E81.20746
G0 F7500 X109.824 Y113.055
G1 F1350 X107.15 Y115.73 E81.33326
G0 F7500 X107.15 Y115.164
G1 F1350 X109.824 Y112.49 E81.45904
G0 F7500 X109.824 Y111.924
G1 F1350 X107.15 Y114.598 E81.58482
G0 F7500 X107.15 Y114.032
G1 F1350 X109.824 Y111.358 E81.71059
G0 F7500 X109.824 Y110.793
G1 F1350 X107.149 Y113.468 E81.83642
G0 F7500 X107.149 Y112.902
G1 F1350 X109.824 Y110.227 E81.96224
G0 F7500 X109.824 Y109.661
G1 F1350 X107.149 Y112.336 E82.08806
G0 F7500 X107.149 Y111.77
G1 F1350 X109.824 Y109.095 E82.21389
G0 F7500 X109.824 Y108.53
G1 F1350 X107.149 Y111.205 E82.33971
G0 F7500 X107.149 Y110.639
G1 F1350 X109.824 Y107.964 E82.46554
G0 F7500 X109.824 Y107.398
G1 F1350 X107.149 Y110.073 E82.59136
G0 F7500 X107.149 Y109.508
G1 F1350 X109.824 Y106.833 E82.71718
G0 F7500 X109.824 Y106.267
G1 F1350 X107.149 Y108.942 E82.84301
G0 F7500 X107.149 Y108.376
G1 F1350 X109.824 Y105.701 E82.96883
G0 F7500 X109.824 Y105.136
G1 F1350 X107.149 Y107.811 E83.09465
G0 F7500 X107.149 Y107.245
G1 F1350 X109.824 Y104.57 E83.22048
G0 F7500 X109.824 Y104.004
G1 F1350 X107.149 Y106.679 E83.3463
G0 F7500 X107.149 Y106.114
G1 F1350 X109.824 Y103.439 E83.47213
G0 F7500 X109.824 Y102.873
G1 F1350 X107.149 Y105.548 E83.59795
G0 F7500 X107.149 Y104.982
G1 F1350 X109.824 Y102.307 E83.72377
G0 F7500 X109.824 Y101.742
G1 F1350 X107.149 Y104.417 E83.8496
G0 F7500 X107.149 Y103.851
G1 F1350 X109.824 Y101.176 E83.97542
G0 F7500 X109.824 Y100.61
G1 F1350 X107.149 Y103.285 E84.10124
G0 F7500 X107.149 Y102.719
G1 F1350 X109.824 Y100.045 E84.22704
G0 F7500 X109.824 Y99.479
G1 F1350 X107.149 Y102.154 E84.35287
G0 F7500 X107.149 Y101.588
G1 F1350 X109.824 Y98.913 E84.47869
G0 F7500 X109.824 Y98.347
G1 F1350 X107.148 Y101.023 E84.60456
G0 F7500 X107.148 Y100.457
G1 F1350 X109.824 Y97.782 E84.73041
G0 F7500 X109.824 Y97.216
G1 F1350 X107.148 Y99.892 E84.85628
G0 F7500 X107.148 Y99.326
G1 F1350 X109.824 Y96.65 E84.98215
G0 F7500 X109.824 Y96.085
G1 F1350 X107.148 Y98.76 E85.108
G0 F7500 X107.148 Y98.195
G1 F1350 X109.824 Y95.519 E85.23387
G0 F7500 X109.824 Y94.953
G1 F1350 X107.148 Y97.629 E85.35974
G0 F7500 X107.148 Y97.063
G1 F1350 X109.824 Y94.388 E85.48559
G0 F7500 X110.285 Y94.388
G0 X110.529 Y93.963
G0 X111.024 Y93.643
G0 X111.024 Y93.188
G1 F1350 X115.707 Y88.505 E85.70586
G0 F7500 X116.273 Y88.505
G1 F1350 X111.589 Y93.188 E85.92616
G0 F7500 X112.155 Y93.188
G1 F1350 X116.838 Y88.505 E86.14643
G0 F7500 X117.404 Y88.505
G1 F1350 X112.722 Y93.187 E86.36666
G0 F7500 X113.287 Y93.187
G1 F1350 X117.97 Y88.505 E86.58691
G0 F7500 X118.535 Y88.505
G1 F1350 X113.854 Y93.186 E86.80709
G0 F7500 X114.419 Y93.186
G1 F1350 X119.101 Y88.505 E87.02729
G0 F7500 X119.667 Y88.505
G1 F1350 X114.985 Y93.186 E87.2475
G0 F7500 X115.551 Y93.186
G1 F1350 X120.232 Y88.505 E87.46768
G0 F7500 X120.798 Y88.505
G1 F1350 X116.117 Y93.186 E87.68786
G0 F7500 X116.683 Y93.186
G1 F1350 X121.364 Y88.505 E87.90804
G0 F7500 X121.929 Y88.505
G1 F1350 X117.249 Y93.185 E88.12817
G0 F7500 X117.815 Y93.185
G1 F1350 X122.495 Y88.505 E88.3483
G0 F7500 X123.061 Y88.505
G1 F1350 X118.381 Y93.184 E88.56841
G0 F7500 X118.947 Y93.184
G1 F1350 X123.627 Y88.505 E88.78852
G0 F7500 X124.192 Y88.505
G1 F1350 X119.513 Y93.184 E89.00861
G0 F7500 X120.079 Y93.183
G1 F1350 X124.758 Y88.505 E89.22867
G0 F7500 X124.827 Y89.001
G1 F1350 X120.645 Y93.183 E89.42538
G0 F7500 X121.2 Y93.193
G1 F1350 X124.827 Y89.567 E89.59596
G0 F7500 X124.827 Y90.132
G1 F1350 X121.598 Y93.362 E89.74786
G0 F7500 X121.896 Y93.629
G1 F1350 X124.827 Y90.698 E89.88573
G0 F7500 X124.827 Y91.264
G1 F1350 X122.098 Y93.993 E90.01409
G0 F7500 X122.149 Y94.508
G1 F1350 X124.827 Y91.829 E90.14008
G0 F7500 X124.827 Y92.395
G1 F1350 X122.149 Y95.074 E90.26607
G0 F7500 X122.149 Y95.639
G1 F1350 X124.827 Y92.961 E90.39203
G0 F7500 X124.827 Y93.526
G1 F1350 X122.149 Y96.205 E90.51802
G0 F7500 X122.149 Y96.771
G1 F1350 X124.827 Y94.092 E90.64401
G0 F7500 X124.827 Y94.658
G1 F1350 X122.149 Y97.336 E90.76998
G0 F7500 X122.149 Y97.902
G1 F1350 X124.827 Y95.223 E90.89596
G0 F7500 X124.827 Y95.789
G1 F1350 X122.148 Y98.468 E91.02198
G0 F7500 X122.148 Y99.034
G1 F1350 X124.827 Y96.355 E91.14799
G0 F7500 X124.827 Y96.921
G1 F1350 X122.148 Y99.6 E91.274
G0 F7500 X122.148 Y100.165
G1 F1350 X124.827 Y97.486 E91.40001
G0 F7500 X124.827 Y98.052
G1 F1350 X122.148 Y100.731 E91.52602
G0 F7500 X122.148 Y101.297
G1 F1350 X124.827 Y98.618 E91.65204
G0 F7500 X124.827 Y99.183
G1 F1350 X122.147 Y101.863 E91.7781
G0 F7500 X122.147 Y102.429
G1 F1350 X124.827 Y99.749 E91.90415
G0 F7500 X124.827 Y100.315
G1 F1350 X122.147 Y102.995 E92.03021
G0 F7500 X122.147 Y103.56
G1 F1350 X124.827 Y100.88 E92.15627
G0 F7500 X124.827 Y101.446
G1 F1350 X122.147 Y104.126 E92.28233
G0 F7500 X122.147 Y104.692
G1 F1350 X124.827 Y102.012 E92.40839
G0 F7500 X124.827 Y102.577
G1 F1350 X122.147 Y105.257 E92.53445
G0 F7500 X122.147 Y105.824
G1 F1350 X124.827 Y103.143 E92.66053
G0 F7500 X124.827 Y103.709
G1 F1350 X122.147 Y106.389 E92.78659
G0 F7500 X122.147 Y106.955
G1 F1350 X124.827 Y104.274 E92.91267
G0 F7500 X124.827 Y104.84
G1 F1350 X122.147 Y107.521 E93.03876
G0 F7500 X122.147 Y108.086
G1 F1350 X124.827 Y105.406 E93.16482
G0 F7500 X124.827 Y105.971
G1 F1350 X122.147 Y108.652 E93.2909
G0 F7500 X122.147 Y109.218
G1 F1350 X124.827 Y106.537 E93.41698
G0 F7500 X124.827 Y107.103
G1 F1350 X122.146 Y109.784 E93.54309
G0 F7500 X122.146 Y110.35
G1 F1350 X124.827 Y107.669 E93.66919
G0 F7500 X124.827 Y108.234
G1 F1350 X122.146 Y110.916 E93.79532
G0 F7500 X122.146 Y111.481
G1 F1350 X124.827 Y108.8 E93.92143
G0 F7500 X124.827 Y109.366
G1 F1350 X122.146 Y112.047 E94.04753
G0 F7500 X122.146 Y112.613
G1 F1350 X124.827 Y109.931 E94.17366
G0 F7500 X124.827 Y110.497
G1 F1350 X122.145 Y113.179 E94.29982
G0 F7500 X122.145 Y113.745
G1 F1350 X124.827 Y111.063 E94.42597
G0 F7500 X124.827 Y111.628
G1 F1350 X122.145 Y114.31 E94.55212
G0 F7500 X122.145 Y114.876
G1 F1350 X124.827 Y112.194 E94.67828
G0 F7500 X124.827 Y112.76
G1 F1350 X122.145 Y115.442 E94.80443
G0 F7500 X122.145 Y116.007
G1 F1350 X124.827 Y113.325 E94.93058
G0 F7500 X124.827 Y113.891
G1 F1350 X122.145 Y116.573 E95.05673
G0 F7500 X122.144 Y117.14
G1 F1350 X124.827 Y114.457 E95.18293
G0 F7500 X124.827 Y115.022
G1 F1350 X122.144 Y117.705 E95.30913
G0 F7500 X122.144 Y118.271
G1 F1350 X124.827 Y115.588 E95.43533
G0 F7500 X124.827 Y116.154
G1 F1350 X122.144 Y118.837 E95.56153
G0 F7500 X122.144 Y119.402
G1 F1350 X124.827 Y116.719 E95.68774
G0 F7500 X124.827 Y117.285
G1 F1350 X122.144 Y119.968 E95.81394
G0 F7500 X122.144 Y120.534
G1 F1350 X124.827 Y117.851 E95.94014
G1 F2700 E90.94014
G0 F7500 X125.288 Y117.851
G0 X125.216 Y88.117
G0 X106.76 Y88.117
G0 X106.689 Y96.498
G1 F2700 E95.94014
G0 F7500 X107.148 Y96.498
G1 F1350 X115.141 Y88.505 E96.3161
G0 F7500 X114.576 Y88.505
G1 F1350 X107.148 Y95.932 E96.66547
G0 F7500 X107.148 Y95.366
G1 F1350 X114.01 Y88.505 E96.98821
G0 F7500 X113.444 Y88.505
G1 F1350 X107.148 Y94.801 E97.28436
G0 F7500 X107.148 Y94.235
G1 F1350 X112.878 Y88.505 E97.55388
G0 F7500 X112.313 Y88.505
G1 F1350 X107.148 Y93.669 E97.7968
G0 F7500 X107.148 Y93.104
G1 F1350 X111.747 Y88.505 E98.01312
G0 F7500 X111.181 Y88.505
G1 F1350 X107.148 Y92.538 E98.20282
G0 F7500 X107.148 Y91.972
G1 F1350 X110.616 Y88.505 E98.36592
G0 F7500 X110.05 Y88.505
G1 F1350 X107.148 Y91.406 E98.5024
G0 F7500 X107.148 Y90.841
G1 F1350 X109.484 Y88.505 E98.61228
G0 F7500 X108.919 Y88.505
G1 F1350 X107.148 Y90.275 E98.69556
G0 F7500 X107.148 Y89.709
G1 F1350 X108.353 Y88.505 E98.75221
G0 F7500 X107.787 Y88.505
G1 F1350 X107.148 Y89.144 E98.78227
G0 F7500 X107.148 Y88.578
G1 F1350 X107.222 Y88.505 E98.78573
G1 F2700 E93.78573
G0 F7500 X107.222 Y88.045
G0 X106.76 Y88.117
G0 X106.761 Y126.572
G0 X118.205 Y126.925
G0 X118.205 Y128.01
G0 X117.03 Y132.135
G0 X118.153 Y146.31
;TYPE:WALL-INNER
G1 F2700 E98.78573
G1 F1350 X123.02 Y143.136 E98.97899
G1 X127.852 Y139.986 E99.17083
G1 X116.718 Y133.419 E99.60077
G1 X118.153 Y146.31 E100.03217
G0 F7500 X117.827 Y147
;TYPE:WALL-OUTER
G1 F1350 X123.238 Y143.471 E100.24704
G1 X128.61 Y139.969 E100.46032
G1 X116.232 Y132.668 E100.9383
G1 X117.827 Y147 E101.41792
G0 F7500 X118.032 Y146.565
G0 X118.188 Y145.718
G0 X118.446 Y145.689
;TYPE:SKIN
G1 F1350 X122.824 Y142.834 E101.59176
G1 X127.17 Y140.001 E101.76431
G1 X117.159 Y134.098 E102.15085
G1 X118.446 Y145.689 E102.53874
G0 F7500 X118.188 Y145.718
G0 X118.299 Y146.001
G0 X127.512 Y139.995
G0 X126.795 Y139.48
G0 X126.562 Y139.874
G1 F1350 X125.75 Y140.687 E102.57696
G0 F7500 X126.001 Y141.073
G0 X127.512 Y139.995
G0 X126.439 Y139.27
G0 X126.207 Y139.664
G1 F1350 X124.125 Y141.746 E102.67489
G0 F7500 X124.376 Y142.132
G0 X122.75 Y143.192
G0 X122.499 Y142.806
G1 F1350 X125.851 Y139.454 E102.83256
G0 F7500 X125.495 Y139.244
G1 F1350 X120.874 Y143.865 E103.04991
G0 F7500 X121.125 Y144.251
G0 X119.501 Y145.311
G0 X119.25 Y144.925
G1 F1350 X125.139 Y139.035 E103.32694
G0 F7500 X124.783 Y138.825
G1 F1350 X118.574 Y145.034 E103.61899
G0 F7500 X118.518 Y144.525
G1 F1350 X124.428 Y138.615 E103.89698
G0 F7500 X124.071 Y138.406
G1 F1350 X118.461 Y144.016 E104.16086
G0 F7500 X118.405 Y143.507
G1 F1350 X123.716 Y138.196 E104.41067
G0 F7500 X123.36 Y137.986
G1 F1350 X118.348 Y142.998 E104.64642
G0 F7500 X118.291 Y142.489
G1 F1350 X123.004 Y137.776 E104.8681
G0 F7500 X122.648 Y137.566
G1 F1350 X118.235 Y141.979 E105.07568
G0 F7500 X118.178 Y141.47
G1 F1350 X122.292 Y137.356 E105.26919
G0 F7500 X121.937 Y137.146
G1 F1350 X118.122 Y140.961 E105.44863
G0 F7500 X118.065 Y140.452
G1 F1350 X121.581 Y136.936 E105.61401
G0 F7500 X121.224 Y136.727
G1 F1350 X118.009 Y139.943 E105.76526
G0 F7500 X117.952 Y139.434
G1 F1350 X120.869 Y136.517 E105.90247
G0 F7500 X120.513 Y136.307
G1 F1350 X117.895 Y138.925 E106.02561
G0 F7500 X117.839 Y138.416
G1 F1350 X120.157 Y136.098 E106.13464
G0 F7500 X119.801 Y135.888
G1 F1350 X117.782 Y137.907 E106.22961
G0 F7500 X117.726 Y137.397
G1 F1350 X119.445 Y135.678 E106.31047
G0 F7500 X119.09 Y135.468
G1 F1350 X117.669 Y136.888 E106.37728
G0 F7500 X117.613 Y136.379
G1 F1350 X118.733 Y135.258 E106.42999
G0 F7500 X118.378 Y135.048
G1 F1350 X117.556 Y135.87 E106.46865
G0 F7500 X117.499 Y135.361
G1 F1350 X118.022 Y134.838 E106.49325
G0 F7500 X117.666 Y134.629
G1 F1350 X117.443 Y134.852 E106.50374
G1 F2700 E101.50374
;MESH:NONMESH
G0 F300 X117.443 Y134.852 Z0.6
G0 F7500 X116.984 Y134.904
G0 X116.485 Y133.06
G0 X116.485 Y121.128
G0 X121.094 Y120.94
;TIME_ELAPSED:198.168054
;LAYER:2
M106 S170
;TYPE:WALL-INNER
;MESH:LETRA ??.stl
G1 F2700 E106.50374
G1 F1500 X120.99 Y120.948 E106.50721
G1 X110.905 Y120.948 E106.84264
G1 X110.628 Y120.831 E106.85264
G1 X110.507 Y120.711 E106.85831
G1 X110.385 Y120.421 E106.86877
G1 X110.385 Y94.343 E107.73613
G1 X110.417 Y94.146 E107.74277
G1 X110.507 Y93.98 E107.74905
G1 X110.628 Y93.86 E107.75472
G1 X110.909 Y93.743 E107.76484
G1 X121.07 Y93.743 E108.1028
G1 X121.347 Y93.859 E108.11279
G1 X121.468 Y93.98 E108.11848
G1 X121.558 Y94.146 E108.12476
G1 X121.59 Y94.343 E108.1314
G1 X121.59 Y120.421 E108.99875
G1 X121.468 Y120.711 E109.00922
G1 X121.347 Y120.831 E109.01489
G1 X121.094 Y120.94 E109.02405
G0 F9000 X121.15 Y120.469
;TYPE:WALL-OUTER
G1 F1500 X121.025 Y120.546 E109.02893
G1 X110.946 Y120.545 E109.36416
G1 X110.825 Y120.469 E109.36891
G1 X110.787 Y120.383 E109.37204
G1 X110.785 Y94.29 E110.2399
G1 X110.866 Y94.182 E110.24439
G1 X110.95 Y94.145 E110.24744
G1 X121.029 Y94.146 E110.58267
G1 X121.109 Y94.181 E110.58557
G1 X121.19 Y94.291 E110.59012
G1 X121.188 Y120.383 E111.45794
G1 X121.15 Y120.469 E111.46107
G1 F2700 E106.46107
G0 F9000 X121.49 Y120.469
G0 X121.454 Y120.977
G0 X125.188 Y120.977
G0 X125.388 Y126.745
;TYPE:WALL-INNER
G1 F2700 E111.46107
G1 F1500 X125.388 Y90.977 E112.65072
G1 X125.388 Y87.945 E112.75156
G1 X106.588 Y87.945 E113.37685
G1 X106.589 Y126.744 E114.66731
G1 X125.388 Y126.745 E115.29257
G0 F9000 X125.788 Y127.145
;TYPE:WALL-OUTER
G1 F1500 X125.788 Y90.977 E116.49552
G1 X125.788 Y87.545 E116.60967
G1 X106.188 Y87.545 E117.26157
G1 X106.189 Y127.144 E118.57864
G1 X125.788 Y127.145 E119.2305
G0 F9000 X125.518 Y126.875
G0 X125.288 Y126.385
G0 X125.028 Y126.385
;TYPE:SKIN
G1 F1500 X125.028 Y90.986 E120.40788
G1 X125.028 Y88.305 E120.49705
G1 X106.949 Y88.306 E121.09836
G1 X106.95 Y126.383 E122.3648
G1 X125.028 Y126.385 E122.96608
G1 F2700 E117.96608
G0 F9000 X125.288 Y126.385
G0 X125.188 Y121.038
G0 X121.729 Y120.603
G0 X121.131 Y121.306
G1 F2700 E122.96608
G1 F1500 X110.839 Y121.308 E123.30839
G1 X110.412 Y121.125 E123.32384
G1 X110.202 Y120.904 E123.33398
G1 X110.068 Y120.631 E123.3441
G1 X110.027 Y120.381 E123.35253
G1 X110.027 Y94.313 E124.21955
G1 X110.074 Y94.022 E124.22935
G1 X110.236 Y93.742 E124.24011
G1 X110.454 Y93.548 E124.24982
G1 X110.845 Y93.385 E124.26391
G1 X121.138 Y93.383 E124.60626
G1 X121.522 Y93.546 E124.62013
G1 X121.737 Y93.739 E124.62974
G1 X121.901 Y94.022 E124.64062
G1 X121.948 Y94.315 E124.65049
G1 X121.948 Y120.477 E125.52064
G1 X121.765 Y120.927 E125.5368
G1 X121.524 Y121.142 E125.54754
G1 X121.131 Y121.306 E125.5617
G1 F2700 E120.5617
G0 F9000 X121.116 Y121.038
G0 X110.985 Y121.129
G0 X109.62 Y126.544
G0 X107.514 Y126.182
G1 F2700 E125.5617
G1 F1500 X107.149 Y125.816 E125.5789
G0 F9000 X107.149 Y125.251
G1 F1500 X108.08 Y126.182 E125.62269
G0 F9000 X108.646 Y126.182
G1 F1500 X107.149 Y124.685 E125.6931
G0 F9000 X107.149 Y124.119
G1 F1500 X109.211 Y126.182 E125.79011
G0 F9000 X109.777 Y126.182
G1 F1500 X107.149 Y123.554 E125.91373
G0 F9000 X107.149 Y122.988
G1 F1500 X110.343 Y126.182 E126.06396
G0 F9000 X110.908 Y126.182
G1 F1500 X107.149 Y122.422 E126.2408
G0 F9000 X107.149 Y121.857
G1 F1500 X111.474 Y126.182 E126.44423
G0 F9000 X112.04 Y126.182
G1 F1500 X107.149 Y121.291 E126.67429
G0 F9000 X107.149 Y120.725
G1 F1500 X112.606 Y126.182 E126.93097
G0 F9000 X113.171 Y126.182
G1 F1500 X107.149 Y120.16 E127.21423
G0 F9000 X107.149 Y119.594
G1 F1500 X113.737 Y126.182 E127.52411
G0 F9000 X114.303 Y126.182
G1 F1500 X107.149 Y119.028 E127.86061
G0 F9000 X107.149 Y118.463
G1 F1500 X114.868 Y126.182 E128.22369
G0 F9000 X115.434 Y126.182
G1 F1500 X110.731 Y121.479 E128.4449
G0 F9000 X111.325 Y121.507
G1 F1500 X116 Y126.183 E128.66482
G0 F9000 X116.566 Y126.183
G1 F1500 X111.891 Y121.507 E128.88475
G0 F9000 X112.456 Y121.507
G1 F1500 X117.132 Y126.183 E129.10469
G0 F9000 X117.697 Y126.183
G1 F1500 X113.021 Y121.507 E129.32463
G0 F9000 X113.586 Y121.506
G1 F1500 X118.263 Y126.183 E129.54463
G0 F9000 X118.829 Y126.183
G1 F1500 X114.152 Y121.506 E129.76462
G0 F9000 X114.717 Y121.505
G1 F1500 X119.394 Y126.183 E129.98463
G0 F9000 X119.96 Y126.183
G1 F1500 X115.283 Y121.505 E130.20465
G0 F9000 X115.848 Y121.505
G1 F1500 X120.526 Y126.183 E130.42469
G0 F9000 X121.092 Y126.183
G1 F1500 X116.413 Y121.504 E130.64477
G0 F9000 X116.979 Y121.504
G1 F1500 X121.657 Y126.183 E130.86484
G0 F9000 X122.223 Y126.183
G1 F1500 X117.544 Y121.504 E131.08492
G0 F9000 X118.11 Y121.504
G1 F1500 X122.789 Y126.183 E131.30501
G0 F9000 X123.354 Y126.183
G1 F1500 X118.675 Y121.503 E131.52512
G0 F9000 X119.24 Y121.503
G1 F1500 X123.92 Y126.183 E131.74525
G0 F9000 X124.486 Y126.183
G1 F1500 X119.806 Y121.503 E131.96538
G0 F9000 X120.371 Y121.502
G1 F1500 X124.827 Y125.959 E132.175
G0 F9000 X124.827 Y125.393
G1 F1500 X120.937 Y121.502 E132.358
G0 F9000 X121.409 Y121.409
G1 F1500 X124.827 Y124.827 E132.51877
G0 F9000 X124.827 Y124.261
G1 F1500 X121.759 Y121.193 E132.66308
G0 F9000 X122.002 Y120.871
G1 F1500 X124.827 Y123.696 E132.79596
G0 F9000 X124.827 Y123.13
G1 F1500 X122.144 Y120.447 E132.92216
G0 F9000 X122.144 Y119.881
G1 F1500 X124.827 Y122.564 E133.04836
G0 F9000 X124.827 Y121.999
G1 F1500 X122.144 Y119.315 E133.17458
G0 F9000 X122.144 Y118.75
G1 F1500 X124.827 Y121.433 E133.30078
G0 F9000 X124.827 Y120.867
G1 F1500 X122.144 Y118.184 E133.42698
G0 F9000 X122.144 Y117.618
G1 F1500 X124.827 Y120.302 E133.55321
G0 F9000 X124.827 Y119.736
G1 F1500 X122.144 Y117.053 E133.67941
G0 F9000 X122.144 Y116.488
G1 F1500 X124.827 Y119.17 E133.80558
G0 F9000 X124.827 Y118.605
G1 F1500 X122.144 Y115.922 E133.93178
G0 F9000 X122.144 Y115.356
G1 F1500 X124.827 Y118.039 E134.05799
G0 F9000 X124.827 Y117.473
G1 F1500 X122.144 Y114.791 E134.18416
G0 F9000 X122.144 Y114.225
G1 F1500 X124.827 Y116.908 E134.31036
G0 F9000 X124.827 Y116.342
G1 F1500 X122.144 Y113.659 E134.43656
G0 F9000 X122.144 Y113.093
G1 F1500 X124.827 Y115.776 E134.56276
G0 F9000 X124.827 Y115.211
G1 F1500 X122.145 Y112.528 E134.68894
G0 F9000 X122.145 Y111.963
G1 F1500 X124.827 Y114.645 E134.81509
G0 F9000 X124.827 Y114.079
G1 F1500 X122.145 Y111.397 E134.94124
G0 F9000 X122.145 Y110.831
G1 F1500 X124.827 Y113.513 E135.0674
G0 F9000 X124.827 Y112.948
G1 F1500 X122.145 Y110.266 E135.19355
G0 F9000 X122.145 Y109.7
G1 F1500 X124.827 Y112.382 E135.3197
G0 F9000 X124.827 Y111.816
G1 F1500 X122.146 Y109.135 E135.44581
G0 F9000 X122.146 Y108.569
G1 F1500 X124.827 Y111.251 E135.57194
G0 F9000 X124.827 Y110.685
G1 F1500 X122.146 Y108.004 E135.69805
G0 F9000 X122.146 Y107.438
G1 F1500 X124.827 Y110.119 E135.82415
G0 F9000 X124.827 Y109.554
G1 F1500 X122.146 Y106.872 E135.95028
G0 F9000 X122.146 Y106.307
G1 F1500 X124.827 Y108.988 E136.07639
G0 F9000 X124.827 Y108.422
G1 F1500 X122.146 Y105.741 E136.20249
G0 F9000 X122.147 Y105.176
G1 F1500 X124.827 Y107.857 E136.32858
G0 F9000 X124.827 Y107.291
G1 F1500 X122.147 Y104.61 E136.45466
G0 F9000 X122.147 Y104.045
G1 F1500 X124.827 Y106.725 E136.58072
G0 F9000 X124.827 Y106.16
G1 F1500 X122.147 Y103.479 E136.7068
G0 F9000 X122.147 Y102.913
G1 F1500 X124.827 Y105.594 E136.83288
G0 F9000 X124.827 Y105.028
G1 F1500 X122.147 Y102.348 E136.95894
G0 F9000 X122.147 Y101.783
G1 F1500 X124.827 Y104.463 E137.085
G0 F9000 X124.827 Y103.897
G1 F1500 X122.147 Y101.217 E137.21106
G0 F9000 X122.147 Y100.651
G1 F1500 X124.827 Y103.331 E137.33712
G0 F9000 X124.827 Y102.765
G1 F1500 X122.147 Y100.086 E137.46315
G0 F9000 X122.147 Y99.52
G1 F1500 X124.827 Y102.2 E137.58921
G0 F9000 X124.827 Y101.634
G1 F1500 X122.147 Y98.954 E137.71527
G0 F9000 X122.147 Y98.388
G1 F1500 X124.827 Y101.068 E137.84133
G0 F9000 X124.827 Y100.503
G1 F1500 X122.148 Y97.823 E137.96737
G0 F9000 X122.148 Y97.258
G1 F1500 X124.827 Y99.937 E138.09338
G0 F9000 X124.827 Y99.371
G1 F1500 X122.148 Y96.692 E138.21939
G0 F9000 X122.148 Y96.126
G1 F1500 X124.827 Y98.806 E138.34543
G0 F9000 X124.827 Y98.24
G1 F1500 X122.148 Y95.561 E138.47144
G0 F9000 X122.148 Y94.995
G1 F1500 X124.827 Y97.674 E138.59745
G0 F9000 X124.827 Y97.109
G1 F1500 X122.148 Y94.429 E138.72348
G0 F9000 X121.69 Y94.429
G0 X121.446 Y93.967
G0 X120.901 Y93.643
G0 X120.901 Y93.183
G1 F1500 X116.224 Y88.505 E138.9435
G0 F9000 X116.789 Y88.505
G1 F1500 X124.827 Y96.543 E139.32158
G0 F9000 X124.827 Y95.977
G1 F1500 X117.355 Y88.505 E139.67304
G0 F9000 X117.921 Y88.505
G1 F1500 X124.827 Y95.412 E139.9979
G0 F9000 X124.827 Y94.846
G1 F1500 X118.487 Y88.505 E140.29614
G0 F9000 X119.052 Y88.505
G1 F1500 X124.827 Y94.28 E140.56778
G0 F9000 X124.827 Y93.714
G1 F1500 X119.618 Y88.505 E140.81279
G0 F9000 X120.184 Y88.505
G1 F1500 X124.827 Y93.149 E141.03121
G0 F9000 X124.827 Y92.583
G1 F1500 X120.749 Y88.505 E141.22303
G0 F9000 X121.315 Y88.505
G1 F1500 X124.827 Y92.017 E141.38822
G0 F9000 X124.827 Y91.452
G1 F1500 X121.881 Y88.505 E141.52682
G0 F9000 X122.446 Y88.505
G1 F1500 X124.827 Y90.886 E141.63881
G0 F9000 X124.827 Y90.32
G1 F1500 X123.012 Y88.505 E141.72418
G0 F9000 X123.578 Y88.505
G1 F1500 X124.827 Y89.755 E141.78295
G0 F9000 X124.827 Y89.189
G1 F1500 X124.143 Y88.505 E141.81513
G0 F9000 X124.709 Y88.505
G1 F1500 X124.827 Y88.623 E141.82068
G1 F2700 E136.82068
G0 F9000 X125.288 Y88.623
G0 X125.188 Y93.643
G0 X121.729 Y94.086
G0 X120.336 Y93.183
G1 F2700 E141.82068
G1 F1500 X115.658 Y88.505 E142.04072
G0 F9000 X115.092 Y88.505
G1 F1500 X119.77 Y93.183 E142.26076
G0 F9000 X119.205 Y93.183
G1 F1500 X114.527 Y88.505 E142.48079
G0 F9000 X113.961 Y88.505
G1 F1500 X118.639 Y93.183 E142.70083
G0 F9000 X118.074 Y93.184
G1 F1500 X113.395 Y88.505 E142.92092
G0 F9000 X112.83 Y88.505
G1 F1500 X117.509 Y93.184 E143.14101
G0 F9000 X116.943 Y93.184
G1 F1500 X112.264 Y88.505 E143.36109
G0 F9000 X111.698 Y88.505
G1 F1500 X116.378 Y93.185 E143.58122
G0 F9000 X115.812 Y93.185
G1 F1500 X111.133 Y88.505 E143.80133
G0 F9000 X110.567 Y88.505
G1 F1500 X115.247 Y93.185 E144.02147
G0 F9000 X114.682 Y93.186
G1 F1500 X110.001 Y88.505 E144.24165
G0 F9000 X109.436 Y88.505
G1 F1500 X114.116 Y93.186 E144.4618
G0 F9000 X113.551 Y93.186
G1 F1500 X108.87 Y88.505 E144.68198
G0 F9000 X108.304 Y88.505
G1 F1500 X112.985 Y93.186 E144.90216
G0 F9000 X112.42 Y93.186
G1 F1500 X107.739 Y88.505 E145.12234
G0 F9000 X107.173 Y88.505
G1 F1500 X111.855 Y93.187 E145.34257
G0 F9000 X111.289 Y93.187
G1 F1500 X107.147 Y89.045 E145.5374
G0 F9000 X107.147 Y89.611
G1 F1500 X110.742 Y93.205 E145.70647
G0 F9000 X110.352 Y93.381
G1 F1500 X107.147 Y90.177 E145.8572
G0 F9000 X107.147 Y90.743
G1 F1500 X110.061 Y93.656 E145.99424
G0 F9000 X109.869 Y94.03
G1 F1500 X107.147 Y91.308 E146.12228
G0 F9000 X107.147 Y91.874
G1 F1500 X109.824 Y94.551 E146.24819
G0 F9000 X109.824 Y95.117
G1 F1500 X107.147 Y92.44 E146.37411
G0 F9000 X107.147 Y93.005
G1 F1500 X109.824 Y95.682 E146.50003
G0 F9000 X109.824 Y96.248
G1 F1500 X107.147 Y93.571 E146.62595
G0 F9000 X107.147 Y94.137
G1 F1500 X109.824 Y96.814 E146.75187
G0 F9000 X109.824 Y97.379
G1 F1500 X107.147 Y94.702 E146.87778
G0 F9000 X107.147 Y95.268
G1 F1500 X109.824 Y97.945 E147.0037
G0 F9000 X109.824 Y98.511
G1 F1500 X107.147 Y95.834 E147.12962
G0 F9000 X107.147 Y96.399
G1 F1500 X109.824 Y99.076 E147.25554
G0 F9000 X109.824 Y99.642
G1 F1500 X107.147 Y96.965 E147.38146
G0 F9000 X107.147 Y97.531
G1 F1500 X109.824 Y100.208 E147.50737
G0 F9000 X109.824 Y100.774
G1 F1500 X107.147 Y98.096 E147.63331
G0 F9000 X107.147 Y98.662
G1 F1500 X109.824 Y101.339 E147.75923
G0 F9000 X109.824 Y101.905
G1 F1500 X107.147 Y99.228 E147.88515
G0 F9000 X107.147 Y99.793
G1 F1500 X109.824 Y102.471 E148.01109
G0 F9000 X109.824 Y103.036
G1 F1500 X107.147 Y100.359 E148.13701
G0 F9000 X107.147 Y100.925
G1 F1500 X109.824 Y103.602 E148.26293
G0 F9000 X109.824 Y104.168
G1 F1500 X107.148 Y101.491 E148.38882
G0 F9000 X107.148 Y102.057
G1 F1500 X109.824 Y104.733 E148.51469
G0 F9000 X109.824 Y105.299
G1 F1500 X107.148 Y102.623 E148.64056
G0 F9000 X107.148 Y103.188
G1 F1500 X109.824 Y105.865 E148.76646
G0 F9000 X109.824 Y106.43
G1 F1500 X107.148 Y103.754 E148.89233
G0 F9000 X107.148 Y104.32
G1 F1500 X109.824 Y106.996 E149.0182
G0 F9000 X109.824 Y107.562
G1 F1500 X107.148 Y104.885 E149.14409
G0 F9000 X107.148 Y105.451
G1 F1500 X109.824 Y108.127 E149.26996
G0 F9000 X109.824 Y108.693
G1 F1500 X107.148 Y106.017 E149.39584
G0 F9000 X107.148 Y106.582
G1 F1500 X109.824 Y109.259 E149.52173
G0 F9000 X109.824 Y109.824
G1 F1500 X107.148 Y107.148 E149.6476
G0 F9000 X107.148 Y107.714
G1 F1500 X109.824 Y110.39 E149.77347
G0 F9000 X109.824 Y110.956
G1 F1500 X107.148 Y108.279 E149.89937
G0 F9000 X107.148 Y108.845
G1 F1500 X109.824 Y111.522 E150.02526
G0 F9000 X109.824 Y112.087
G1 F1500 X107.148 Y109.411 E150.15113
G0 F9000 X107.148 Y109.977
G1 F1500 X109.824 Y112.653 E150.277
G0 F9000 X109.824 Y113.219
G1 F1500 X107.148 Y110.542 E150.4029
G0 F9000 X107.148 Y111.108
G1 F1500 X109.824 Y113.784 E150.52877
G0 F9000 X109.824 Y114.35
G1 F1500 X107.148 Y111.674 E150.65464
G0 F9000 X107.148 Y112.239
G1 F1500 X109.824 Y114.916 E150.78053
G0 F9000 X109.824 Y115.481
G1 F1500 X107.148 Y112.805 E150.9064
G0 F9000 X107.148 Y113.371
G1 F1500 X109.824 Y116.047 E151.03227
G0 F9000 X109.824 Y116.613
G1 F1500 X107.149 Y113.937 E151.15812
G0 F9000 X107.149 Y114.503
G1 F1500 X109.824 Y117.178 E151.28395
G0 F9000 X109.824 Y117.744
G1 F1500 X107.149 Y115.068 E151.40979
G0 F9000 X107.149 Y115.634
G1 F1500 X109.824 Y118.31 E151.53564
G0 F9000 X109.824 Y118.875
G1 F1500 X107.149 Y116.2 E151.66146
G0 F9000 X107.149 Y116.765
G1 F1500 X109.824 Y119.441 E151.78731
G0 F9000 X109.824 Y120.007
G1 F1500 X107.149 Y117.331 E151.91316
G0 F9000 X107.149 Y117.897
G1 F1500 X109.863 Y120.611 E152.04082
G1 F2700 E147.04082
G0 F9000 X110.302 Y120.498
G0 X110.531 Y120.748
G0 X118.205 Y121.128
G0 X116.485 Y133.06
G0 X118.153 Y146.31
;TYPE:WALL-INNER
G1 F2700 E152.04082
G1 F1500 X123.02 Y143.136 E152.23407
G1 X127.852 Y139.986 E152.42592
G1 X116.718 Y133.419 E152.85586
G1 X118.153 Y146.31 E153.28726
G0 F9000 X117.827 Y147
;TYPE:WALL-OUTER
G1 F1500 X123.238 Y143.471 E153.50212
G1 X128.61 Y139.969 E153.71541
G1 X116.232 Y132.668 E154.19338
G1 X117.827 Y147 E154.67301
G0 F9000 X118.032 Y146.565
G0 X118.188 Y145.718
G0 X118.446 Y145.689
;TYPE:SKIN
G1 F1500 X127.17 Y140.001 E155.0194
G1 X117.159 Y134.098 E155.40594
G1 X117.868 Y140.492 E155.61991
G1 X118.446 Y145.689 E155.79383
G0 F9000 X118.697 Y145.284
G1 F1500 X118.59 Y145.177 E155.79886
G0 F9000 X119.04 Y145.061
G1 F1500 X118.519 Y144.541 E155.82334
G0 F9000 X118.448 Y143.904
G1 F1500 X119.382 Y144.838 E155.86728
G0 F9000 X119.724 Y144.614
G1 F1500 X118.378 Y143.268 E155.93059
G0 F9000 X118.307 Y142.631
G1 F1500 X120.067 Y144.391 E156.01337
G0 F9000 X120.409 Y144.168
G1 F1500 X118.236 Y141.995 E156.11558
G0 F9000 X118.166 Y141.359
G1 F1500 X120.751 Y143.945 E156.2372
G0 F9000 X121.094 Y143.721
G1 F1500 X118.095 Y140.722 E156.37826
G0 F9000 X118.024 Y140.086
G1 F1500 X121.437 Y143.498 E156.53877
G0 F9000 X121.779 Y143.275
G1 F1500 X117.953 Y139.449 E156.71874
G0 F9000 X117.883 Y138.813
G1 F1500 X122.121 Y143.051 E156.91808
G0 F9000 X122.464 Y142.829
G1 F1500 X117.812 Y138.177 E157.1369
G0 F9000 X117.741 Y137.54
G1 F1500 X122.806 Y142.605 E157.37514
G0 F9000 X123.149 Y142.382
G1 F1500 X117.671 Y136.904 E157.63281
G0 F9000 X117.6 Y136.267
G1 F1500 X123.491 Y142.159 E157.90992
G0 F9000 X123.834 Y141.936
G1 F1500 X117.529 Y135.631 E158.20649
G0 F9000 X117.458 Y134.995
G1 F1500 X124.176 Y141.712 E158.52246
G0 F9000 X124.518 Y141.489
G1 F1500 X117.649 Y134.619 E158.84558
G0 F9000 X117.883 Y134.223
G0 X119.261 Y135.036
G0 X119.027 Y135.432
G1 F1500 X124.861 Y141.266 E159.12
G0 F9000 X125.203 Y141.043
G1 F1500 X120.406 Y136.245 E159.34566
G0 F9000 X120.64 Y135.849
G0 X122.017 Y136.662
G0 X121.784 Y137.057
G1 F1500 X125.546 Y140.819 E159.52261
G0 F9000 X125.889 Y140.596
G1 F1500 X123.162 Y137.87 E159.65086
G0 F9000 X123.395 Y137.475
G0 X124.773 Y138.287
G0 X124.54 Y138.682
G1 F1500 X126.231 Y140.373 E159.7304
G0 F9000 X126.573 Y140.149
G1 F1500 X125.919 Y139.495 E159.76116
G1 F2700 E154.76116
;MESH:NONMESH
G0 F300 X125.919 Y139.495 Z0.8
G0 F9000 X126.152 Y139.1
G0 X116.485 Y133.06
G0 X116.485 Y121.128
G0 X121.094 Y120.94
;TIME_ELAPSED:284.499574
;LAYER:3
M106 S255
;TYPE:WALL-INNER
;MESH:LETRA ??.stl
G1 F2700 E159.76116
G1 F1500 X120.99 Y120.948 E159.76463
G1 X110.905 Y120.948 E160.10006
G1 X110.628 Y120.831 E160.11006
G1 X110.507 Y120.711 E160.11572
G1 X110.385 Y120.421 E160.12619
G1 X110.385 Y94.343 E160.99355
G1 X110.417 Y94.146 E161.00018
G1 X110.507 Y93.98 E161.00647
G1 X110.628 Y93.86 E161.01213
G1 X110.909 Y93.743 E161.02226
G1 X121.07 Y93.743 E161.36021
G1 X121.347 Y93.859 E161.3702
G1 X121.468 Y93.98 E161.37589
G1 X121.558 Y94.146 E161.38217
G1 X121.59 Y94.343 E161.38881
G1 X121.59 Y120.421 E162.25617
G1 X121.468 Y120.711 E162.26663
G1 X121.347 Y120.831 E162.2723
G1 X121.094 Y120.94 E162.28146
G0 F9000 X121.15 Y120.469
;TYPE:WALL-OUTER
G1 F1500 X121.025 Y120.546 E162.28635
G1 X110.946 Y120.545 E162.62158
G1 X110.825 Y120.469 E162.62633
G1 X110.787 Y120.383 E162.62946
G1 X110.785 Y94.29 E163.49731
G1 X110.866 Y94.182 E163.5018
G1 X110.95 Y94.145 E163.50486
G1 X121.029 Y94.146 E163.84008
G1 X121.109 Y94.181 E163.84299
G1 X121.19 Y94.291 E163.84753
G1 X121.188 Y120.383 E164.71536
G1 X121.15 Y120.469 E164.71848
G1 F2700 E159.71848
G0 F9000 X121.49 Y120.469
G0 X121.454 Y120.977
G0 X125.188 Y120.977
G0 X125.388 Y126.745
;TYPE:WALL-INNER
G1 F2700 E164.71848
G1 F1500 X125.388 Y90.977 E165.90813
G1 X125.388 Y87.945 E166.00898
G1 X106.588 Y87.945 E166.63427
G1 X106.589 Y126.744 E167.92473
G1 X125.388 Y126.745 E168.54998
G0 F9000 X125.788 Y127.145
;TYPE:WALL-OUTER
G1 F1500 X125.788 Y90.977 E169.75294
G1 X125.788 Y87.545 E169.86708
G1 X106.188 Y87.545 E170.51898
G1 X106.189 Y127.144 E171.83605
G1 X125.788 Y127.145 E172.48792
G0 F9000 X125.518 Y126.875
G0 X125.288 Y126.385
G0 X125.028 Y126.385
;TYPE:SKIN
G1 F1500 X125.028 Y88.305 E173.75446
G1 X106.949 Y88.306 E174.35577
G1 X106.949 Y93.199 E174.51851
G1 X106.95 Y126.383 E175.62222
G1 X125.028 Y126.385 E176.2235
G1 F2700 E171.2235
G0 F9000 X125.288 Y126.385
G0 X125.188 Y121.038
G0 X121.729 Y120.603
G0 X121.131 Y121.306
G1 F2700 E176.2235
G1 F1500 X110.839 Y121.308 E176.56581
G1 X110.412 Y121.125 E176.58126
G1 X110.202 Y120.904 E176.5914
G1 X110.068 Y120.631 E176.60152
G1 X110.027 Y120.381 E176.60994
G1 X110.027 Y94.313 E177.47697
G1 X110.074 Y94.022 E177.48677
G1 X110.236 Y93.742 E177.49753
G1 X110.454 Y93.548 E177.50724
G1 X110.845 Y93.385 E177.52133
G1 X121.138 Y93.383 E177.86367
G1 X121.522 Y93.546 E177.87755
G1 X121.737 Y93.739 E177.88716
G1 X121.901 Y94.022 E177.89804
G1 X121.948 Y94.315 E177.90791
G1 X121.948 Y120.477 E178.77806
G1 X121.765 Y120.927 E178.79421
G1 X121.524 Y121.142 E178.80496
G1 X121.131 Y121.306 E178.81912
G1 F2700 E173.81912
G0 F9000 X121.116 Y121.038
G0 X121.284 Y126.545
G0 X124.414 Y126.183
G1 F2700 E178.81912
G1 F1500 X124.827 Y125.77 E178.83855
G0 F9000 X124.827 Y125.205
G1 F1500 X123.849 Y126.183 E178.88455
G0 F9000 X123.283 Y126.183
G1 F1500 X124.827 Y124.639 E178.95717
G0 F9000 X124.827 Y124.073
G1 F1500 X122.717 Y126.183 E179.05642
G0 F9000 X122.151 Y126.183
G1 F1500 X124.827 Y123.508 E179.18227
G0 F9000 X124.827 Y122.942
G1 F1500 X121.586 Y126.183 E179.33471
G0 F9000 X121.02 Y126.183
G1 F1500 X124.827 Y122.376 E179.51378
G0 F9000 X124.827 Y121.811
G1 F1500 X120.454 Y126.183 E179.71945
G0 F9000 X119.889 Y126.183
G1 F1500 X124.827 Y121.245 E179.95172
G0 F9000 X124.827 Y120.679
G1 F1500 X119.323 Y126.183 E180.21061
G0 F9000 X118.757 Y126.183
G1 F1500 X124.827 Y120.114 E180.4961
G0 F9000 X124.827 Y119.548
G1 F1500 X118.192 Y126.183 E180.80819
G0 F9000 X117.626 Y126.183
G1 F1500 X124.827 Y118.982 E181.14691
G0 F9000 X124.827 Y118.417
G1 F1500 X117.06 Y126.183 E181.51222
G0 F9000 X116.495 Y126.183
G1 F1500 X121.176 Y121.502 E181.7324
G0 F9000 X120.611 Y121.502
G1 F1500 X115.93 Y126.183 E181.95258
G0 F9000 X115.364 Y126.183
G1 F1500 X120.045 Y121.502 E182.17276
G0 F9000 X119.479 Y121.502
G1 F1500 X114.798 Y126.183 E182.39294
G0 F9000 X114.233 Y126.183
G1 F1500 X118.913 Y121.502 E182.6131
G0 F9000 X118.347 Y121.503
G1 F1500 X113.667 Y126.183 E182.83323
G0 F9000 X113.101 Y126.183
G1 F1500 X117.781 Y121.503 E183.05336
G0 F9000 X117.214 Y121.504
G1 F1500 X112.536 Y126.183 E183.27342
G0 F9000 X111.97 Y126.183
G1 F1500 X116.649 Y121.504 E183.49351
G0 F9000 X116.083 Y121.504
G1 F1500 X111.404 Y126.183 E183.71359
G0 F9000 X110.838 Y126.183
G1 F1500 X115.517 Y121.504 E183.93368
G0 F9000 X114.951 Y121.504
G1 F1500 X110.273 Y126.183 E184.15374
G0 F9000 X109.707 Y126.183
G1 F1500 X114.385 Y121.505 E184.37378
G0 F9000 X113.819 Y121.505
G1 F1500 X109.141 Y126.183 E184.59382
G0 F9000 X108.576 Y126.183
G1 F1500 X113.253 Y121.506 E184.81381
G0 F9000 X112.687 Y121.506
G1 F1500 X108.01 Y126.183 E185.0338
G0 F9000 X107.444 Y126.183
G1 F1500 X112.121 Y121.506 E185.2538
G0 F9000 X111.555 Y121.507
G1 F1500 X107.15 Y125.912 E185.46099
G0 F9000 X107.15 Y125.346
G1 F1500 X110.989 Y121.507 E185.64157
G0 F9000 X110.535 Y121.395
G1 F1500 X107.15 Y124.781 E185.80081
G0 F9000 X107.15 Y124.215
G1 F1500 X110.191 Y121.173 E185.94387
G0 F9000 X109.95 Y120.849
G1 F1500 X107.15 Y123.649 E186.07558
G0 F9000 X107.15 Y123.083
G1 F1500 X109.832 Y120.401 E186.20173
G0 F9000 X109.824 Y119.843
G1 F1500 X107.15 Y122.518 E186.32753
G0 F9000 X107.15 Y121.952
G1 F1500 X109.824 Y119.278 E186.45331
G0 F9000 X109.824 Y118.712
G1 F1500 X107.15 Y121.386 E186.57908
G0 F9000 X107.15 Y120.821
G1 F1500 X109.824 Y118.146 E186.70489
G0 F9000 X109.824 Y117.581
G1 F1500 X107.15 Y120.255 E186.83066
G0 F9000 X107.15 Y119.689
G1 F1500 X109.824 Y117.015 E186.95644
G0 F9000 X109.824 Y116.449
G1 F1500 X107.15 Y119.124 E187.08224
G0 F9000 X107.15 Y118.558
G1 F1500 X109.824 Y115.884 E187.20802
G0 F9000 X109.824 Y115.318
G1 F1500 X107.15 Y117.992 E187.33379
G0 F9000 X107.15 Y117.427
G1 F1500 X109.824 Y114.752 E187.45959
G0 F9000 X109.824 Y114.187
G1 F1500 X107.15 Y116.861 E187.58537
G0 F9000 X107.15 Y116.295
G1 F1500 X109.824 Y113.621 E187.71115
G0 F9000 X109.824 Y113.055
G1 F1500 X107.15 Y115.73 E187.83695
G0 F9000 X107.15 Y115.164
G1 F1500 X109.824 Y112.49 E187.96272
G0 F9000 X109.824 Y111.924
G1 F1500 X107.15 Y114.598 E188.0885
G0 F9000 X107.15 Y114.032
G1 F1500 X109.824 Y111.358 E188.21428
G0 F9000 X109.824 Y110.793
G1 F1500 X107.149 Y113.468 E188.3401
G0 F9000 X107.149 Y112.902
G1 F1500 X109.824 Y110.227 E188.46592
G0 F9000 X109.824 Y109.661
G1 F1500 X107.149 Y112.336 E188.59175
G0 F9000 X107.149 Y111.77
G1 F1500 X109.824 Y109.095 E188.71757
G0 F9000 X109.824 Y108.53
G1 F1500 X107.149 Y111.205 E188.8434
G0 F9000 X107.149 Y110.639
G1 F1500 X109.824 Y107.964 E188.96922
G0 F9000 X109.824 Y107.398
G1 F1500 X107.149 Y110.073 E189.09504
G0 F9000 X107.149 Y109.508
G1 F1500 X109.824 Y106.833 E189.22087
G0 F9000 X109.824 Y106.267
G1 F1500 X107.149 Y108.942 E189.34669
G0 F9000 X107.149 Y108.376
G1 F1500 X109.824 Y105.701 E189.47251
G0 F9000 X109.824 Y105.136
G1 F1500 X107.149 Y107.811 E189.59834
G0 F9000 X107.149 Y107.245
G1 F1500 X109.824 Y104.57 E189.72416
G0 F9000 X109.824 Y104.004
G1 F1500 X107.149 Y106.679 E189.84999
G0 F9000 X107.149 Y106.114
G1 F1500 X109.824 Y103.439 E189.97581
G0 F9000 X109.824 Y102.873
G1 F1500 X107.149 Y105.548 E190.10163
G0 F9000 X107.149 Y104.982
G1 F1500 X109.824 Y102.307 E190.22746
G0 F9000 X109.824 Y101.742
G1 F1500 X107.149 Y104.417 E190.35328
G0 F9000 X107.149 Y103.851
G1 F1500 X109.824 Y101.176 E190.47911
G0 F9000 X109.824 Y100.61
G1 F1500 X107.149 Y103.285 E190.60493
G0 F9000 X107.149 Y102.719
G1 F1500 X109.824 Y100.045 E190.73073
G0 F9000 X109.824 Y99.479
G1 F1500 X107.149 Y102.154 E190.85655
G0 F9000 X107.149 Y101.588
G1 F1500 X109.824 Y98.913 E190.98238
G0 F9000 X109.824 Y98.347
G1 F1500 X107.148 Y101.023 E191.10825
G0 F9000 X107.148 Y100.457
G1 F1500 X109.824 Y97.782 E191.2341
G0 F9000 X109.824 Y97.216
G1 F1500 X107.148 Y99.892 E191.35997
G0 F9000 X107.148 Y99.326
G1 F1500 X109.824 Y96.65 E191.48584
G0 F9000 X109.824 Y96.085
G1 F1500 X107.148 Y98.76 E191.61168
G0 F9000 X107.148 Y98.195
G1 F1500 X109.824 Y95.519 E191.73755
G0 F9000 X109.824 Y94.953
G1 F1500 X107.148 Y97.629 E191.86343
G0 F9000 X107.148 Y97.063
G1 F1500 X109.824 Y94.388 E191.98927
G0 F9000 X110.285 Y94.388
G0 X110.529 Y93.963
G0 X111.024 Y93.643
G0 X111.024 Y93.188
G1 F1500 X115.707 Y88.505 E192.20955
G0 F9000 X116.273 Y88.505
G1 F1500 X111.589 Y93.188 E192.42984
G0 F9000 X112.155 Y93.188
G1 F1500 X116.838 Y88.505 E192.65012
G0 F9000 X117.404 Y88.505
G1 F1500 X112.722 Y93.187 E192.87035
G0 F9000 X113.287 Y93.187
G1 F1500 X117.97 Y88.505 E193.0906
G0 F9000 X118.535 Y88.505
G1 F1500 X113.854 Y93.186 E193.31078
G0 F9000 X114.419 Y93.186
G1 F1500 X119.101 Y88.505 E193.53098
G0 F9000 X119.667 Y88.505
G1 F1500 X114.985 Y93.186 E193.75118
G0 F9000 X115.551 Y93.186
G1 F1500 X120.232 Y88.505 E193.97136
G0 F9000 X120.798 Y88.505
G1 F1500 X116.117 Y93.186 E194.19154
G0 F9000 X116.683 Y93.186
G1 F1500 X121.364 Y88.505 E194.41172
G0 F9000 X121.929 Y88.505
G1 F1500 X117.249 Y93.185 E194.63186
G0 F9000 X117.815 Y93.185
G1 F1500 X122.495 Y88.505 E194.85199
G0 F9000 X123.061 Y88.505
G1 F1500 X118.381 Y93.184 E195.0721
G0 F9000 X118.947 Y93.184
G1 F1500 X123.627 Y88.505 E195.29221
G0 F9000 X124.192 Y88.505
G1 F1500 X119.513 Y93.184 E195.51229
G0 F9000 X120.079 Y93.183
G1 F1500 X124.758 Y88.505 E195.73235
G0 F9000 X124.827 Y89.001
G1 F1500 X120.645 Y93.183 E195.92906
G0 F9000 X121.2 Y93.193
G1 F1500 X124.827 Y89.567 E196.09964
G0 F9000 X124.827 Y90.132
G1 F1500 X121.598 Y93.362 E196.25155
G0 F9000 X121.896 Y93.629
G1 F1500 X124.827 Y90.698 E196.38941
G0 F9000 X124.827 Y91.264
G1 F1500 X122.098 Y93.993 E196.51778
G0 F9000 X122.149 Y94.508
G1 F1500 X124.827 Y91.829 E196.64377
G0 F9000 X124.827 Y92.395
G1 F1500 X122.149 Y95.074 E196.76975
G0 F9000 X122.149 Y95.639
G1 F1500 X124.827 Y92.961 E196.89572
G0 F9000 X124.827 Y93.526
G1 F1500 X122.149 Y96.205 E197.02171
G0 F9000 X122.149 Y96.771
G1 F1500 X124.827 Y94.092 E197.1477
G0 F9000 X124.827 Y94.658
G1 F1500 X122.149 Y97.336 E197.27366
G0 F9000 X122.149 Y97.902
G1 F1500 X124.827 Y95.223 E197.39965
G0 F9000 X124.827 Y95.789
G1 F1500 X122.148 Y98.468 E197.52566
G0 F9000 X122.148 Y99.034
G1 F1500 X124.827 Y96.355 E197.65167
G0 F9000 X124.827 Y96.921
G1 F1500 X122.148 Y99.6 E197.77769
G0 F9000 X122.148 Y100.165
G1 F1500 X124.827 Y97.486 E197.9037
G0 F9000 X124.827 Y98.052
G1 F1500 X122.148 Y100.731 E198.02971
G0 F9000 X122.148 Y101.297
G1 F1500 X124.827 Y98.618 E198.15572
G0 F9000 X124.827 Y99.183
G1 F1500 X122.147 Y101.863 E198.28178
G0 F9000 X122.147 Y102.429
G1 F1500 X124.827 Y99.749 E198.40784
G0 F9000 X124.827 Y100.315
G1 F1500 X122.147 Y102.995 E198.5339
G0 F9000 X122.147 Y103.56
G1 F1500 X124.827 Y100.88 E198.65996
G0 F9000 X124.827 Y101.446
G1 F1500 X122.147 Y104.126 E198.78602
G0 F9000 X122.147 Y104.692
G1 F1500 X124.827 Y102.012 E198.91207
G0 F9000 X124.827 Y102.577
G1 F1500 X122.147 Y105.257 E199.03813
G0 F9000 X122.147 Y105.824
G1 F1500 X124.827 Y103.143 E199.16422
G0 F9000 X124.827 Y103.709
G1 F1500 X122.147 Y106.389 E199.29028
G0 F9000 X122.147 Y106.955
G1 F1500 X124.827 Y104.274 E199.41636
G0 F9000 X124.827 Y104.84
G1 F1500 X122.147 Y107.521 E199.54244
G0 F9000 X122.147 Y108.086
G1 F1500 X124.827 Y105.406 E199.6685
G0 F9000 X124.827 Y105.971
G1 F1500 X122.147 Y108.652 E199.79458
G0 F9000 X122.147 Y109.218
G1 F1500 X124.827 Y106.537 E199.92066
G0 F9000 X124.827 Y107.103
G1 F1500 X122.146 Y109.784 E200.04677
G0 F9000 X122.146 Y110.35
G1 F1500 X124.827 Y107.669 E200.17288
G0 F9000 X124.827 Y108.234
G1 F1500 X122.146 Y110.916 E200.29901
G0 F9000 X122.146 Y111.481
G1 F1500 X124.827 Y108.8 E200.42511
G0 F9000 X124.827 Y109.366
G1 F1500 X122.146 Y112.047 E200.55122
G0 F9000 X122.146 Y112.613
G1 F1500 X124.827 Y109.931 E200.67735
G0 F9000 X124.827 Y110.497
G1 F1500 X122.145 Y113.179 E200.8035
G0 F9000 X122.145 Y113.745
G1 F1500 X124.827 Y111.063 E200.92965
G0 F9000 X124.827 Y111.628
G1 F1500 X122.145 Y114.31 E201.05581
G0 F9000 X122.145 Y114.876
G1 F1500 X124.827 Y112.194 E201.18196
G0 F9000 X124.827 Y112.76
G1 F1500 X122.145 Y115.442 E201.30811
G0 F9000 X122.145 Y116.007
G1 F1500 X124.827 Y113.325 E201.43427
G0 F9000 X124.827 Y113.891
G1 F1500 X122.145 Y116.573 E201.56042
G0 F9000 X122.144 Y117.14
G1 F1500 X124.827 Y114.457 E201.68662
G0 F9000 X124.827 Y115.022
G1 F1500 X122.144 Y117.705 E201.81282
G0 F9000 X122.144 Y118.271
G1 F1500 X124.827 Y115.588 E201.93902
G0 F9000 X124.827 Y116.154
G1 F1500 X122.144 Y118.837 E202.06522
G0 F9000 X122.144 Y119.402
G1 F1500 X124.827 Y116.719 E202.19142
G0 F9000 X124.827 Y117.285
G1 F1500 X122.144 Y119.968 E202.31762
G0 F9000 X122.144 Y120.534
G1 F1500 X124.827 Y117.851 E202.44382
G1 F2700 E197.44382
G0 F9000 X125.288 Y117.851
G0 X125.216 Y88.117
G0 X106.76 Y88.117
G0 X106.689 Y96.498
G1 F2700 E202.44382
G0 F9000 X107.148 Y96.498
G1 F1500 X115.141 Y88.505 E202.81979
G0 F9000 X114.576 Y88.505
G1 F1500 X107.148 Y95.932 E203.16915
G0 F9000 X107.148 Y95.366
G1 F1500 X114.01 Y88.505 E203.4919
G0 F9000 X113.444 Y88.505
G1 F1500 X107.148 Y94.801 E203.78804
G0 F9000 X107.148 Y94.235
G1 F1500 X112.878 Y88.505 E204.05756
G0 F9000 X112.313 Y88.505
G1 F1500 X107.148 Y93.669 E204.30049
G0 F9000 X107.148 Y93.104
G1 F1500 X111.747 Y88.505 E204.51681
G0 F9000 X111.181 Y88.505
G1 F1500 X107.148 Y92.538 E204.70651
G0 F9000 X107.148 Y91.972
G1 F1500 X110.616 Y88.505 E204.86961
G0 F9000 X110.05 Y88.505
G1 F1500 X107.148 Y91.406 E205.00609
G0 F9000 X107.148 Y90.841
G1 F1500 X109.484 Y88.505 E205.11596
G0 F9000 X108.919 Y88.505
G1 F1500 X107.148 Y90.275 E205.19924
G0 F9000 X107.148 Y89.709
G1 F1500 X108.353 Y88.505 E205.2559
G0 F9000 X107.787 Y88.505
G1 F1500 X107.148 Y89.144 E205.28596
G0 F9000 X107.148 Y88.578
G1 F1500 X107.222 Y88.505 E205.28941
G1 F2700 E200.28941
G0 F9000 X107.222 Y88.045
G0 X106.76 Y88.117
G0 X106.761 Y126.572
G0 X118.205 Y126.925
G0 X118.205 Y128.01
G0 X117.03 Y132.135
G0 X118.153 Y146.31
;TYPE:WALL-INNER
G1 F2700 E205.28941
G1 F1500 X123.02 Y143.136 E205.48267
G1 X127.852 Y139.986 E205.67452
G1 X116.718 Y133.419 E206.10445
G1 X118.153 Y146.31 E206.53586
G0 F9000 X117.827 Y147
;TYPE:WALL-OUTER
G1 F1500 X123.238 Y143.471 E206.75072
G1 X128.61 Y139.969 E206.96401
G1 X116.232 Y132.668 E207.44198
G1 X117.827 Y147 E207.92161
G0 F9000 X118.032 Y146.565
G0 X118.188 Y145.718
G0 X118.446 Y145.689
;TYPE:SKIN
G1 F1500 X122.824 Y142.834 E208.09545
G1 X127.17 Y140.001 E208.26799
G1 X117.159 Y134.098 E208.65454
G1 X118.446 Y145.689 E209.04242
G0 F9000 X118.188 Y145.718
G0 X118.299 Y146.001
G0 X127.512 Y139.995
G0 X126.795 Y139.48
G0 X126.562 Y139.874
G1 F1500 X125.75 Y140.687 E209.08064
G0 F9000 X126.001 Y141.073
G0 X127.512 Y139.995
G0 X126.439 Y139.27
G0 X126.207 Y139.664
G1 F1500 X124.125 Y141.746 E209.17857
G0 F9000 X124.376 Y142.132
G0 X122.75 Y143.192
G0 X122.499 Y142.806
G1 F1500 X125.851 Y139.454 E209.33624
G0 F9000 X125.495 Y139.244
G1 F1500 X120.874 Y143.865 E209.5536
G0 F9000 X121.125 Y144.251
G0 X119.501 Y145.311
G0 X119.25 Y144.925
G1 F1500 X125.139 Y139.035 E209.83062
G0 F9000 X124.783 Y138.825
G1 F1500 X118.574 Y145.034 E210.12267
G0 F9000 X118.518 Y144.525
G1 F1500 X124.428 Y138.615 E210.40066
G0 F9000 X124.071 Y138.406
G1 F1500 X118.461 Y144.016 E210.66454
G0 F9000 X118.405 Y143.507
G1 F1500 X123.716 Y138.196 E210.91435
G0 F9000 X123.36 Y137.986
G1 F1500 X118.348 Y142.998 E211.1501
G0 F9000 X118.291 Y142.489
G1 F1500 X123.004 Y137.776 E211.37179
G0 F9000 X122.648 Y137.566
G1 F1500 X118.235 Y141.979 E211.57936
G0 F9000 X118.178 Y141.47
G1 F1500 X122.292 Y137.356 E211.77287
G0 F9000 X121.937 Y137.146
G1 F1500 X118.122 Y140.961 E211.95232
G0 F9000 X118.065 Y140.452
G1 F1500 X121.581 Y136.936 E212.1177
G0 F9000 X121.224 Y136.727
G1 F1500 X118.009 Y139.943 E212.26895
G0 F9000 X117.952 Y139.434
G1 F1500 X120.869 Y136.517 E212.40615
G0 F9000 X120.513 Y136.307
G1 F1500 X117.895 Y138.925 E212.5293
G0 F9000 X117.839 Y138.416
G1 F1500 X120.157 Y136.098 E212.63833
G0 F9000 X119.801 Y135.888
G1 F1500 X117.782 Y137.907 E212.73329
G0 F9000 X117.726 Y137.397
G1 F1500 X119.445 Y135.678 E212.81415
G0 F9000 X119.09 Y135.468
G1 F1500 X117.669 Y136.888 E212.88097
G0 F9000 X117.613 Y136.379
G1 F1500 X118.733 Y135.258 E212.93367
G0 F9000 X118.378 Y135.048
G1 F1500 X117.556 Y135.87 E212.97234
G0 F9000 X117.499 Y135.361
G1 F1500 X118.022 Y134.838 E212.99694
G0 F9000 X117.666 Y134.629
G1 F1500 X117.443 Y134.852 E213.00743
G1 F2700 E208.00743
;MESH:NONMESH
G0 F300 X117.443 Y134.852 Z1
G0 F9000 X116.984 Y134.904
G0 X116.485 Y133.06
G0 X116.485 Y121.128
G0 X121.067 Y120.948
;TIME_ELAPSED:372.236439
;LAYER:4
;TYPE:WALL-INNER
;MESH:LETRA ??.stl
G1 F2700 E213.00743
G1 F1500 X110.905 Y120.948 E213.34542
G1 X110.628 Y120.831 E213.35542
G1 X110.507 Y120.711 E213.36108
G1 X110.385 Y120.421 E213.37155
G1 X110.385 Y94.343 E214.23891
G1 X110.417 Y94.146 E214.24554
G1 X110.507 Y93.98 E214.25183
G1 X110.628 Y93.86 E214.25749
G1 X110.909 Y93.743 E214.26762
G1 X121.07 Y93.743 E214.60557
G1 X121.347 Y93.859 E214.61556
G1 X121.468 Y93.98 E214.62125
G1 X121.558 Y94.146 E214.62753
G1 X121.59 Y94.343 E214.63417
G1 X121.59 Y120.421 E215.50153
G1 X121.468 Y120.711 E215.51199
G1 X121.347 Y120.831 E215.51766
G1 X121.067 Y120.948 E215.52775
G0 F9000 X121.15 Y120.469
;TYPE:WALL-OUTER
G1 F1500 X121.025 Y120.546 E215.53264
G1 X110.946 Y120.545 E215.86787
G1 X110.825 Y120.469 E215.87262
G1 X110.787 Y120.383 E215.87575
G1 X110.785 Y94.29 E216.7436
G1 X110.866 Y94.182 E216.74809
G1 X110.95 Y94.145 E216.75115
G1 X121.029 Y94.146 E217.08637
G1 X121.109 Y94.181 E217.08928
G1 X121.19 Y94.291 E217.09382
G1 X121.188 Y120.383 E217.96165
G1 X121.15 Y120.469 E217.96477
G0 F9000 X121.89 Y120.469
G0 X125.118 Y126.475
G0 X125.388 Y126.745
;TYPE:WALL-INNER
G1 F1500 X125.388 Y90.977 E219.15442
G1 X125.388 Y87.945 E219.25527
G1 X106.588 Y87.945 E219.88056
G1 X106.589 Y126.744 E221.17102
G1 X125.388 Y126.745 E221.79627
G0 F9000 X125.788 Y127.145
;TYPE:WALL-OUTER
G1 F1500 X125.788 Y90.977 E222.99923
G1 X125.788 Y87.545 E223.11338
G1 X106.188 Y87.545 E223.76527
G1 X106.189 Y127.144 E225.08234
G1 X125.788 Y127.145 E225.73421
G0 F9000 X125.518 Y126.875
G0 X125.088 Y124.165
G0 X125.307 Y124.165
;TYPE:FILL
G1 F3000 X121.64 Y120.497 E225.90672
G0 F9000 X121.89 Y120.497
G0 X121.89 Y116.955
G0 X121.67 Y116.955
G1 F3000 X125.306 Y115.981 E226.03191
G0 F9000 X125.307 Y115.679
G1 F3000 X121.669 Y112.041 E226.20303
G0 F9000 X121.89 Y112.041
G0 X121.89 Y110.743
G0 X121.67 Y110.743
G1 F3000 X125.306 Y109.769 E226.32823
G0 F9000 X125.088 Y109.769
G0 X125.088 Y108.609
G0 X125.307 Y108.609
G1 F3000 X120.469 Y126.664 E226.94993
G0 F9000 X120.469 Y126.445
G0 X119.32 Y126.445
G0 X119.32 Y126.663
G1 F3000 X113.685 Y121.027 E227.21501
G0 F9000 X113.685 Y121.248
G0 X115.768 Y121.248
G0 X115.768 Y121.027
G1 F3000 X114.258 Y126.664 E227.4091
G0 F9000 X114.258 Y126.445
G0 X110.835 Y126.445
G0 X110.835 Y126.663
G1 F3000 X106.668 Y122.496 E227.60511
G0 F9000 X106.888 Y122.496
G0 X106.888 Y120.975
G0 X106.668 Y120.975
G1 F3000 X110.304 Y120.001 E227.7303
G0 F9000 X110.085 Y120.001
G0 X110.085 Y118.236
G0 X110.304 Y118.236
G1 F3000 X108.046 Y126.664 E228.02051
G0 F9000 X108.622 Y126.663
G1 F3000 X125.306 Y122.192 E228.595
G0 F9000 X125.088 Y122.192
G0 X125.088 Y107.194
G0 X125.307 Y107.194
G1 F3000 X121.669 Y103.555 E228.76614
G0 F9000 X121.669 Y104.532
G1 F3000 X125.306 Y103.557 E228.89138
G0 F9000 X125.088 Y103.557
G0 X125.088 Y98.709
G0 X125.307 Y98.709
G1 F3000 X121.669 Y95.07 E229.06252
G0 F9000 X121.89 Y95.07
G0 X121.818 Y93.515
G0 X120.261 Y93.443
G0 X120.261 Y93.662
G1 F3000 X114.623 Y88.024 E229.32772
G0 F9000 X113.73 Y88.024
G1 F3000 X106.667 Y89.917 E229.57093
G0 F9000 X106.888 Y89.917
G0 X106.888 Y88.553
G0 X106.667 Y88.553
G1 F3000 X111.775 Y93.662 E229.81121
G0 F9000 X111.775 Y93.443
G0 X110.649 Y93.443
G0 X110.649 Y93.768
G1 F3000 X112.188 Y88.023 E230.00903
G0 F9000 X112.188 Y88.245
G0 X118.4 Y88.245
G0 X118.4 Y88.023
G1 F3000 X116.889 Y93.662 E230.2032
G0 F9000 X116.889 Y93.443
G0 X115.871 Y93.443
G0 X115.871 Y93.662
G1 F3000 X125.307 Y91.134 E230.52811
G0 F9000 X125.307 Y90.223
G1 F3000 X123.108 Y88.024 E230.63155
G0 F9000 X123.108 Y88.245
G0 X124.611 Y88.245
G0 X124.611 Y88.024
G1 F3000 X121.669 Y99.003 E231.00959
G0 F9000 X121.67 Y98.32
G1 F3000 X125.306 Y97.346 E231.13479
G0 F9000 X125.088 Y97.346
G0 X121.818 Y93.515
G0 X110.157 Y93.515
G0 X110.085 Y95.154
G0 X110.303 Y95.154
G1 F3000 X106.667 Y96.128 E231.25999
G0 F9000 X106.667 Y97.039
G1 F3000 X110.304 Y100.676 E231.43106
G0 F9000 X110.304 Y101.366
G1 F3000 X106.668 Y102.34 E231.55626
G0 F9000 X106.888 Y102.34
G0 X106.888 Y105.525
G0 X106.667 Y105.525
G1 F3000 X110.304 Y109.161 E231.72731
G0 F9000 X110.085 Y109.161
G0 X110.085 Y107.577
G0 X110.303 Y107.577
G1 F3000 X106.667 Y108.552 E231.85251
G1 X106.668 Y108.626
G1 X110.304 Y95.053 E232.31987
G0 F9000 X110.085 Y95.053
G0 X110.085 Y113.789
G0 X110.303 Y113.789
G1 F3000 X106.668 Y114.763 E232.44504
G0 F9000 X106.668 Y114.011
G1 F3000 X110.304 Y117.647 E232.61606
G0 F9000 X109.785 Y117.647
G1 F2700 E227.61606
G0 F9000 X110.557 Y120.776
G0 X118.357 Y126.925
G0 X118.357 Y128.01
G0 X117.03 Y132.135
G0 X116.485 Y133.06
G0 X118.357 Y145.875
G1 F2700 E232.61606
G0 F9000 X118.153 Y146.31
;TYPE:WALL-INNER
G1 F1500 X123.02 Y143.136 E232.80932
G1 X127.852 Y139.986 E233.00117
G1 X116.718 Y133.419 E233.4311
G1 X118.153 Y146.31 E233.86251
G0 F9000 X117.827 Y147
;TYPE:WALL-OUTER
G1 F1500 X123.238 Y143.471 E234.07737
G1 X128.61 Y139.969 E234.29066
G1 X116.232 Y132.668 E234.76863
G1 X117.827 Y147 E235.24826
G0 F9000 X118.032 Y146.565
G0 X120.302 Y144.551
G0 X120.42 Y144.734
;TYPE:FILL
G1 F3000 X117.761 Y142.074 E235.37335
G0 F9000 X117.845 Y142.826
G1 F3000 X127.187 Y140.323 E235.69503
G0 F9000 X127.068 Y140.14
G0 X125.439 Y141.202
G0 X125.558 Y141.386
G1 F3000 X119.071 Y134.899 E236.00016
G0 F9000 X118.373 Y134.487
G1 F3000 X117.344 Y138.327 E236.13238
G0 F9000 X117.563 Y138.303
G0 X117.392 Y136.771
G0 X117.174 Y136.795
G1 F3000 X120.688 Y135.853 E236.25338
G0 F9000 X120.576 Y136.042
G0 X123.625 Y137.841
G0 X123.737 Y137.651
G1 F3000 X122.139 Y143.614 E236.45871
G0 F9000 X121.856 Y143.179
G1 F2700 E231.45871
;MESH:NONMESH
G0 F300 X121.856 Y143.179 Z1.2
G0 F9000 X116.485 Y133.06
G0 X117.03 Y132.135
G0 X116.485 Y128.01
G0 X116.485 Y126.925
G0 X121.094 Y121.248
G1 F2700 E236.45871
G0 F9000 X121.094 Y120.94
;TIME_ELAPSED:407.498722
;LAYER:5
;TYPE:WALL-INNER
;MESH:LETRA ??.stl
G1 F1500 X120.99 Y120.948 E236.46218
G1 X110.905 Y120.948 E236.79761
G1 X110.628 Y120.831 E236.80761
G1 X110.507 Y120.711 E236.81328
G1 X110.385 Y120.421 E236.82374
G1 X110.385 Y94.343 E237.6911
G1 X110.417 Y94.146 E237.69774
G1 X110.507 Y93.98 E237.70402
G1 X110.628 Y93.86 E237.70969
G1 X110.909 Y93.743 E237.71981
G1 X121.07 Y93.743 E238.05777
G1 X121.347 Y93.859 E238.06776
G1 X121.468 Y93.98 E238.07345
G1 X121.558 Y94.146 E238.07973
G1 X121.59 Y94.343 E238.08637
G1 X121.59 Y120.421 E238.95372
G1 X121.468 Y120.711 E238.96419
G1 X121.347 Y120.831 E238.96986
G1 X121.094 Y120.94 E238.97902
G0 F9000 X121.15 Y120.469
;TYPE:WALL-OUTER
G1 F1500 X121.025 Y120.546 E238.9839
G1 X110.946 Y120.545 E239.31913
G1 X110.825 Y120.469 E239.32388
G1 X110.787 Y120.383 E239.32701
G1 X110.785 Y94.29 E240.19487
G1 X110.866 Y94.182 E240.19936
G1 X110.95 Y94.145 E240.20241
G1 X121.029 Y94.146 E240.53764
G1 X121.109 Y94.181 E240.54054
G1 X121.19 Y94.291 E240.54509
G1 X121.188 Y120.383 E241.41291
G1 X121.15 Y120.469 E241.41604
G0 F9000 X121.89 Y120.469
G0 X125.118 Y126.475
G0 X125.388 Y126.745
;TYPE:WALL-INNER
G1 F1500 X125.388 Y90.977 E242.60569
G1 X125.388 Y87.945 E242.70653
G1 X106.588 Y87.945 E243.33182
G1 X106.589 Y126.744 E244.62228
G1 X125.388 Y126.745 E245.24754
G0 F9000 X125.788 Y127.145
;TYPE:WALL-OUTER
G1 F1500 X125.788 Y90.977 E246.45049
G1 X125.788 Y87.545 E246.56464
G1 X106.188 Y87.545 E247.21654
G1 X106.189 Y127.144 E248.53361
G1 X125.788 Y127.145 E249.18547
G0 F9000 X125.518 Y126.875
G0 X125.088 Y123.965
G0 X125.307 Y123.965
;TYPE:FILL
G1 F3000 X121.669 Y120.326 E249.35662
G0 F9000 X121.89 Y120.326
G0 X121.89 Y117.101
G0 X121.669 Y117.101
G1 F3000 X125.306 Y116.127 E249.48185
G0 F9000 X125.307 Y115.48
G1 F3000 X121.669 Y111.841 E249.65299
G0 F9000 X121.67 Y110.889
G1 F3000 X125.306 Y109.915 E249.77819
G0 F9000 X125.088 Y109.915
G0 X125.088 Y108.065
G0 X125.307 Y108.065
G1 F3000 X120.323 Y126.664 E250.41862
G0 F9000 X119.52 Y126.663
G1 F3000 X113.884 Y121.027 E250.68372
G0 F9000 X113.884 Y121.248
G0 X115.622 Y121.248
G0 X115.622 Y121.027
G1 F3000 X114.112 Y126.664 E250.87782
G0 F9000 X114.112 Y126.445
G0 X111.034 Y126.445
G0 X111.034 Y126.663
G1 F3000 X106.668 Y122.296 E251.0832
G0 F9000 X106.888 Y122.296
G0 X106.888 Y121.121
G0 X106.669 Y121.121
G1 F3000 X110.303 Y120.147 E251.20834
G0 F9000 X110.085 Y120.147
G0 X110.085 Y117.691
G0 X110.304 Y117.691
G1 F3000 X107.9 Y126.664 E251.51731
G0 F9000 X107.9 Y126.445
G0 X109.166 Y126.445
G0 X109.166 Y126.663
G1 F3000 X125.306 Y122.338 E252.07306
G0 F9000 X125.088 Y122.338
G0 X125.088 Y106.995
G0 X125.307 Y106.995
G1 F3000 X121.669 Y103.356 E252.24421
G0 F9000 X121.89 Y103.356
G0 X121.89 Y104.678
G0 X121.669 Y104.678
G1 F3000 X125.306 Y103.703 E252.36945
G0 F9000 X125.088 Y103.703
G0 X125.088 Y98.509
G0 X125.307 Y98.509
G1 F3000 X121.669 Y94.871 E252.54057
G0 F9000 X121.89 Y94.871
G0 X121.818 Y93.515
G0 X120.46 Y93.443
G0 X120.46 Y93.662
G1 F3000 X114.822 Y88.024 E252.80576
G0 F9000 X114.276 Y88.024
G1 F3000 X106.667 Y90.063 E253.06777
G0 F9000 X106.888 Y90.063
G0 X106.888 Y88.354
G0 X106.667 Y88.354
G1 F3000 X111.975 Y93.662 E253.31744
G0 F9000 X111.975 Y93.443
G0 X110.157 Y93.515
G0 X110.085 Y93.913
G0 X110.464 Y93.913
G1 F3000 X112.042 Y88.023 E253.52025
G0 F9000 X112.042 Y88.245
G0 X118.254 Y88.245
G0 X118.254 Y88.023
G1 F3000 X116.743 Y93.662 E253.71442
G0 F9000 X116.416 Y93.662
G1 F3000 X125.306 Y91.28 E254.02053
G0 F9000 X125.088 Y91.28
G0 X125.088 Y90.024
G0 X125.307 Y90.024
G1 F3000 X123.308 Y88.024 E254.11458
G0 F9000 X123.308 Y88.245
G0 X124.465 Y88.245
G0 X124.465 Y88.023
G1 F3000 X121.669 Y98.459 E254.47393
G1 X121.669 Y98.466
G1 X125.306 Y97.492 E254.59916
G0 F9000 X125.088 Y97.492
G0 X121.818 Y93.515
G0 X110.157 Y93.515
G0 X110.085 Y95.3
G0 X110.304 Y95.3
G1 F3000 X106.668 Y96.274 E254.72435
G0 F9000 X106.667 Y96.839
G1 F3000 X110.304 Y100.477 E254.89545
G0 F9000 X110.085 Y100.477
G0 X110.085 Y101.512
G0 X110.303 Y101.512
G1 F3000 X106.668 Y102.486 E255.02062
G0 F9000 X106.888 Y102.486
G0 X106.888 Y105.325
G0 X106.667 Y105.325
G1 F3000 X110.304 Y108.962 E255.19169
G0 F9000 X110.085 Y108.962
G0 X110.085 Y107.723
G0 X110.303 Y107.723
G1 F3000 X106.668 Y108.697 E255.31686
G0 F9000 X106.668 Y108.081
G1 F3000 X110.304 Y94.509 E255.78418
G0 F9000 X110.085 Y94.509
G0 X110.085 Y113.935
G0 X110.304 Y113.935
G1 F3000 X106.668 Y114.909 E255.90938
G0 F9000 X106.888 Y114.909
G0 X106.888 Y113.811
G0 X106.668 Y113.811
G1 F3000 X110.304 Y117.447 E256.0804
G0 F9000 X109.785 Y117.447
G1 F2700 E251.0804
G0 F9000 X110.557 Y120.776
G0 X118.357 Y126.925
G0 X118.357 Y128.01
G0 X117.03 Y132.135
G0 X116.485 Y133.06
G0 X118.357 Y145.875
G1 F2700 E256.0804
G0 F9000 X118.153 Y146.31
;TYPE:WALL-INNER
G1 F1500 X123.02 Y143.136 E256.27366
G1 X127.852 Y139.986 E256.46551
G1 X116.718 Y133.419 E256.89544
G1 X118.153 Y146.31 E257.32685
G0 F9000 X117.827 Y147
;TYPE:WALL-OUTER
G1 F1500 X123.238 Y143.471 E257.54171
G1 X128.61 Y139.969 E257.755
G1 X116.232 Y132.668 E258.23297
G1 X117.827 Y147 E258.7126
G0 F9000 X118.032 Y146.565
G0 X120.423 Y144.472
G0 X120.541 Y144.655
;TYPE:FILL
G1 F3000 X117.736 Y141.85 E258.84454
G0 F9000 X117.955 Y141.826
G0 X118.079 Y142.944
G0 X117.861 Y142.968
G1 F3000 X126.807 Y140.571 E259.15258
G0 F9000 X126.688 Y140.388
G0 X125.56 Y141.123
G0 X125.679 Y141.307
G1 F3000 X119.557 Y135.186 E259.44051
G0 F9000 X119.445 Y135.375
G0 X120.747 Y136.143
G0 X120.859 Y135.953
G1 F3000 X117.19 Y136.936 E259.56685
G0 F9000 X117.408 Y136.912
G0 X117.52 Y137.919
G0 X117.301 Y137.943
G1 F3000 X118.247 Y134.413 E259.6884
G0 F9000 X118.135 Y134.603
G0 X123.499 Y137.767
G0 X123.611 Y137.577
G1 F3000 X121.962 Y143.729 E259.90024
G0 F9000 X121.681 Y143.293
G1 F2700 E254.90024
;MESH:NONMESH
G0 F300 X121.681 Y143.293 Z1.4
G0 F9000 X116.485 Y133.06
G0 X117.03 Y132.135
G0 X116.485 Y128.01
G0 X116.485 Y126.925
G0 X121.094 Y121.248
G1 F2700 E259.90024
G0 F9000 X121.094 Y120.94
;TIME_ELAPSED:442.876732
;LAYER:6
;TYPE:WALL-INNER
;MESH:LETRA ??.stl
G1 F1500 X120.99 Y120.948 E259.90371
G1 X110.905 Y120.948 E260.23914
G1 X110.628 Y120.831 E260.24914
G1 X110.507 Y120.711 E260.25481
G1 X110.385 Y120.421 E260.26527
G1 X110.385 Y94.343 E261.13263
G1 X110.417 Y94.146 E261.13927
G1 X110.507 Y93.98 E261.14555
G1 X110.628 Y93.86 E261.15122
G1 X110.909 Y93.743 E261.16134
G1 X121.07 Y93.743 E261.4993
G1 X121.347 Y93.859 E261.50928
G1 X121.468 Y93.98 E261.51498
G1 X121.558 Y94.146 E261.52126
G1 X121.59 Y94.343 E261.52789
G1 X121.59 Y120.421 E262.39525
G1 X121.468 Y120.711 E262.40572
G1 X121.347 Y120.831 E262.41138
G1 X121.094 Y120.94 E262.42055
G0 F9000 X121.15 Y120.469
;TYPE:WALL-OUTER
G1 F1500 X121.025 Y120.546 E262.42543
G1 X110.946 Y120.545 E262.76066
G1 X110.825 Y120.469 E262.76541
G1 X110.787 Y120.383 E262.76854
G1 X110.785 Y94.29 E263.6364
G1 X110.866 Y94.182 E263.64089
G1 X110.95 Y94.145 E263.64394
G1 X121.029 Y94.146 E263.97917
G1 X121.109 Y94.181 E263.98207
G1 X121.19 Y94.291 E263.98662
G1 X121.188 Y120.383 E264.85444
G1 X121.15 Y120.469 E264.85757
G1 F2700 E259.85757
G0 F9000 X121.49 Y120.469
G0 X121.454 Y120.977
G0 X125.188 Y120.977
G0 X125.388 Y126.745
;TYPE:WALL-INNER
G1 F2700 E264.85757
G1 F1500 X125.388 Y90.977 E266.04721
G1 X125.388 Y87.945 E266.14806
G1 X106.588 Y87.945 E266.77335
G1 X106.589 Y126.744 E268.06381
G1 X125.388 Y126.745 E268.68907
G0 F9000 X125.788 Y127.145
;TYPE:WALL-OUTER
G1 F1500 X125.788 Y90.977 E269.89202
G1 X125.788 Y87.545 E270.00617
G1 X106.188 Y87.545 E270.65807
G1 X106.189 Y127.144 E271.97513
G1 X125.788 Y127.145 E272.627
G0 F9000 X125.518 Y126.875
G0 X125.288 Y126.385
G0 X125.028 Y126.385
;TYPE:SKIN
G1 F1500 X125.028 Y90.986 E273.80438
G1 X125.028 Y88.305 E273.89355
G1 X106.949 Y88.306 E274.49486
G1 X106.95 Y126.383 E275.7613
G1 X125.028 Y126.385 E276.36258
G1 F2700 E271.36258
G0 F9000 X125.288 Y126.385
G0 X125.188 Y121.038
G0 X121.729 Y120.603
G0 X121.131 Y121.306
G1 F2700 E276.36258
G1 F1500 X110.839 Y121.308 E276.70489
G1 X110.412 Y121.125 E276.72034
G1 X110.202 Y120.904 E276.73048
G1 X110.068 Y120.631 E276.7406
G1 X110.027 Y120.381 E276.74902
G1 X110.027 Y94.313 E277.61605
G1 X110.074 Y94.022 E277.62585
G1 X110.236 Y93.742 E277.63661
G1 X110.454 Y93.548 E277.64632
G1 X110.845 Y93.385 E277.66041
G1 X121.138 Y93.383 E278.00276
G1 X121.522 Y93.546 E278.01663
G1 X121.737 Y93.739 E278.02624
G1 X121.901 Y94.022 E278.03712
G1 X121.948 Y94.315 E278.04699
G1 X121.948 Y120.477 E278.91714
G1 X121.781 Y120.887 E278.93186
G1 X121.586 Y121.101 E278.94149
G1 X121.524 Y121.142 E278.94397
G1 X121.131 Y121.306 E278.95813
G1 F2700 E273.95813
G0 F9000 X121.116 Y121.038
G0 X110.985 Y121.129
G0 X109.62 Y126.544
G0 X107.514 Y126.182
G1 F2700 E278.95813
G1 F1500 X107.149 Y125.816 E278.97532
G0 F9000 X107.149 Y125.251
G1 F1500 X108.08 Y126.182 E279.01911
G0 F9000 X108.646 Y126.182
G1 F1500 X107.149 Y124.685 E279.08953
G0 F9000 X107.149 Y124.119
G1 F1500 X109.211 Y126.182 E279.18654
G0 F9000 X109.777 Y126.182
G1 F1500 X107.149 Y123.554 E279.31015
G0 F9000 X107.149 Y122.988
G1 F1500 X110.343 Y126.182 E279.46039
G0 F9000 X110.908 Y126.182
G1 F1500 X107.149 Y122.422 E279.63723
G0 F9000 X107.149 Y121.857
G1 F1500 X111.474 Y126.182 E279.84066
G0 F9000 X112.04 Y126.182
G1 F1500 X107.149 Y121.291 E280.07072
G0 F9000 X107.149 Y120.725
G1 F1500 X112.606 Y126.182 E280.3274
G0 F9000 X113.171 Y126.182
G1 F1500 X107.149 Y120.16 E280.61065
G0 F9000 X107.149 Y119.594
G1 F1500 X113.737 Y126.182 E280.92053
G0 F9000 X114.303 Y126.182
G1 F1500 X107.149 Y119.028 E281.25704
G0 F9000 X107.149 Y118.463
G1 F1500 X114.868 Y126.182 E281.62011
G0 F9000 X115.434 Y126.182
G1 F1500 X110.731 Y121.479 E281.84133
G0 F9000 X111.325 Y121.507
G1 F1500 X116 Y126.183 E282.06125
G0 F9000 X116.566 Y126.183
G1 F1500 X111.891 Y121.507 E282.28117
G0 F9000 X112.456 Y121.507
G1 F1500 X117.132 Y126.183 E282.50112
G0 F9000 X117.697 Y126.183
G1 F1500 X113.021 Y121.507 E282.72106
G0 F9000 X113.586 Y121.506
G1 F1500 X118.263 Y126.183 E282.94105
G0 F9000 X118.829 Y126.183
G1 F1500 X114.152 Y121.506 E283.16104
G0 F9000 X114.717 Y121.505
G1 F1500 X119.394 Y126.183 E283.38106
G0 F9000 X119.96 Y126.183
G1 F1500 X115.283 Y121.505 E283.60107
G0 F9000 X115.848 Y121.505
G1 F1500 X120.526 Y126.183 E283.82111
G0 F9000 X121.092 Y126.183
G1 F1500 X116.413 Y121.504 E284.0412
G0 F9000 X116.979 Y121.504
G1 F1500 X121.657 Y126.183 E284.26126
G0 F9000 X122.223 Y126.183
G1 F1500 X117.544 Y121.504 E284.48135
G0 F9000 X118.11 Y121.504
G1 F1500 X122.789 Y126.183 E284.70143
G0 F9000 X123.354 Y126.183
G1 F1500 X118.675 Y121.503 E284.92154
G0 F9000 X119.24 Y121.503
G1 F1500 X123.92 Y126.183 E285.14168
G0 F9000 X124.486 Y126.183
G1 F1500 X119.806 Y121.503 E285.36181
G0 F9000 X120.371 Y121.502
G1 F1500 X124.827 Y125.959 E285.57143
G0 F9000 X124.827 Y125.393
G1 F1500 X120.937 Y121.502 E285.75443
G0 F9000 X121.409 Y121.409
G1 F1500 X124.827 Y124.827 E285.9152
G0 F9000 X124.827 Y124.261
G1 F1500 X121.759 Y121.193 E286.05951
G0 F9000 X122.002 Y120.871
G1 F1500 X124.827 Y123.696 E286.19239
G0 F9000 X124.827 Y123.13
G1 F1500 X122.144 Y120.447 E286.31859
G0 F9000 X122.144 Y119.881
G1 F1500 X124.827 Y122.564 E286.44479
G0 F9000 X124.827 Y121.999
G1 F1500 X122.144 Y119.315 E286.57101
G0 F9000 X122.144 Y118.75
G1 F1500 X124.827 Y121.433 E286.69721
G0 F9000 X124.827 Y120.867
G1 F1500 X122.144 Y118.184 E286.82341
G0 F9000 X122.144 Y117.618
G1 F1500 X124.827 Y120.302 E286.94963
G0 F9000 X124.827 Y119.736
G1 F1500 X122.144 Y117.053 E287.07583
G0 F9000 X122.144 Y116.488
G1 F1500 X124.827 Y119.17 E287.20201
G0 F9000 X124.827 Y118.605
G1 F1500 X122.144 Y115.922 E287.32821
G0 F9000 X122.144 Y115.356
G1 F1500 X124.827 Y118.039 E287.45441
G0 F9000 X124.827 Y117.473
G1 F1500 X122.144 Y114.791 E287.58059
G0 F9000 X122.144 Y114.225
G1 F1500 X124.827 Y116.908 E287.70679
G0 F9000 X124.827 Y116.342
G1 F1500 X122.144 Y113.659 E287.83299
G0 F9000 X122.144 Y113.093
G1 F1500 X124.827 Y115.776 E287.95919
G0 F9000 X124.827 Y115.211
G1 F1500 X122.145 Y112.528 E288.08536
G0 F9000 X122.145 Y111.963
G1 F1500 X124.827 Y114.645 E288.21152
G0 F9000 X124.827 Y114.079
G1 F1500 X122.145 Y111.397 E288.33767
G0 F9000 X122.145 Y110.831
G1 F1500 X124.827 Y113.513 E288.46382
G0 F9000 X124.827 Y112.948
G1 F1500 X122.145 Y110.266 E288.58998
G0 F9000 X122.145 Y109.7
G1 F1500 X124.827 Y112.382 E288.71613
G0 F9000 X124.827 Y111.816
G1 F1500 X122.146 Y109.135 E288.84224
G0 F9000 X122.146 Y108.569
G1 F1500 X124.827 Y111.251 E288.96837
G0 F9000 X124.827 Y110.685
G1 F1500 X122.146 Y108.004 E289.09447
G0 F9000 X122.146 Y107.438
G1 F1500 X124.827 Y110.119 E289.22058
G0 F9000 X124.827 Y109.554
G1 F1500 X122.146 Y106.872 E289.34671
G0 F9000 X122.146 Y106.307
G1 F1500 X124.827 Y108.988 E289.47281
G0 F9000 X124.827 Y108.422
G1 F1500 X122.146 Y105.741 E289.59892
G0 F9000 X122.147 Y105.176
G1 F1500 X124.827 Y107.857 E289.725
G0 F9000 X124.827 Y107.291
G1 F1500 X122.147 Y104.61 E289.85108
G0 F9000 X122.147 Y104.045
G1 F1500 X124.827 Y106.725 E289.97714
G0 F9000 X124.827 Y106.16
G1 F1500 X122.147 Y103.479 E290.10323
G0 F9000 X122.147 Y102.913
G1 F1500 X124.827 Y105.594 E290.22931
G0 F9000 X124.827 Y105.028
G1 F1500 X122.147 Y102.348 E290.35537
G0 F9000 X122.147 Y101.783
G1 F1500 X124.827 Y104.463 E290.48143
G0 F9000 X124.827 Y103.897
G1 F1500 X122.147 Y101.217 E290.60749
G0 F9000 X122.147 Y100.651
G1 F1500 X124.827 Y103.331 E290.73354
G0 F9000 X124.827 Y102.765
G1 F1500 X122.147 Y100.086 E290.85958
G0 F9000 X122.147 Y99.52
G1 F1500 X124.827 Y102.2 E290.98564
G0 F9000 X124.827 Y101.634
G1 F1500 X122.147 Y98.954 E291.1117
G0 F9000 X122.147 Y98.388
G1 F1500 X124.827 Y101.068 E291.23776
G0 F9000 X124.827 Y100.503
G1 F1500 X122.148 Y97.823 E291.36379
G0 F9000 X122.148 Y97.258
G1 F1500 X124.827 Y99.937 E291.4898
G0 F9000 X124.827 Y99.371
G1 F1500 X122.148 Y96.692 E291.61582
G0 F9000 X122.148 Y96.126
G1 F1500 X124.827 Y98.806 E291.74185
G0 F9000 X124.827 Y98.24
G1 F1500 X122.148 Y95.561 E291.86786
G0 F9000 X122.148 Y94.995
G1 F1500 X124.827 Y97.674 E291.99388
G0 F9000 X124.827 Y97.109
G1 F1500 X122.148 Y94.429 E292.11991
G0 F9000 X121.69 Y94.429
G0 X121.446 Y93.967
G0 X120.901 Y93.643
G0 X120.901 Y93.183
G1 F1500 X116.224 Y88.505 E292.33993
G0 F9000 X116.789 Y88.505
G1 F1500 X124.827 Y96.543 E292.71801
G0 F9000 X124.827 Y95.977
G1 F1500 X117.355 Y88.505 E293.06947
G0 F9000 X117.921 Y88.505
G1 F1500 X124.827 Y95.412 E293.39433
G0 F9000 X124.827 Y94.846
G1 F1500 X118.487 Y88.505 E293.69257
G0 F9000 X119.052 Y88.505
G1 F1500 X124.827 Y94.28 E293.96421
G0 F9000 X124.827 Y93.714
G1 F1500 X119.618 Y88.505 E294.20922
G0 F9000 X120.184 Y88.505
G1 F1500 X124.827 Y93.149 E294.42764
G0 F9000 X124.827 Y92.583
G1 F1500 X120.749 Y88.505 E294.61945
G0 F9000 X121.315 Y88.505
G1 F1500 X124.827 Y92.017 E294.78465
G0 F9000 X124.827 Y91.452
G1 F1500 X121.881 Y88.505 E294.92324
G0 F9000 X122.446 Y88.505
G1 F1500 X124.827 Y90.886 E295.03524
G0 F9000 X124.827 Y90.32
G1 F1500 X123.012 Y88.505 E295.12061
G0 F9000 X123.578 Y88.505
G1 F1500 X124.827 Y89.755 E295.17938
G0 F9000 X124.827 Y89.189
G1 F1500 X124.143 Y88.505 E295.21155
G0 F9000 X124.709 Y88.505
G1 F1500 X124.827 Y88.623 E295.2171
G1 F2700 E290.2171
G0 F9000 X125.288 Y88.623
G0 X125.188 Y93.643
G0 X121.729 Y94.086
G0 X120.336 Y93.183
G1 F2700 E295.2171
G1 F1500 X115.658 Y88.505 E295.43714
G0 F9000 X115.092 Y88.505
G1 F1500 X119.77 Y93.183 E295.65718
G0 F9000 X119.205 Y93.183
G1 F1500 X114.527 Y88.505 E295.87722
G0 F9000 X113.961 Y88.505
G1 F1500 X118.639 Y93.183 E296.09726
G0 F9000 X118.074 Y93.184
G1 F1500 X113.395 Y88.505 E296.31735
G0 F9000 X112.83 Y88.505
G1 F1500 X117.509 Y93.184 E296.53743
G0 F9000 X116.943 Y93.184
G1 F1500 X112.264 Y88.505 E296.75752
G0 F9000 X111.698 Y88.505
G1 F1500 X116.378 Y93.185 E296.97765
G0 F9000 X115.812 Y93.185
G1 F1500 X111.133 Y88.505 E297.19776
G0 F9000 X110.567 Y88.505
G1 F1500 X115.247 Y93.185 E297.41789
G0 F9000 X114.682 Y93.186
G1 F1500 X110.001 Y88.505 E297.63807
G0 F9000 X109.436 Y88.505
G1 F1500 X114.116 Y93.186 E297.85823
G0 F9000 X113.551 Y93.186
G1 F1500 X108.87 Y88.505 E298.07841
G0 F9000 X108.304 Y88.505
G1 F1500 X112.985 Y93.186 E298.29859
G0 F9000 X112.42 Y93.186
G1 F1500 X107.739 Y88.505 E298.51877
G0 F9000 X107.173 Y88.505
G1 F1500 X111.855 Y93.187 E298.739
G0 F9000 X111.289 Y93.187
G1 F1500 X107.147 Y89.045 E298.93382
G0 F9000 X107.147 Y89.611
G1 F1500 X110.742 Y93.205 E299.1029
G0 F9000 X110.352 Y93.381
G1 F1500 X107.147 Y90.177 E299.25363
G0 F9000 X107.147 Y90.743
G1 F1500 X110.061 Y93.656 E299.39067
G0 F9000 X109.869 Y94.03
G1 F1500 X107.147 Y91.308 E299.5187
G0 F9000 X107.147 Y91.874
G1 F1500 X109.824 Y94.551 E299.64462
G0 F9000 X109.824 Y95.117
G1 F1500 X107.147 Y92.44 E299.77054
G0 F9000 X107.147 Y93.005
G1 F1500 X109.824 Y95.682 E299.89646
G0 F9000 X109.824 Y96.248
G1 F1500 X107.147 Y93.571 E300.02237
G0 F9000 X107.147 Y94.137
G1 F1500 X109.824 Y96.814 E300.14829
G0 F9000 X109.824 Y97.379
G1 F1500 X107.147 Y94.702 E300.27421
G0 F9000 X107.147 Y95.268
G1 F1500 X109.824 Y97.945 E300.40013
G0 F9000 X109.824 Y98.511
G1 F1500 X107.147 Y95.834 E300.52605
G0 F9000 X107.147 Y96.399
G1 F1500 X109.824 Y99.076 E300.65196
G0 F9000 X109.824 Y99.642
G1 F1500 X107.147 Y96.965 E300.77788
G0 F9000 X107.147 Y97.531
G1 F1500 X109.824 Y100.208 E300.9038
G0 F9000 X109.824 Y100.774
G1 F1500 X107.147 Y98.096 E301.02974
G0 F9000 X107.147 Y98.662
G1 F1500 X109.824 Y101.339 E301.15566
G0 F9000 X109.824 Y101.905
G1 F1500 X107.147 Y99.228 E301.28158
G0 F9000 X107.147 Y99.793
G1 F1500 X109.824 Y102.471 E301.40752
G0 F9000 X109.824 Y103.036
G1 F1500 X107.147 Y100.359 E301.53344
G0 F9000 X107.147 Y100.925
G1 F1500 X109.824 Y103.602 E301.65935
G0 F9000 X109.824 Y104.168
G1 F1500 X107.148 Y101.491 E301.78525
G0 F9000 X107.148 Y102.057
G1 F1500 X109.824 Y104.733 E301.91112
G0 F9000 X109.824 Y105.299
G1 F1500 X107.148 Y102.623 E302.03699
G0 F9000 X107.148 Y103.188
G1 F1500 X109.824 Y105.865 E302.16288
G0 F9000 X109.824 Y106.43
G1 F1500 X107.148 Y103.754 E302.28875
G0 F9000 X107.148 Y104.32
G1 F1500 X109.824 Y106.996 E302.41463
G0 F9000 X109.824 Y107.562
G1 F1500 X107.148 Y104.885 E302.54052
G0 F9000 X107.148 Y105.451
G1 F1500 X109.824 Y108.127 E302.66639
G0 F9000 X109.824 Y108.693
G1 F1500 X107.148 Y106.017 E302.79226
G0 F9000 X107.148 Y106.582
G1 F1500 X109.824 Y109.259 E302.91816
G0 F9000 X109.824 Y109.824
G1 F1500 X107.148 Y107.148 E303.04403
G0 F9000 X107.148 Y107.714
G1 F1500 X109.824 Y110.39 E303.1699
G0 F9000 X109.824 Y110.956
G1 F1500 X107.148 Y108.279 E303.29579
G0 F9000 X107.148 Y108.845
G1 F1500 X109.824 Y111.522 E303.42169
G0 F9000 X109.824 Y112.087
G1 F1500 X107.148 Y109.411 E303.54756
G0 F9000 X107.148 Y109.977
G1 F1500 X109.824 Y112.653 E303.67343
G0 F9000 X109.824 Y113.219
G1 F1500 X107.148 Y110.542 E303.79932
G0 F9000 X107.148 Y111.108
G1 F1500 X109.824 Y113.784 E303.92519
G0 F9000 X109.824 Y114.35
G1 F1500 X107.148 Y111.674 E304.05106
G0 F9000 X107.148 Y112.239
G1 F1500 X109.824 Y114.916 E304.17696
G0 F9000 X109.824 Y115.481
G1 F1500 X107.148 Y112.805 E304.30283
G0 F9000 X107.148 Y113.371
G1 F1500 X109.824 Y116.047 E304.4287
G0 F9000 X109.824 Y116.613
G1 F1500 X107.149 Y113.937 E304.55455
G0 F9000 X107.149 Y114.503
G1 F1500 X109.824 Y117.178 E304.68037
G0 F9000 X109.824 Y117.744
G1 F1500 X107.149 Y115.068 E304.80622
G0 F9000 X107.149 Y115.634
G1 F1500 X109.824 Y118.31 E304.93207
G0 F9000 X109.824 Y118.875
G1 F1500 X107.149 Y116.2 E305.05789
G0 F9000 X107.149 Y116.765
G1 F1500 X109.824 Y119.441 E305.18374
G0 F9000 X109.824 Y120.007
G1 F1500 X107.149 Y117.331 E305.30958
G0 F9000 X107.149 Y117.897
G1 F1500 X109.863 Y120.611 E305.43724
G1 F2700 E300.43724
G0 F9000 X110.302 Y120.498
G0 X110.531 Y120.748
G0 X118.205 Y121.128
G0 X116.485 Y133.06
G0 X118.153 Y146.31
;TYPE:WALL-INNER
G1 F2700 E305.43724
G1 F1500 X127.852 Y139.986 E305.82235
G1 X116.718 Y133.419 E306.25228
G1 X118.153 Y146.31 E306.68369
G0 F9000 X117.827 Y147
;TYPE:WALL-OUTER
G1 F1500 X128.61 Y139.969 E307.11184
G1 X116.232 Y132.668 E307.58981
G1 X117.827 Y147 E308.06944
G0 F9000 X118.032 Y146.565
G0 X118.188 Y145.718
G0 X118.446 Y145.689
;TYPE:SKIN
G1 F1500 X122.824 Y142.834 E308.24328
G1 X127.17 Y140.001 E308.41582
G1 X117.159 Y134.098 E308.80237
G1 X118.446 Y145.689 E309.19025
G0 F9000 X118.697 Y145.284
G1 F1500 X118.59 Y145.177 E309.19529
G0 F9000 X119.04 Y145.061
G1 F1500 X118.519 Y144.541 E309.21977
G0 F9000 X118.448 Y143.904
G1 F1500 X119.382 Y144.838 E309.2637
G0 F9000 X119.724 Y144.614
G1 F1500 X118.378 Y143.268 E309.32701
G0 F9000 X118.307 Y142.631
G1 F1500 X120.067 Y144.391 E309.4098
G0 F9000 X120.409 Y144.168
G1 F1500 X118.236 Y141.995 E309.51201
G0 F9000 X118.166 Y141.359
G1 F1500 X120.751 Y143.945 E309.63362
G0 F9000 X121.094 Y143.721
G1 F1500 X118.095 Y140.722 E309.77469
G0 F9000 X118.024 Y140.086
G1 F1500 X121.437 Y143.498 E309.9352
G0 F9000 X121.779 Y143.275
G1 F1500 X117.953 Y139.449 E310.11516
G0 F9000 X117.883 Y138.813
G1 F1500 X122.121 Y143.051 E310.31451
G0 F9000 X122.464 Y142.829
G1 F1500 X117.812 Y138.177 E310.53332
G0 F9000 X117.741 Y137.54
G1 F1500 X122.806 Y142.605 E310.77156
G0 F9000 X123.149 Y142.382
G1 F1500 X117.671 Y136.904 E311.02923
G0 F9000 X117.6 Y136.267
G1 F1500 X123.491 Y142.159 E311.30635
G0 F9000 X123.834 Y141.936
G1 F1500 X117.529 Y135.631 E311.60292
G0 F9000 X117.458 Y134.995
G1 F1500 X124.176 Y141.712 E311.91889
G0 F9000 X124.518 Y141.489
G1 F1500 X117.649 Y134.619 E312.24201
G0 F9000 X117.883 Y134.223
G0 X119.261 Y135.036
G0 X119.027 Y135.432
G1 F1500 X124.861 Y141.266 E312.51642
G0 F9000 X125.203 Y141.043
G1 F1500 X120.406 Y136.245 E312.74208
G0 F9000 X120.64 Y135.849
G0 X122.017 Y136.662
G0 X121.784 Y137.057
G1 F1500 X125.546 Y140.819 E312.91904
G0 F9000 X125.889 Y140.596
G1 F1500 X123.162 Y137.87 E313.04728
G0 F9000 X123.395 Y137.475
G0 X124.773 Y138.287
G0 X124.54 Y138.682
G1 F1500 X126.231 Y140.373 E313.12682
G0 F9000 X126.573 Y140.149
G1 F1500 X125.919 Y139.495 E313.15758
G1 F2700 E308.15758
;MESH:NONMESH
G0 F300 X125.919 Y139.495 Z1.6
G0 F9000 X126.152 Y139.1
G0 X116.485 Y133.06
G0 X116.485 Y121.128
G0 X121.067 Y120.948
;TIME_ELAPSED:529.012524
;LAYER:7
;TYPE:WALL-INNER
;MESH:LETRA ??.stl
G1 F2700 E313.15758
G1 F1500 X110.905 Y120.948 E313.49557
G1 X110.759 Y120.905 E313.50064
G1 X110.507 Y120.711 E313.51121
G1 X110.385 Y120.421 E313.52168
G1 X110.385 Y94.343 E314.38903
G1 X110.417 Y94.146 E314.39567
G1 X110.507 Y93.98 E314.40195
G1 X110.628 Y93.86 E314.40762
G1 X110.909 Y93.743 E314.41775
G1 X121.07 Y93.743 E314.7557
G1 X121.347 Y93.859 E314.76569
G1 X121.468 Y93.98 E314.77138
G1 X121.558 Y94.146 E314.77766
G1 X121.59 Y94.343 E314.7843
G1 X121.59 Y120.421 E315.65166
G1 X121.468 Y120.711 E315.66212
G1 X121.347 Y120.831 E315.66779
G1 X121.067 Y120.948 E315.67788
G0 F9000 X121.15 Y120.469
;TYPE:WALL-OUTER
G1 F1500 X121.025 Y120.546 E315.68277
G1 X110.946 Y120.545 E316.018
G1 X110.909 Y120.534 E316.01928
G1 X110.787 Y120.383 E316.02574
G1 X110.785 Y94.29 E316.89359
G1 X110.866 Y94.182 E316.89808
G1 X110.95 Y94.145 E316.90114
G1 X121.029 Y94.146 E317.23636
G1 X121.109 Y94.181 E317.23927
G1 X121.19 Y94.291 E317.24381
G1 X121.188 Y120.383 E318.11164
G1 X121.15 Y120.469 E318.11476
G1 F2700 E313.11476
G0 F9000 X121.49 Y120.469
G0 X121.454 Y120.977
G0 X125.188 Y120.977
G0 X125.388 Y126.745
;TYPE:WALL-INNER
G1 F2700 E318.11476
G1 F1500 X125.388 Y90.977 E319.30441
G1 X125.388 Y87.945 E319.40526
G1 X106.588 Y87.945 E320.03055
G1 X106.589 Y126.744 E321.32101
G1 X125.388 Y126.745 E321.94626
G0 F9000 X125.788 Y127.145
;TYPE:WALL-OUTER
G1 F1500 X125.788 Y90.977 E323.14922
G1 X125.788 Y87.545 E323.26337
G1 X106.188 Y87.545 E323.91526
G1 X106.189 Y127.144 E325.23233
G1 X125.788 Y127.145 E325.8842
G0 F9000 X125.518 Y126.875
G0 X125.288 Y126.385
G0 X125.028 Y126.385
;TYPE:SKIN
G1 F1500 X125.028 Y90.986 E327.06157
G1 X125.028 Y88.305 E327.15074
G1 X106.949 Y88.306 E327.75205
G1 X106.95 Y126.383 E329.0185
G1 X125.028 Y126.385 E329.61978
G1 F2700 E324.61978
G0 F9000 X125.288 Y126.385
G0 X125.188 Y121.038
G0 X121.729 Y120.603
G0 X121.131 Y121.306
G1 F2700 E329.61978
G1 F1500 X110.839 Y121.308 E329.96209
G1 X110.412 Y121.125 E329.97754
G1 X110.202 Y120.904 E329.98768
G1 X110.068 Y120.631 E329.9978
G1 X110.027 Y120.381 E330.00622
G1 X110.027 Y94.313 E330.87325
G1 X110.074 Y94.022 E330.88305
G1 X110.236 Y93.742 E330.89381
G1 X110.454 Y93.548 E330.90352
G1 X110.845 Y93.385 E330.91761
G1 X121.138 Y93.383 E331.25995
G1 X121.522 Y93.546 E331.27383
G1 X121.737 Y93.739 E331.28344
G1 X121.901 Y94.022 E331.29432
G1 X121.948 Y94.315 E331.30419
G1 X121.948 Y120.477 E332.17434
G1 X121.765 Y120.927 E332.19049
G1 X121.524 Y121.142 E332.20124
G1 X121.131 Y121.306 E332.2154
G1 F2700 E327.2154
G0 F9000 X121.116 Y121.038
G0 X121.284 Y126.545
G0 X124.414 Y126.183
G1 F2700 E332.2154
G1 F1500 X124.827 Y125.77 E332.23483
G0 F9000 X124.827 Y125.205
G1 F1500 X123.849 Y126.183 E332.28083
G0 F9000 X123.283 Y126.183
G1 F1500 X124.827 Y124.639 E332.35345
G0 F9000 X124.827 Y124.073
G1 F1500 X122.717 Y126.183 E332.4527
G0 F9000 X122.151 Y126.183
G1 F1500 X124.827 Y123.508 E332.57855
G0 F9000 X124.827 Y122.942
G1 F1500 X121.586 Y126.183 E332.731
G0 F9000 X121.02 Y126.183
G1 F1500 X124.827 Y122.376 E332.91006
G0 F9000 X124.827 Y121.811
G1 F1500 X120.454 Y126.183 E333.11573
G0 F9000 X119.889 Y126.183
G1 F1500 X124.827 Y121.245 E333.348
G0 F9000 X124.827 Y120.679
G1 F1500 X119.323 Y126.183 E333.60689
G0 F9000 X118.757 Y126.183
G1 F1500 X124.827 Y120.114 E333.89238
G0 F9000 X124.827 Y119.548
G1 F1500 X118.192 Y126.183 E334.20447
G0 F9000 X117.626 Y126.183
G1 F1500 X124.827 Y118.982 E334.54319
G0 F9000 X124.827 Y118.417
G1 F1500 X117.06 Y126.183 E334.9085
G0 F9000 X116.495 Y126.183
G1 F1500 X121.176 Y121.502 E335.12868
G0 F9000 X120.611 Y121.502
G1 F1500 X115.93 Y126.183 E335.34886
G0 F9000 X115.364 Y126.183
G1 F1500 X120.045 Y121.502 E335.56904
G0 F9000 X119.479 Y121.502
G1 F1500 X114.798 Y126.183 E335.78922
G0 F9000 X114.233 Y126.183
G1 F1500 X118.913 Y121.502 E336.00938
G0 F9000 X118.347 Y121.503
G1 F1500 X113.667 Y126.183 E336.22951
G0 F9000 X113.101 Y126.183
G1 F1500 X117.781 Y121.503 E336.44964
G0 F9000 X117.214 Y121.504
G1 F1500 X112.536 Y126.183 E336.6697
G0 F9000 X111.97 Y126.183
G1 F1500 X116.649 Y121.504 E336.88979
G0 F9000 X116.083 Y121.504
G1 F1500 X111.404 Y126.183 E337.10987
G0 F9000 X110.838 Y126.183
G1 F1500 X115.517 Y121.504 E337.32996
G0 F9000 X114.951 Y121.504
G1 F1500 X110.273 Y126.183 E337.55002
G0 F9000 X109.707 Y126.183
G1 F1500 X114.385 Y121.505 E337.77006
G0 F9000 X113.819 Y121.505
G1 F1500 X109.141 Y126.183 E337.9901
G0 F9000 X108.576 Y126.183
G1 F1500 X113.253 Y121.506 E338.21009
G0 F9000 X112.687 Y121.506
G1 F1500 X108.01 Y126.183 E338.43008
G0 F9000 X107.444 Y126.183
G1 F1500 X112.121 Y121.506 E338.65008
G0 F9000 X111.555 Y121.507
G1 F1500 X107.15 Y125.912 E338.85727
G0 F9000 X107.15 Y125.346
G1 F1500 X110.989 Y121.507 E339.03785
G0 F9000 X110.535 Y121.395
G1 F1500 X107.15 Y124.781 E339.19709
G0 F9000 X107.15 Y124.215
G1 F1500 X110.191 Y121.173 E339.34015
G0 F9000 X109.95 Y120.849
G1 F1500 X107.15 Y123.649 E339.47186
G0 F9000 X107.15 Y123.083
G1 F1500 X109.832 Y120.401 E339.59801
G0 F9000 X109.824 Y119.843
G1 F1500 X107.15 Y122.518 E339.72381
G0 F9000 X107.15 Y121.952
G1 F1500 X109.824 Y119.278 E339.84959
G0 F9000 X109.824 Y118.712
G1 F1500 X107.15 Y121.386 E339.97536
G0 F9000 X107.15 Y120.821
G1 F1500 X109.824 Y118.146 E340.10117
G0 F9000 X109.824 Y117.581
G1 F1500 X107.15 Y120.255 E340.22694
G0 F9000 X107.15 Y119.689
G1 F1500 X109.824 Y117.015 E340.35272
G0 F9000 X109.824 Y116.449
G1 F1500 X107.15 Y119.124 E340.47852
G0 F9000 X107.15 Y118.558
G1 F1500 X109.824 Y115.884 E340.6043
G0 F9000 X109.824 Y115.318
G1 F1500 X107.15 Y117.992 E340.73007
G0 F9000 X107.15 Y117.427
G1 F1500 X109.824 Y114.752 E340.85587
G0 F9000 X109.824 Y114.187
G1 F1500 X107.15 Y116.861 E340.98165
G0 F9000 X107.15 Y116.295
G1 F1500 X109.824 Y113.621 E341.10743
G0 F9000 X109.824 Y113.055
G1 F1500 X107.15 Y115.73 E341.23323
G0 F9000 X107.15 Y115.164
G1 F1500 X109.824 Y112.49 E341.359
G0 F9000 X109.824 Y111.924
G1 F1500 X107.15 Y114.598 E341.48478
G0 F9000 X107.15 Y114.032
G1 F1500 X109.824 Y111.358 E341.61056
G0 F9000 X109.824 Y110.793
G1 F1500 X107.149 Y113.468 E341.73638
G0 F9000 X107.149 Y112.902
G1 F1500 X109.824 Y110.227 E341.8622
G0 F9000 X109.824 Y109.661
G1 F1500 X107.149 Y112.336 E341.98803
G0 F9000 X107.149 Y111.77
G1 F1500 X109.824 Y109.095 E342.11385
G0 F9000 X109.824 Y108.53
G1 F1500 X107.149 Y111.205 E342.23968
G0 F9000 X107.149 Y110.639
G1 F1500 X109.824 Y107.964 E342.3655
G0 F9000 X109.824 Y107.398
G1 F1500 X107.149 Y110.073 E342.49132
G0 F9000 X107.149 Y109.508
G1 F1500 X109.824 Y106.833 E342.61715
G0 F9000 X109.824 Y106.267
G1 F1500 X107.149 Y108.942 E342.74297
G0 F9000 X107.149 Y108.376
G1 F1500 X109.824 Y105.701 E342.86879
G0 F9000 X109.824 Y105.136
G1 F1500 X107.149 Y107.811 E342.99462
G0 F9000 X107.149 Y107.245
G1 F1500 X109.824 Y104.57 E343.12044
G0 F9000 X109.824 Y104.004
G1 F1500 X107.149 Y106.679 E343.24627
G0 F9000 X107.149 Y106.114
G1 F1500 X109.824 Y103.439 E343.37209
G0 F9000 X109.824 Y102.873
G1 F1500 X107.149 Y105.548 E343.49791
G0 F9000 X107.149 Y104.982
G1 F1500 X109.824 Y102.307 E343.62374
G0 F9000 X109.824 Y101.742
G1 F1500 X107.149 Y104.417 E343.74956
G0 F9000 X107.149 Y103.851
G1 F1500 X109.824 Y101.176 E343.87539
G0 F9000 X109.824 Y100.61
