;FLAVOR:Marlin
;TIME:695
;Filament used: 0.394724m
;Layer height: 0.2
;MINX:107.7
;MINY:94.2
;MINZ:0.2
;MAXX:127.3
;MAXY:140.8
;MAXZ:2
;Generated with Cura_SteamEngine 5.2.2
M140 S50
M105
M190 S50
M104 S200
M105
M109 S200
M82 ;absolute extrusion mode
; Ender 3 Custom Start G-code
G92 E0 ; Reset Extruder
G28 ; Home all axes
G1 Z2.0 F3000 ; Move Z Axis up little to prevent scratching of Heat Bed
G1 X0.1 Y20 Z0.3 F5000.0 ; Move to start position
G1 X0.1 Y200.0 Z0.3 F1500.0 E15 ; Draw the first line
G1 X0.4 Y200.0 Z0.3 F5000.0 ; Move to side a little
G1 X0.4 Y20 Z0.3 F1500.0 E30 ; Draw the second line
G92 E0 ; Reset Extruder
G1 Z2.0 F3000 ; Move Z Axis up little to prevent scratching of Heat Bed
G1 X5 Y20 Z0.3 F5000.0 ; Move over to prevent blob squish
G92 E0
G92 E0
G1 F2700 E-5
;LAYER_COUNT:10
;LAYER:0
M107
;MESH:LETRA ??.stl
G0 F6000 X108.101 Y133.399 Z0.2
;TYPE:WALL-INNER
G1 F2700 E0
G1 F1200 X126.9 Y133.4 E0.62526
G1 X126.9 Y96.499 E1.85259
G1 X126.9 Y94.6 E1.91575
G1 X123.102 Y94.6 E2.04207
G1 X123.102 Y130.112 E3.22321
G1 X123.024 Y130.3 E3.22998
G1 X122.907 Y130.447 E3.23622
G1 X122.579 Y130.603 E3.24831
G1 X112.497 Y130.603 E3.58363
G1 X112.272 Y130.56 E3.59125
G1 X112.092 Y130.447 E3.59832
G1 X111.975 Y130.3 E3.60457
G1 X111.897 Y130.11 E3.6114
G1 X111.897 Y94.601 E4.79244
G1 X108.101 Y94.601 E4.91869
G1 X108.101 Y133.399 E6.20912
G0 F6000 X107.701 Y133.799
;TYPE:WALL-OUTER
G1 F1200 X127.3 Y133.8 E6.86098
G1 X127.3 Y96.499 E8.10162
G1 X127.3 Y94.2 E8.17808
G1 X122.702 Y94.2 E8.33101
G1 X122.7 Y130.038 E9.52299
G1 X122.637 Y130.151 E9.52729
G1 X122.537 Y130.201 E9.53101
G1 X112.444 Y130.203 E9.86671
G1 X112.362 Y130.151 E9.86994
G1 X112.299 Y130.038 E9.87424
G1 X112.297 Y94.201 E11.06618
G1 X107.701 Y94.201 E11.21905
G1 X107.701 Y133.799 E12.53608
G0 F6000 X107.97 Y133.53
G0 X108.201 Y133.039
G0 X108.461 Y133.039
;TYPE:SKIN
G1 F1200 X126.54 Y133.04 E13.13739
G1 X126.54 Y96.499 E14.35275
G1 X126.54 Y94.96 E14.40394
G1 X123.462 Y94.96 E14.50631
G1 X123.46 Y130.177 E15.67764
G1 X123.351 Y130.455 E15.68757
G1 X123.151 Y130.715 E15.69848
G1 X122.864 Y130.895 E15.70974
G1 X122.634 Y130.961 E15.7177
G1 X112.463 Y130.96 E16.05599
G1 X112.139 Y130.898 E16.06696
G1 X111.847 Y130.714 E16.07844
G1 X111.66 Y130.478 E16.08846
G1 X111.539 Y130.165 E16.09962
G1 X111.537 Y94.961 E17.27051
G1 X108.461 Y94.961 E17.37282
G1 X108.461 Y133.039 E18.6393
G0 F6000 X109.079 Y132.838
G1 F1200 X108.66 Y132.419 E18.65901
G0 F6000 X108.66 Y131.853
G1 F1200 X109.645 Y132.838 E18.70534
G0 F6000 X110.211 Y132.838
G1 F1200 X108.66 Y131.287 E18.77829
G0 F6000 X108.66 Y130.722
G1 F1200 X110.776 Y132.838 E18.87782
G0 F6000 X111.342 Y132.838
G1 F1200 X108.66 Y130.156 E19.00397
G0 F6000 X108.66 Y129.59
G1 F1200 X111.908 Y132.838 E19.15675
G0 F6000 X112.473 Y132.838
G1 F1200 X108.66 Y129.025 E19.3361
G0 F6000 X108.66 Y128.459
G1 F1200 X113.039 Y132.838 E19.54208
G0 F6000 X113.605 Y132.838
G1 F1200 X108.66 Y127.893 E19.77467
G0 F6000 X108.66 Y127.328
G1 F1200 X111.341 Y130.009 E19.90078
G0 F6000 X111.341 Y129.443
G1 F1200 X108.66 Y126.762 E20.02689
G0 F6000 X108.66 Y126.196
G1 F1200 X111.341 Y128.877 E20.15299
G0 F6000 X111.341 Y128.312
G1 F1200 X108.66 Y125.63 E20.27912
G0 F6000 X108.66 Y125.065
G1 F1200 X111.341 Y127.746 E20.40523
G0 F6000 X111.341 Y127.18
G1 F1200 X108.66 Y124.499 E20.53133
G0 F6000 X108.66 Y123.933
G1 F1200 X111.341 Y126.615 E20.65746
G0 F6000 X111.341 Y126.049
G1 F1200 X108.66 Y123.368 E20.78357
G0 F6000 X108.66 Y122.802
G1 F1200 X111.341 Y125.483 E20.90968
G0 F6000 X111.341 Y124.917
G1 F1200 X108.66 Y122.236 E21.03578
G0 F6000 X108.66 Y121.671
G1 F1200 X111.341 Y124.351 E21.16186
G0 F6000 X111.341 Y123.786
G1 F1200 X108.66 Y121.105 E21.28797
G0 F6000 X108.66 Y120.539
G1 F1200 X111.341 Y123.22 E21.41408
G0 F6000 X111.341 Y122.654
G1 F1200 X108.66 Y119.974 E21.54016
G0 F6000 X108.66 Y119.408
G1 F1200 X111.341 Y122.089 E21.66626
G0 F6000 X111.341 Y121.523
G1 F1200 X108.66 Y118.842 E21.79237
G0 F6000 X108.66 Y118.277
G1 F1200 X111.341 Y120.957 E21.91845
G0 F6000 X111.341 Y120.392
G1 F1200 X108.66 Y117.711 E22.04456
G0 F6000 X108.66 Y117.145
G1 F1200 X111.34 Y119.825 E22.17062
G0 F6000 X111.34 Y119.259
G1 F1200 X108.66 Y116.579 E22.29668
G0 F6000 X108.66 Y116.014
G1 F1200 X111.34 Y118.694 E22.42274
G0 F6000 X111.34 Y118.128
G1 F1200 X108.66 Y115.448 E22.54879
G0 F6000 X108.66 Y114.882
G1 F1200 X111.34 Y117.562 E22.67485
G0 F6000 X111.34 Y116.997
G1 F1200 X108.66 Y114.317 E22.80091
G0 F6000 X108.659 Y113.75
G1 F1200 X111.34 Y116.431 E22.92702
G0 F6000 X111.34 Y115.865
G1 F1200 X108.659 Y113.185 E23.0531
G0 F6000 X108.659 Y112.619
G1 F1200 X111.34 Y115.3 E23.17921
G0 F6000 X111.339 Y114.733
G1 F1200 X108.659 Y112.053 E23.30527
G0 F6000 X108.659 Y111.488
G1 F1200 X111.339 Y114.168 E23.43133
G0 F6000 X111.339 Y113.602
G1 F1200 X108.659 Y110.922 E23.55738
G0 F6000 X108.659 Y110.356
G1 F1200 X111.339 Y113.036 E23.68344
G0 F6000 X111.339 Y112.47
G1 F1200 X108.659 Y109.791 E23.80948
G0 F6000 X108.659 Y109.225
G1 F1200 X111.339 Y111.905 E23.93554
G0 F6000 X111.339 Y111.339
G1 F1200 X108.659 Y108.659 E24.0616
G0 F6000 X108.659 Y108.093
G1 F1200 X111.339 Y110.773 E24.18766
G0 F6000 X111.339 Y110.208
G1 F1200 X108.659 Y107.528 E24.31371
G0 F6000 X108.659 Y106.962
G1 F1200 X111.338 Y109.641 E24.43973
G0 F6000 X111.338 Y109.076
G1 F1200 X108.659 Y106.396 E24.56576
G0 F6000 X108.659 Y105.831
G1 F1200 X111.338 Y108.51 E24.69177
G0 F6000 X111.338 Y107.944
G1 F1200 X108.659 Y105.265 E24.81779
G0 F6000 X108.659 Y104.699
G1 F1200 X111.338 Y107.379 E24.94382
G0 F6000 X111.338 Y106.813
G1 F1200 X108.659 Y104.134 E25.06983
G0 F6000 X108.659 Y103.568
G1 F1200 X111.338 Y106.247 E25.19585
G0 F6000 X111.338 Y105.682
G1 F1200 X108.659 Y103.002 E25.32188
G0 F6000 X108.659 Y102.437
G1 F1200 X111.338 Y105.115 E25.44787
G0 F6000 X111.338 Y104.549
G1 F1200 X108.659 Y101.871 E25.57386
G0 F6000 X108.659 Y101.305
G1 F1200 X111.338 Y103.984 E25.69987
G0 F6000 X111.338 Y103.418
G1 F1200 X108.659 Y100.74 E25.82586
G0 F6000 X108.659 Y100.174
G1 F1200 X111.338 Y102.852 E25.95185
G0 F6000 X111.338 Y102.287
G1 F1200 X108.659 Y99.608 E26.07786
G0 F6000 X108.659 Y99.043
G1 F1200 X111.338 Y101.721 E26.20385
G0 F6000 X111.338 Y101.155
G1 F1200 X108.659 Y98.477 E26.32984
G0 F6000 X108.659 Y97.911
G1 F1200 X111.338 Y100.59 E26.45585
G0 F6000 X111.337 Y100.023
G1 F1200 X108.659 Y97.345 E26.58181
G0 F6000 X108.659 Y96.78
G1 F1200 X111.337 Y99.458 E26.70778
G0 F6000 X111.337 Y98.892
G1 F1200 X108.659 Y96.214 E26.83374
G0 F6000 X108.659 Y95.648
G1 F1200 X111.337 Y98.326 E26.95971
G0 F6000 X111.337 Y97.761
G1 F1200 X108.737 Y95.161 E27.082
G0 F6000 X109.303 Y95.161
G1 F1200 X111.337 Y97.195 E27.17768
G0 F6000 X111.337 Y96.629
G1 F1200 X109.868 Y95.161 E27.24675
G0 F6000 X110.434 Y95.161
G1 F1200 X111.337 Y96.063 E27.2892
G0 F6000 X111.337 Y95.498
G1 F1200 X111 Y95.161 E27.30505
G1 F2700 E22.30505
G0 F6000 X111 Y94.701
G0 X112.055 Y94.758
G0 X112.069 Y130.431
G0 X122.93 Y130.431
G0 X123.202 Y95.375
G1 F2700 E27.30505
G0 F6000 X123.66 Y95.375
G1 F1200 X126.339 Y98.055 E27.43109
G0 F6000 X126.339 Y98.62
G1 F1200 X123.66 Y95.941 E27.5571
G0 F6000 X123.66 Y96.507
G1 F1200 X126.339 Y99.186 E27.68311
G0 F6000 X126.339 Y99.752
G1 F1200 X123.66 Y97.073 E27.80912
G0 F6000 X123.66 Y97.638
G1 F1200 X126.339 Y100.317 E27.93514
G0 F6000 X126.339 Y100.883
G1 F1200 X123.66 Y98.204 E28.06115
G0 F6000 X123.66 Y98.77
G1 F1200 X126.339 Y101.449 E28.18716
G0 F6000 X126.339 Y102.015
G1 F1200 X123.66 Y99.335 E28.31319
G0 F6000 X123.66 Y99.901
G1 F1200 X126.339 Y102.58 E28.43921
G0 F6000 X126.339 Y103.146
G1 F1200 X123.66 Y100.467 E28.56522
G0 F6000 X123.659 Y101.032
G1 F1200 X126.339 Y103.712 E28.69128
G0 F6000 X126.339 Y104.277
G1 F1200 X123.659 Y101.597 E28.81734
G0 F6000 X123.659 Y102.163
G1 F1200 X126.339 Y104.843 E28.9434
G0 F6000 X126.339 Y105.409
G1 F1200 X123.659 Y102.729 E29.06945
G0 F6000 X123.659 Y103.294
G1 F1200 X126.339 Y105.974 E29.19551
G0 F6000 X126.339 Y106.54
G1 F1200 X123.659 Y103.86 E29.32157
G0 F6000 X123.659 Y104.426
G1 F1200 X126.339 Y107.106 E29.44763
G0 F6000 X126.339 Y107.671
G1 F1200 X123.659 Y104.991 E29.57369
G0 F6000 X123.659 Y105.557
G1 F1200 X126.339 Y108.237 E29.69975
G0 F6000 X126.339 Y108.803
G1 F1200 X123.659 Y106.123 E29.82581
G0 F6000 X123.659 Y106.688
G1 F1200 X126.339 Y109.368 E29.95187
G0 F6000 X126.339 Y109.934
G1 F1200 X123.658 Y107.253 E30.07797
G0 F6000 X123.658 Y107.819
G1 F1200 X126.339 Y110.5 E30.20408
G0 F6000 X126.339 Y111.065
G1 F1200 X123.658 Y108.385 E30.33016
G0 F6000 X123.658 Y108.951
G1 F1200 X126.339 Y111.631 E30.45624
G0 F6000 X126.339 Y112.197
G1 F1200 X123.658 Y109.516 E30.58235
G0 F6000 X123.658 Y110.082
G1 F1200 X126.339 Y112.763 E30.70846
G0 F6000 X126.339 Y113.328
G1 F1200 X123.658 Y110.648 E30.83454
G0 F6000 X123.658 Y111.213
G1 F1200 X126.339 Y113.894 E30.96065
G0 F6000 X126.339 Y114.46
G1 F1200 X123.658 Y111.779 E31.08675
G0 F6000 X123.658 Y112.345
G1 F1200 X126.339 Y115.025 E31.21283
G0 F6000 X126.339 Y115.591
G1 F1200 X123.658 Y112.91 E31.33894
G0 F6000 X123.658 Y113.475
G1 F1200 X126.339 Y116.157 E31.46507
G0 F6000 X126.339 Y116.722
G1 F1200 X123.658 Y114.041 E31.59118
G0 F6000 X123.658 Y114.607
G1 F1200 X126.339 Y117.288 E31.71728
G0 F6000 X126.339 Y117.854
G1 F1200 X123.658 Y115.172 E31.84341
G0 F6000 X123.658 Y115.738
G1 F1200 X126.339 Y118.419 E31.96952
G0 F6000 X126.339 Y118.985
G1 F1200 X123.658 Y116.304 E32.09562
G0 F6000 X123.658 Y116.869
G1 F1200 X126.339 Y119.551 E32.22175
G0 F6000 X126.339 Y120.116
G1 F1200 X123.658 Y117.435 E32.34786
G0 F6000 X123.658 Y118.001
G1 F1200 X126.339 Y120.682 E32.47396
G0 F6000 X126.339 Y121.248
G1 F1200 X123.657 Y118.566 E32.60012
G0 F6000 X123.657 Y119.131
G1 F1200 X126.339 Y121.813 E32.72627
G0 F6000 X126.339 Y122.379
G1 F1200 X123.657 Y119.697 E32.85242
G0 F6000 X123.657 Y120.263
G1 F1200 X126.339 Y122.945 E32.97858
G0 F6000 X126.339 Y123.511
G1 F1200 X123.657 Y120.828 E33.10475
G0 F6000 X123.657 Y121.394
G1 F1200 X126.339 Y124.076 E33.23091
G0 F6000 X126.339 Y124.642
G1 F1200 X123.657 Y121.96 E33.35706
G0 F6000 X123.657 Y122.526
G1 F1200 X126.339 Y125.208 E33.48321
G0 F6000 X126.339 Y125.773
G1 F1200 X123.657 Y123.091 E33.60937
G0 F6000 X123.657 Y123.657
G1 F1200 X126.339 Y126.339 E33.73552
G0 F6000 X126.339 Y126.905
G1 F1200 X123.657 Y124.223 E33.86167
G0 F6000 X123.656 Y124.788
G1 F1200 X126.339 Y127.47 E33.98785
G0 F6000 X126.339 Y128.036
G1 F1200 X123.656 Y125.353 E34.11405
G0 F6000 X123.656 Y125.919
G1 F1200 X126.339 Y128.602 E34.24025
G0 F6000 X126.339 Y129.167
G1 F1200 X123.656 Y126.485 E34.36642
G0 F6000 X123.656 Y127.05
G1 F1200 X126.339 Y129.733 E34.49262
G0 F6000 X126.339 Y130.299
G1 F1200 X123.656 Y127.616 E34.61883
G0 F6000 X123.656 Y128.182
G1 F1200 X126.339 Y130.864 E34.745
G0 F6000 X126.339 Y131.43
G1 F1200 X123.656 Y128.747 E34.8712
G0 F6000 X123.656 Y129.313
G1 F1200 X126.339 Y131.996 E34.9974
G0 F6000 X126.339 Y132.562
G1 F1200 X123.656 Y129.879 E35.1236
G0 F6000 X123.593 Y130.382
G1 F1200 X126.05 Y132.838 E35.23915
G0 F6000 X125.484 Y132.838
G1 F1200 X123.384 Y130.738 E35.33793
G0 F6000 X123.077 Y130.997
G1 F1200 X124.918 Y132.838 E35.42452
G0 F6000 X124.353 Y132.838
G1 F1200 X122.671 Y131.156 E35.50364
G0 F6000 X122.107 Y131.158
G1 F1200 X123.787 Y132.838 E35.58266
G0 F6000 X123.221 Y132.838
G1 F1200 X121.541 Y131.158 E35.66168
G0 F6000 X120.976 Y131.158
G1 F1200 X122.656 Y132.838 E35.7407
G0 F6000 X122.09 Y132.838
G1 F1200 X120.411 Y131.159 E35.81968
G0 F6000 X119.845 Y131.159
G1 F1200 X121.524 Y132.838 E35.89865
G0 F6000 X120.959 Y132.838
G1 F1200 X119.279 Y131.159 E35.97765
G0 F6000 X118.714 Y131.159
G1 F1200 X120.393 Y132.838 E36.05663
G0 F6000 X119.827 Y132.838
G1 F1200 X118.149 Y131.159 E36.13558
G0 F6000 X117.583 Y131.159
G1 F1200 X119.262 Y132.838 E36.21455
G0 F6000 X118.696 Y132.838
G1 F1200 X117.018 Y131.16 E36.29348
G0 F6000 X116.452 Y131.16
G1 F1200 X118.13 Y132.838 E36.37241
G0 F6000 X117.564 Y132.838
G1 F1200 X115.887 Y131.16 E36.45131
G0 F6000 X115.322 Y131.161
G1 F1200 X116.999 Y132.838 E36.53019
G0 F6000 X116.433 Y132.838
G1 F1200 X114.756 Y131.161 E36.60908
G0 F6000 X114.19 Y131.161
G1 F1200 X115.867 Y132.838 E36.68796
G0 F6000 X115.302 Y132.838
G1 F1200 X113.625 Y131.161 E36.76684
G0 F6000 X113.06 Y131.161
G1 F1200 X114.736 Y132.838 E36.84569
G0 F6000 X114.17 Y132.838
G1 F1200 X112.494 Y131.161 E36.92455
G1 F2700 E31.92455
G0 F6000 X112.506 Y130.704
G0 X122.93 Y130.431
G0 X123.274 Y94.772
G0 X126.728 Y94.772
G0 X126.8 Y97.489
G1 F2700 E36.92455
G0 F6000 X126.339 Y97.489
G1 F1200 X124.01 Y95.16 E37.0341
G0 F6000 X124.575 Y95.16
G1 F1200 X126.339 Y96.923 E37.11705
G0 F6000 X126.339 Y96.358
G1 F1200 X125.141 Y95.16 E37.1734
G0 F6000 X125.707 Y95.16
G1 F1200 X126.339 Y95.792 E37.20313
G0 F6000 X126.339 Y95.226
G1 F1200 X126.273 Y95.16 E37.20623
G1 F2700 E32.20623
G0 F6000 X126.273 Y94.7
G0 X123.274 Y94.772
G0 X122.93 Y130.431
G0 X112.069 Y130.431
G0 X111.725 Y94.773
G0 X108.273 Y94.773
G0 X108.273 Y133.227
G0 X110.158 Y133.234
G0 X110.174 Y134.665
G0 X110.174 Y136.335
G0 X108.1 Y140.4
;TYPE:WALL-INNER
G1 F2700 E37.20623
G1 F1200 X126.9 Y140.4 E37.83152
G1 X126.9 Y139 E37.87809
G1 X126.9 Y137.6 E37.92465
G1 X108.1 Y137.6 E38.54994
G1 X108.1 Y140.4 E38.64307
G0 F6000 X107.7 Y140.8
;TYPE:WALL-OUTER
G1 F1200 X127.3 Y140.8 E39.29497
G1 X127.3 Y139 E39.35484
G1 X127.3 Y137.2 E39.41471
G1 X107.7 Y137.2 E40.0666
G1 X107.7 Y140.8 E40.18634
G0 F6000 X107.97 Y140.53
G0 X108.2 Y140.04
G0 X108.46 Y140.04
;TYPE:SKIN
G1 F1200 X126.54 Y140.04 E40.78768
G1 X126.54 Y137.96 E40.85687
G1 X108.46 Y137.96 E41.45821
G1 X108.46 Y140.04 E41.52739
G0 F6000 X108.66 Y139.773
G1 F1200 X108.726 Y139.838 E41.53047
G0 F6000 X109.291 Y139.838
G1 F1200 X108.66 Y139.207 E41.56015
G0 F6000 X108.66 Y138.641
G1 F1200 X109.857 Y139.838 E41.61645
G0 F6000 X110.423 Y139.838
G1 F1200 X108.743 Y138.159 E41.69545
G0 F6000 X109.309 Y138.159
G1 F1200 X110.988 Y139.838 E41.77443
G0 F6000 X111.554 Y139.838
G1 F1200 X109.875 Y138.159 E41.8534
G0 F6000 X110.44 Y138.159
G1 F1200 X112.12 Y139.838 E41.9324
G0 F6000 X112.685 Y139.838
G1 F1200 X111.006 Y138.159 E42.01138
G0 F6000 X111.572 Y138.159
G1 F1200 X113.251 Y139.838 E42.09035
G0 F6000 X113.817 Y139.838
G1 F1200 X112.137 Y138.159 E42.16935
G0 F6000 X112.703 Y138.159
G1 F1200 X114.383 Y139.838 E42.24835
G0 F6000 X114.948 Y139.838
G1 F1200 X113.269 Y138.159 E42.32732
G0 F6000 X113.834 Y138.159
G1 F1200 X115.514 Y139.838 E42.40632
G0 F6000 X116.08 Y139.838
G1 F1200 X114.4 Y138.159 E42.48532
G0 F6000 X114.966 Y138.159
G1 F1200 X116.645 Y139.838 E42.5643
G0 F6000 X117.211 Y139.838
G1 F1200 X115.532 Y138.159 E42.64327
G0 F6000 X116.097 Y138.159
G1 F1200 X117.777 Y139.838 E42.72227
G0 F6000 X118.342 Y139.838
G1 F1200 X116.663 Y138.159 E42.80124
G0 F6000 X117.229 Y138.159
G1 F1200 X118.908 Y139.838 E42.88022
G0 F6000 X119.474 Y139.838
G1 F1200 X117.794 Y138.159 E42.95922
G0 F6000 X118.36 Y138.159
G1 F1200 X120.039 Y139.838 E43.03819
G0 F6000 X120.605 Y139.838
G1 F1200 X118.926 Y138.159 E43.11717
G0 F6000 X119.491 Y138.159
G1 F1200 X121.171 Y139.838 E43.19617
G0 F6000 X121.736 Y139.838
G1 F1200 X120.057 Y138.159 E43.27514
G0 F6000 X120.623 Y138.159
G1 F1200 X122.302 Y139.838 E43.35412
G0 F6000 X122.868 Y139.838
G1 F1200 X121.188 Y138.159 E43.43311
G0 F6000 X121.754 Y138.159
G1 F1200 X123.433 Y139.838 E43.51209
G0 F6000 X123.999 Y139.838
G1 F1200 X122.32 Y138.159 E43.59106
G0 F6000 X122.885 Y138.159
G1 F1200 X124.565 Y139.838 E43.67006
G0 F6000 X125.131 Y139.838
G1 F1200 X123.451 Y138.159 E43.74906
G0 F6000 X124.017 Y138.159
G1 F1200 X125.696 Y139.838 E43.82804
G0 F6000 X126.262 Y139.838
G1 F1200 X124.583 Y138.159 E43.90701
G0 F6000 X125.148 Y138.159
G1 F1200 X126.34 Y139.35 E43.96306
G0 F6000 X126.34 Y138.785
G1 F1200 X125.714 Y138.159 E43.9925
G0 F6000 X126.28 Y138.159
G1 F1200 X126.34 Y138.219 E43.99532
G1 F2700 E38.99532
;MESH:NONMESH
G0 F300 X126.34 Y138.219 Z0.4
G0 F6000 X126.8 Y138.219
G0 X126.728 Y137.772
G0 X108.201 Y137.42
G0 X108.201 Y136.335
G0 X108.201 Y134.665
G0 X108.101 Y133.399
;TIME_ELAPSED:92.018226
;LAYER:1
M106 S85
;TYPE:WALL-INNER
;MESH:LETRA ??.stl
G1 F2700 E43.99532
G1 F1350 X126.9 Y133.4 E44.62058
G1 X126.9 Y96.499 E45.84791
G1 X126.9 Y94.6 E45.91107
G1 X123.102 Y94.6 E46.0374
G1 X123.102 Y130.112 E47.21853
G1 X123.024 Y130.3 E47.2253
G1 X122.907 Y130.447 E47.23155
G1 X122.579 Y130.603 E47.24363
G1 X112.497 Y130.603 E47.57896
G1 X112.272 Y130.56 E47.58658
G1 X112.092 Y130.447 E47.59365
G1 X111.975 Y130.3 E47.59989
G1 X111.897 Y130.11 E47.60673
G1 X111.897 Y94.601 E48.78776
G1 X108.101 Y94.601 E48.91401
G1 X108.101 Y133.399 E50.20444
G0 F7500 X107.701 Y133.799
;TYPE:WALL-OUTER
G1 F1350 X127.3 Y133.8 E50.85631
G1 X127.3 Y96.499 E52.09694
G1 X127.3 Y94.2 E52.17341
G1 X122.702 Y94.2 E52.32634
G1 X122.7 Y130.038 E53.51832
G1 X122.637 Y130.151 E53.52262
G1 X122.537 Y130.201 E53.52634
G1 X112.444 Y130.203 E53.86203
G1 X112.362 Y130.151 E53.86526
G1 X112.299 Y130.038 E53.86956
G1 X112.297 Y94.201 E55.06151
G1 X107.701 Y94.201 E55.21437
G1 X107.701 Y133.799 E56.53141
G0 F7500 X107.97 Y133.53
G0 X108.201 Y133.039
G0 X108.461 Y133.039
;TYPE:SKIN
G1 F1350 X126.54 Y133.04 E57.13272
G1 X126.54 Y96.499 E58.34807
G1 X126.54 Y94.96 E58.39926
G1 X123.462 Y94.96 E58.50164
G1 X123.46 Y130.177 E59.67296
G1 X123.351 Y130.455 E59.68289
G1 X123.151 Y130.715 E59.6938
G1 X122.864 Y130.895 E59.70507
G1 X122.634 Y130.961 E59.71303
G1 X112.463 Y130.96 E60.05132
G1 X112.139 Y130.898 E60.06229
G1 X111.847 Y130.714 E60.07377
G1 X111.66 Y130.478 E60.08378
G1 X111.539 Y130.165 E60.09494
G1 X111.537 Y94.961 E61.26583
G1 X108.461 Y94.961 E61.36814
G1 X108.461 Y133.039 E62.63462
G0 F7500 X108.201 Y133.039
G0 X126.244 Y133.3
G0 X126.244 Y132.839
G1 F1350 X126.339 Y132.744 E62.63909
G0 F7500 X126.339 Y132.178
G1 F1350 X125.679 Y132.839 E62.67016
G0 F7500 X125.113 Y132.839
G1 F1350 X126.339 Y131.613 E62.72782
G0 F7500 X126.339 Y131.047
G1 F1350 X124.547 Y132.839 E62.81211
G0 F7500 X123.981 Y132.839
G1 F1350 X126.339 Y130.481 E62.92303
G0 F7500 X126.339 Y129.916
G1 F1350 X123.416 Y132.839 E63.06052
G0 F7500 X122.85 Y132.839
G1 F1350 X126.339 Y129.35 E63.22463
G0 F7500 X126.339 Y128.784
G1 F1350 X122.284 Y132.839 E63.41536
G0 F7500 X121.719 Y132.839
G1 F1350 X126.339 Y128.218 E63.6327
G0 F7500 X126.339 Y127.653
G1 F1350 X123.583 Y130.409 E63.76233
G0 F7500 X123.657 Y129.769
G1 F1350 X126.339 Y127.087 E63.88848
G0 F7500 X126.339 Y126.521
G1 F1350 X123.657 Y129.203 E64.01464
G0 F7500 X123.657 Y128.638
G1 F1350 X126.339 Y125.956 E64.14079
G0 F7500 X126.339 Y125.39
G1 F1350 X123.657 Y128.072 E64.26694
G0 F7500 X123.657 Y127.506
G1 F1350 X126.339 Y124.824 E64.3931
G0 F7500 X126.339 Y124.259
G1 F1350 X123.657 Y126.941 E64.51925
G0 F7500 X123.657 Y126.375
G1 F1350 X126.339 Y123.693 E64.6454
G0 F7500 X126.339 Y123.127
G1 F1350 X123.657 Y125.809 E64.77156
G0 F7500 X123.657 Y125.244
G1 F1350 X126.339 Y122.562 E64.89771
G0 F7500 X126.339 Y121.996
G1 F1350 X123.657 Y124.678 E65.02386
G0 F7500 X123.658 Y124.112
G1 F1350 X126.339 Y121.43 E65.14999
G0 F7500 X126.339 Y120.865
G1 F1350 X123.658 Y123.546 E65.2761
G0 F7500 X123.658 Y122.98
G1 F1350 X126.339 Y120.299 E65.4022
G0 F7500 X126.339 Y119.733
G1 F1350 X123.658 Y122.415 E65.52833
G0 F7500 X123.658 Y121.849
G1 F1350 X126.339 Y119.167 E65.65446
G0 F7500 X126.339 Y118.602
G1 F1350 X123.658 Y121.283 E65.78057
G0 F7500 X123.658 Y120.717
G1 F1350 X126.339 Y118.036 E65.90667
G0 F7500 X126.339 Y117.47
G1 F1350 X123.658 Y120.152 E66.0328
G0 F7500 X123.658 Y119.586
G1 F1350 X126.339 Y116.905 E66.15891
G0 F7500 X126.339 Y116.339
G1 F1350 X123.658 Y119.02 E66.28502
G0 F7500 X123.658 Y118.454
G1 F1350 X126.339 Y115.773 E66.41112
G0 F7500 X126.339 Y115.208
G1 F1350 X123.658 Y117.888 E66.5372
G0 F7500 X123.658 Y117.323
G1 F1350 X126.339 Y114.642 E66.66331
G0 F7500 X126.339 Y114.076
G1 F1350 X123.658 Y116.757 E66.78942
G0 F7500 X123.658 Y116.191
G1 F1350 X126.339 Y113.511 E66.9155
G0 F7500 X126.339 Y112.945
G1 F1350 X123.658 Y115.626 E67.0416
G0 F7500 X123.658 Y115.06
G1 F1350 X126.339 Y112.379 E67.16771
G0 F7500 X126.339 Y111.814
G1 F1350 X123.658 Y114.494 E67.29379
G0 F7500 X123.658 Y113.929
G1 F1350 X126.339 Y111.248 E67.4199
G0 F7500 X126.339 Y110.682
G1 F1350 X123.658 Y113.363 E67.54601
G0 F7500 X123.658 Y112.797
G1 F1350 X126.339 Y110.117 E67.67209
G0 F7500 X126.339 Y109.551
G1 F1350 X123.659 Y112.231 E67.79815
G0 F7500 X123.659 Y111.665
G1 F1350 X126.339 Y108.985 E67.92421
G0 F7500 X126.339 Y108.419
G1 F1350 X123.659 Y111.099 E68.05026
G0 F7500 X123.659 Y110.534
G1 F1350 X126.339 Y107.854 E68.17632
G0 F7500 X126.339 Y107.288
G1 F1350 X123.659 Y109.968 E68.30238
G0 F7500 X123.659 Y109.402
G1 F1350 X126.339 Y106.722 E68.42844
G0 F7500 X126.339 Y106.157
G1 F1350 X123.659 Y108.837 E68.5545
G0 F7500 X123.659 Y108.271
G1 F1350 X126.339 Y105.591 E68.68056
G0 F7500 X126.339 Y105.025
G1 F1350 X123.659 Y107.705 E68.80662
G0 F7500 X123.659 Y107.14
G1 F1350 X126.339 Y104.46 E68.93268
G0 F7500 X126.339 Y103.894
G1 F1350 X123.66 Y106.573 E69.05869
G0 F7500 X123.66 Y106.008
G1 F1350 X126.339 Y103.328 E69.18472
G0 F7500 X126.339 Y102.763
G1 F1350 X123.66 Y105.442 E69.31074
G0 F7500 X123.66 Y104.876
G1 F1350 X126.339 Y102.197 E69.43675
G0 F7500 X126.339 Y101.631
G1 F1350 X123.66 Y104.31 E69.56276
G0 F7500 X123.66 Y103.745
G1 F1350 X126.339 Y101.066 E69.68877
G0 F7500 X126.339 Y100.5
G1 F1350 X123.66 Y103.179 E69.81478
G0 F7500 X123.66 Y102.613
G1 F1350 X126.339 Y99.934 E69.9408
G0 F7500 X126.339 Y99.369
G1 F1350 X123.66 Y102.048 E70.06681
G0 F7500 X123.66 Y101.482
G1 F1350 X126.339 Y98.803 E70.19282
G0 F7500 X126.339 Y98.237
G1 F1350 X123.66 Y100.916 E70.31883
G0 F7500 X123.66 Y100.35
G1 F1350 X126.339 Y97.671 E70.44484
G0 F7500 X126.339 Y97.106
G1 F1350 X123.66 Y99.784 E70.57083
G0 F7500 X123.66 Y99.219
G1 F1350 X126.339 Y96.54 E70.69684
G0 F7500 X126.339 Y95.974
G1 F1350 X123.66 Y98.653 E70.82286
G0 F7500 X123.66 Y98.087
G1 F1350 X126.339 Y95.409 E70.94885
G0 F7500 X126.022 Y95.16
G1 F1350 X123.66 Y97.522 E71.05995
G0 F7500 X123.66 Y96.956
G1 F1350 X125.457 Y95.16 E71.14445
G0 F7500 X124.891 Y95.16
G1 F1350 X123.66 Y96.39 E71.20233
G0 F7500 X123.66 Y95.824
G1 F1350 X124.325 Y95.16 E71.23358
G0 F7500 X123.759 Y95.16
G1 F1350 X123.66 Y95.259 E71.23824
G1 F2700 E66.23824
G0 F7500 X123.202 Y95.259
G0 X122.93 Y130.431
G0 X112.069 Y130.431
G0 X111.797 Y95.704
G1 F2700 E71.23824
G0 F7500 X111.336 Y95.704
G1 F1350 X108.66 Y98.38 E71.36411
G0 F7500 X108.66 Y98.946
G1 F1350 X111.336 Y96.269 E71.49
G0 F7500 X111.336 Y96.835
G1 F1350 X108.66 Y99.511 E71.61588
G0 F7500 X108.66 Y100.077
G1 F1350 X111.336 Y97.401 E71.74175
G0 F7500 X111.336 Y97.966
G1 F1350 X108.66 Y100.643 E71.86764
G0 F7500 X108.66 Y101.208
G1 F1350 X111.336 Y98.532 E71.99351
G0 F7500 X111.336 Y99.098
G1 F1350 X108.66 Y101.774 E72.11938
G0 F7500 X108.66 Y102.34
G1 F1350 X111.336 Y99.663 E72.24528
G0 F7500 X111.337 Y100.228
G1 F1350 X108.66 Y102.905 E72.37119
G0 F7500 X108.66 Y103.471
G1 F1350 X111.337 Y100.794 E72.49711
G0 F7500 X111.337 Y101.36
G1 F1350 X108.66 Y104.037 E72.62303
G0 F7500 X108.66 Y104.603
G1 F1350 X111.337 Y101.925 E72.74897
G0 F7500 X111.337 Y102.491
G1 F1350 X108.66 Y105.168 E72.87489
G0 F7500 X108.66 Y105.734
G1 F1350 X111.337 Y103.057 E73.00081
G0 F7500 X111.337 Y103.622
G1 F1350 X108.66 Y106.3 E73.12675
G0 F7500 X108.66 Y106.865
G1 F1350 X111.337 Y104.188 E73.25267
G0 F7500 X111.337 Y104.754
G1 F1350 X108.66 Y107.431 E73.37858
G0 F7500 X108.66 Y107.997
G1 F1350 X111.338 Y105.319 E73.50455
G0 F7500 X111.338 Y105.884
G1 F1350 X108.66 Y108.562 E73.63051
G0 F7500 X108.66 Y109.128
G1 F1350 X111.338 Y106.45 E73.75648
G0 F7500 X111.338 Y107.016
G1 F1350 X108.66 Y109.694 E73.88244
G0 F7500 X108.66 Y110.259
G1 F1350 X111.338 Y107.582 E74.00839
G0 F7500 X111.338 Y108.147
G1 F1350 X108.66 Y110.825 E74.13435
G0 F7500 X108.66 Y111.391
G1 F1350 X111.338 Y108.713 E74.26032
G0 F7500 X111.338 Y109.279
G1 F1350 X108.66 Y111.956 E74.38626
G0 F7500 X108.66 Y112.522
G1 F1350 X111.338 Y109.844 E74.51222
G0 F7500 X111.338 Y110.409
G1 F1350 X108.66 Y113.088 E74.63821
G0 F7500 X108.66 Y113.653
G1 F1350 X111.338 Y110.975 E74.76418
G0 F7500 X111.338 Y111.541
G1 F1350 X108.661 Y114.218 E74.89009
G0 F7500 X108.661 Y114.784
G1 F1350 X111.338 Y112.106 E75.01603
G0 F7500 X111.338 Y112.672
G1 F1350 X108.661 Y115.35 E75.14198
G0 F7500 X108.661 Y115.916
G1 F1350 X111.338 Y113.238 E75.26792
G0 F7500 X111.338 Y113.803
G1 F1350 X108.661 Y116.481 E75.39386
G0 F7500 X108.661 Y117.047
G1 F1350 X111.338 Y114.369 E75.5198
G0 F7500 X111.338 Y114.935
G1 F1350 X108.661 Y117.613 E75.64574
G0 F7500 X108.661 Y118.178
G1 F1350 X111.339 Y115.5 E75.77171
G0 F7500 X111.339 Y116.065
G1 F1350 X108.661 Y118.744 E75.89769
G0 F7500 X108.661 Y119.31
G1 F1350 X111.339 Y116.631 E76.02368
G0 F7500 X111.339 Y117.197
G1 F1350 X108.661 Y119.875 E76.14965
G0 F7500 X108.661 Y120.441
G1 F1350 X111.339 Y117.762 E76.27564
G0 F7500 X111.339 Y118.328
G1 F1350 X108.661 Y121.007 E76.40163
G0 F7500 X108.661 Y121.572
G1 F1350 X111.339 Y118.894 E76.52759
G0 F7500 X111.339 Y119.46
G1 F1350 X108.661 Y122.138 E76.65356
G0 F7500 X108.661 Y122.704
G1 F1350 X111.339 Y120.025 E76.77954
G0 F7500 X111.34 Y120.59
G1 F1350 X108.661 Y123.269 E76.90556
G0 F7500 X108.661 Y123.835
G1 F1350 X111.34 Y121.156 E77.03157
G0 F7500 X111.34 Y121.722
G1 F1350 X108.661 Y124.401 E77.15758
G0 F7500 X108.661 Y124.966
G1 F1350 X111.34 Y122.287 E77.28359
G0 F7500 X111.34 Y122.853
G1 F1350 X108.661 Y125.532 E77.4096
G0 F7500 X108.661 Y126.098
G1 F1350 X111.34 Y123.419 E77.53562
G0 F7500 X111.34 Y123.984
G1 F1350 X108.661 Y126.664 E77.66165
G0 F7500 X108.661 Y127.229
G1 F1350 X111.34 Y124.55 E77.78766
G0 F7500 X111.34 Y125.116
G1 F1350 X108.661 Y127.795 E77.91367
G0 F7500 X108.661 Y128.361
G1 F1350 X111.341 Y125.681 E78.03973
G0 F7500 X111.341 Y126.246
G1 F1350 X108.661 Y128.926 E78.16579
G0 F7500 X108.661 Y129.492
G1 F1350 X111.341 Y126.812 E78.29185
G0 F7500 X111.341 Y127.378
G1 F1350 X108.661 Y130.058 E78.41791
G0 F7500 X108.661 Y130.623
G1 F1350 X111.341 Y127.943 E78.54397
G0 F7500 X111.341 Y128.509
G1 F1350 X108.661 Y131.189 E78.67003
G0 F7500 X108.661 Y131.755
G1 F1350 X111.341 Y129.075 E78.79609
G0 F7500 X111.341 Y129.64
G1 F1350 X108.661 Y132.32 E78.92215
G0 F7500 X108.708 Y132.839
G1 F1350 X111.341 Y130.206 E79.04599
G0 F7500 X111.507 Y130.605
G1 F1350 X109.274 Y132.839 E79.15105
G0 F7500 X109.839 Y132.839
G1 F1350 X111.775 Y130.903 E79.24212
G0 F7500 X112.143 Y131.101
G1 F1350 X110.405 Y132.839 E79.32387
G0 F7500 X110.971 Y132.839
G1 F1350 X112.649 Y131.161 E79.40279
G0 F7500 X113.214 Y131.161
G1 F1350 X111.536 Y132.839 E79.48172
G0 F7500 X112.102 Y132.839
G1 F1350 X113.78 Y131.161 E79.56065
G0 F7500 X114.346 Y131.16
G1 F1350 X112.668 Y132.839 E79.6396
G0 F7500 X113.233 Y132.839
G1 F1350 X114.912 Y131.16 E79.71858
G0 F7500 X115.478 Y131.16
G1 F1350 X113.799 Y132.839 E79.79755
G0 F7500 X114.365 Y132.839
G1 F1350 X116.044 Y131.159 E79.87655
G0 F7500 X116.61 Y131.159
G1 F1350 X114.931 Y132.839 E79.95555
G0 F7500 X115.496 Y132.839
G1 F1350 X117.176 Y131.159 E80.03457
G0 F7500 X117.742 Y131.159
G1 F1350 X116.062 Y132.839 E80.11359
G0 F7500 X116.628 Y132.839
G1 F1350 X118.308 Y131.159 E80.19261
G0 F7500 X118.873 Y131.159
G1 F1350 X117.193 Y132.839 E80.27164
G0 F7500 X117.759 Y132.839
G1 F1350 X119.44 Y131.158 E80.35071
G0 F7500 X120.005 Y131.158
G1 F1350 X118.325 Y132.839 E80.42975
G0 F7500 X118.89 Y132.839
G1 F1350 X120.571 Y131.158 E80.50882
G0 F7500 X121.137 Y131.157
G1 F1350 X119.456 Y132.839 E80.58791
G0 F7500 X120.022 Y132.839
G1 F1350 X121.703 Y131.157 E80.667
G0 F7500 X122.269 Y131.157
G1 F1350 X120.587 Y132.839 E80.74612
G0 F7500 X121.153 Y132.839
G1 F1350 X122.9 Y131.091 E80.82832
G1 F2700 E75.82832
G0 F7500 X122.761 Y130.655
G0 X112.069 Y130.431
G0 X111.725 Y94.773
G0 X108.273 Y94.773
G0 X108.201 Y97.814
G1 F2700 E80.82832
G0 F7500 X108.66 Y97.814
G1 F1350 X111.314 Y95.161 E80.95313
G0 F7500 X110.748 Y95.161
G1 F1350 X108.66 Y97.249 E81.05134
G0 F7500 X108.66 Y96.683
G1 F1350 X110.182 Y95.161 E81.12293
G0 F7500 X109.617 Y95.161
G1 F1350 X108.66 Y96.117 E81.16792
G0 F7500 X108.66 Y95.552
G1 F1350 X109.051 Y95.161 E81.18632
G1 F2700 E76.18632
G0 F7500 X109.051 Y94.701
G0 X108.273 Y94.773
G0 X108.1 Y133.58
G0 X108.1 Y134.665
G0 X108.1 Y136.335
G0 X108.1 Y140.4
;TYPE:WALL-INNER
G1 F2700 E81.18632
G1 F1350 X126.9 Y140.4 E81.81161
G1 X126.9 Y139 E81.85817
G1 X126.9 Y137.6 E81.90474
G1 X108.1 Y137.6 E82.53003
G1 X108.1 Y140.4 E82.62315
G0 F7500 X107.7 Y140.8
;TYPE:WALL-OUTER
G1 F1350 X127.3 Y140.8 E83.27505
G1 X127.3 Y139 E83.33492
G1 X127.3 Y137.2 E83.39479
G1 X107.7 Y137.2 E84.04669
G1 X107.7 Y140.8 E84.16642
G0 F7500 X107.97 Y140.53
G0 X108.2 Y140.04
G0 X108.46 Y140.04
;TYPE:SKIN
G1 F1350 X126.54 Y140.04 E84.76777
G1 X126.54 Y139 E84.80236
G1 X126.54 Y137.96 E84.83695
G1 X108.46 Y137.96 E85.43829
G1 X108.46 Y140.04 E85.50747
G0 F7500 X108.2 Y140.04
G0 X108.2 Y138.544
G0 X108.66 Y138.544
G1 F1350 X109.045 Y138.159 E85.52558
G0 F7500 X109.61 Y138.159
G1 F1350 X108.66 Y139.109 E85.57027
G0 F7500 X108.66 Y139.675
G1 F1350 X110.176 Y138.159 E85.64158
G0 F7500 X110.742 Y138.159
G1 F1350 X109.062 Y139.839 E85.7206
G0 F7500 X109.627 Y139.839
G1 F1350 X111.307 Y138.159 E85.79962
G0 F7500 X111.873 Y138.159
G1 F1350 X110.193 Y139.839 E85.87864
G0 F7500 X110.759 Y139.839
G1 F1350 X112.439 Y138.159 E85.95766
G0 F7500 X113.004 Y138.159
G1 F1350 X111.324 Y139.839 E86.03669
G0 F7500 X111.89 Y139.839
G1 F1350 X113.57 Y138.159 E86.11571
G0 F7500 X114.136 Y138.159
G1 F1350 X112.456 Y139.839 E86.19473
G0 F7500 X113.021 Y139.839
G1 F1350 X114.701 Y138.159 E86.27375
G0 F7500 X115.267 Y138.159
G1 F1350 X113.587 Y139.839 E86.35277
G0 F7500 X114.153 Y139.839
G1 F1350 X115.833 Y138.159 E86.4318
G0 F7500 X116.398 Y138.159
G1 F1350 X114.718 Y139.839 E86.51082
G0 F7500 X115.284 Y139.839
G1 F1350 X116.964 Y138.159 E86.58984
G0 F7500 X117.53 Y138.159
G1 F1350 X115.85 Y139.839 E86.66886
G0 F7500 X116.415 Y139.839
G1 F1350 X118.096 Y138.159 E86.74791
G0 F7500 X118.661 Y138.159
G1 F1350 X116.981 Y139.839 E86.82693
G0 F7500 X117.547 Y139.839
G1 F1350 X119.227 Y138.159 E86.90595
G0 F7500 X119.793 Y138.159
G1 F1350 X118.112 Y139.839 E86.985
G0 F7500 X118.678 Y139.839
G1 F1350 X120.358 Y138.159 E87.06402
G0 F7500 X120.924 Y138.159
G1 F1350 X119.244 Y139.839 E87.14304
G0 F7500 X119.81 Y139.839
G1 F1350 X121.49 Y138.159 E87.22206
G0 F7500 X122.055 Y138.159
G1 F1350 X120.375 Y139.839 E87.30109
G0 F7500 X120.941 Y139.839
G1 F1350 X122.621 Y138.159 E87.38011
G0 F7500 X123.187 Y138.159
G1 F1350 X121.507 Y139.839 E87.45913
G0 F7500 X122.072 Y139.839
G1 F1350 X123.752 Y138.159 E87.53815
G0 F7500 X124.318 Y138.159
G1 F1350 X122.638 Y139.839 E87.61717
G0 F7500 X123.204 Y139.839
G1 F1350 X124.884 Y138.159 E87.6962
G0 F7500 X125.449 Y138.159
G1 F1350 X123.769 Y139.839 E87.77522
G0 F7500 X124.335 Y139.839
G1 F1350 X126.015 Y138.159 E87.85424
G0 F7500 X126.339 Y138.401
G1 F1350 X124.901 Y139.839 E87.92188
G0 F7500 X125.466 Y139.839
G1 F1350 X126.339 Y138.966 E87.96294
G0 F7500 X126.339 Y139.532
G1 F1350 X126.032 Y139.839 E87.97738
G1 F2700 E82.97738
;MESH:NONMESH
G0 F300 X126.032 Y139.839 Z0.6
G0 F7500 X126.032 Y140.3
G0 X126.728 Y140.228
G0 X126.728 Y137.772
G0 X108.201 Y137.42
G0 X108.201 Y136.335
G0 X108.201 Y134.665
G0 X108.101 Y133.399
;TIME_ELAPSED:172.196659
;LAYER:2
M106 S170
;TYPE:WALL-INNER
;MESH:LETRA ??.stl
G1 F2700 E87.97738
G1 F1500 X126.9 Y133.4 E88.60264
G1 X126.9 Y96.499 E89.82997
G1 X126.9 Y94.6 E89.89313
G1 X123.102 Y94.6 E90.01945
G1 X123.102 Y130.112 E91.20059
G1 X123.024 Y130.3 E91.20736
G1 X122.907 Y130.447 E91.21361
G1 X122.579 Y130.603 E91.22569
G1 X112.497 Y130.603 E91.56102
G1 X112.272 Y130.56 E91.56864
G1 X112.092 Y130.447 E91.5757
G1 X111.975 Y130.3 E91.58195
G1 X111.897 Y130.11 E91.58878
G1 X111.897 Y94.601 E92.76982
G1 X108.101 Y94.601 E92.89607
G1 X108.101 Y133.399 E94.1865
G0 F9000 X107.701 Y133.799
;TYPE:WALL-OUTER
G1 F1500 X127.3 Y133.8 E94.83837
G1 X127.3 Y96.499 E96.079
G1 X127.3 Y94.2 E96.15547
G1 X122.702 Y94.2 E96.3084
G1 X122.7 Y130.038 E97.50037
G1 X122.637 Y130.151 E97.50468
G1 X122.537 Y130.201 E97.5084
G1 X112.444 Y130.203 E97.84409
G1 X112.362 Y130.151 E97.84732
G1 X112.299 Y130.038 E97.85162
G1 X112.297 Y94.201 E99.04357
G1 X107.701 Y94.201 E99.19643
G1 X107.701 Y133.799 E100.51346
G0 F9000 X107.97 Y133.53
G0 X108.201 Y133.039
G0 X108.461 Y133.039
;TYPE:SKIN
G1 F1500 X126.54 Y133.04 E101.11477
G1 X126.54 Y96.499 E102.33013
G1 X126.54 Y94.96 E102.38132
G1 X123.462 Y94.96 E102.4837
G1 X123.46 Y130.177 E103.65502
G1 X123.351 Y130.455 E103.66495
G1 X123.151 Y130.715 E103.67586
G1 X122.864 Y130.895 E103.68713
G1 X122.634 Y130.961 E103.69509
G1 X112.463 Y130.96 E104.03337
G1 X112.139 Y130.898 E104.04435
G1 X111.847 Y130.714 E104.05583
G1 X111.66 Y130.478 E104.06584
G1 X111.539 Y130.165 E104.077
G1 X111.537 Y94.961 E105.24789
G1 X108.461 Y94.961 E105.3502
G1 X108.461 Y133.039 E106.61668
G0 F9000 X109.079 Y132.838
G1 F1500 X108.66 Y132.419 E106.63639
G0 F9000 X108.66 Y131.853
G1 F1500 X109.645 Y132.838 E106.68272
G0 F9000 X110.211 Y132.838
G1 F1500 X108.66 Y131.287 E106.75567
G0 F9000 X108.66 Y130.722
G1 F1500 X110.776 Y132.838 E106.8552
G0 F9000 X111.342 Y132.838
G1 F1500 X108.66 Y130.156 E106.98136
G0 F9000 X108.66 Y129.59
G1 F1500 X111.908 Y132.838 E107.13413
G0 F9000 X112.473 Y132.838
G1 F1500 X108.66 Y129.025 E107.31348
G0 F9000 X108.66 Y128.459
G1 F1500 X113.039 Y132.838 E107.51946
G0 F9000 X113.605 Y132.838
G1 F1500 X108.66 Y127.893 E107.75206
G0 F9000 X108.66 Y127.328
G1 F1500 X111.341 Y130.009 E107.87816
G0 F9000 X111.341 Y129.443
G1 F1500 X108.66 Y126.762 E108.00427
G0 F9000 X108.66 Y126.196
G1 F1500 X111.341 Y128.877 E108.13037
G0 F9000 X111.341 Y128.312
G1 F1500 X108.66 Y125.63 E108.2565
G0 F9000 X108.66 Y125.065
G1 F1500 X111.341 Y127.746 E108.38261
G0 F9000 X111.341 Y127.18
G1 F1500 X108.66 Y124.499 E108.50872
G0 F9000 X108.66 Y123.933
G1 F1500 X111.341 Y126.615 E108.63485
G0 F9000 X111.341 Y126.049
G1 F1500 X108.66 Y123.368 E108.76095
G0 F9000 X108.66 Y122.802
G1 F1500 X111.341 Y125.483 E108.88706
G0 F9000 X111.341 Y124.917
G1 F1500 X108.66 Y122.236 E109.01316
G0 F9000 X108.66 Y121.671
G1 F1500 X111.341 Y124.351 E109.13925
G0 F9000 X111.341 Y123.786
G1 F1500 X108.66 Y121.105 E109.26535
G0 F9000 X108.66 Y120.539
G1 F1500 X111.341 Y123.22 E109.39146
G0 F9000 X111.341 Y122.654
G1 F1500 X108.66 Y119.974 E109.51754
G0 F9000 X108.66 Y119.408
G1 F1500 X111.341 Y122.089 E109.64365
G0 F9000 X111.341 Y121.523
G1 F1500 X108.66 Y118.842 E109.76975
G0 F9000 X108.66 Y118.277
G1 F1500 X111.341 Y120.957 E109.89584
G0 F9000 X111.341 Y120.392
G1 F1500 X108.66 Y117.711 E110.02194
G0 F9000 X108.66 Y117.145
G1 F1500 X111.34 Y119.825 E110.148
G0 F9000 X111.34 Y119.259
G1 F1500 X108.66 Y116.579 E110.27406
G0 F9000 X108.66 Y116.014
G1 F1500 X111.34 Y118.694 E110.40012
G0 F9000 X111.34 Y118.128
G1 F1500 X108.66 Y115.448 E110.52618
G0 F9000 X108.66 Y114.882
G1 F1500 X111.34 Y117.562 E110.65224
G0 F9000 X111.34 Y116.997
G1 F1500 X108.66 Y114.317 E110.7783
G0 F9000 X108.659 Y113.75
G1 F1500 X111.34 Y116.431 E110.9044
G0 F9000 X111.34 Y115.865
G1 F1500 X108.659 Y113.185 E111.03048
G0 F9000 X108.659 Y112.619
G1 F1500 X111.34 Y115.3 E111.15659
G0 F9000 X111.339 Y114.733
G1 F1500 X108.659 Y112.053 E111.28265
G0 F9000 X108.659 Y111.488
G1 F1500 X111.339 Y114.168 E111.40871
G0 F9000 X111.339 Y113.602
G1 F1500 X108.659 Y110.922 E111.53477
G0 F9000 X108.659 Y110.356
G1 F1500 X111.339 Y113.036 E111.66083
G0 F9000 X111.339 Y112.47
G1 F1500 X108.659 Y109.791 E111.78686
G0 F9000 X108.659 Y109.225
G1 F1500 X111.339 Y111.905 E111.91292
G0 F9000 X111.339 Y111.339
G1 F1500 X108.659 Y108.659 E112.03898
G0 F9000 X108.659 Y108.093
G1 F1500 X111.339 Y110.773 E112.16504
G0 F9000 X111.339 Y110.208
G1 F1500 X108.659 Y107.528 E112.2911
G0 F9000 X108.659 Y106.962
G1 F1500 X111.338 Y109.641 E112.41711
G0 F9000 X111.338 Y109.076
G1 F1500 X108.659 Y106.396 E112.54314
G0 F9000 X108.659 Y105.831
G1 F1500 X111.338 Y108.51 E112.66916
G0 F9000 X111.338 Y107.944
G1 F1500 X108.659 Y105.265 E112.79517
G0 F9000 X108.659 Y104.699
G1 F1500 X111.338 Y107.379 E112.9212
G0 F9000 X111.338 Y106.813
G1 F1500 X108.659 Y104.134 E113.04722
G0 F9000 X108.659 Y103.568
G1 F1500 X111.338 Y106.247 E113.17323
G0 F9000 X111.338 Y105.682
G1 F1500 X108.659 Y103.002 E113.29926
G0 F9000 X108.659 Y102.437
G1 F1500 X111.338 Y105.115 E113.42525
G0 F9000 X111.338 Y104.549
G1 F1500 X108.659 Y101.871 E113.55124
G0 F9000 X108.659 Y101.305
G1 F1500 X111.338 Y103.984 E113.67725
G0 F9000 X111.338 Y103.418
G1 F1500 X108.659 Y100.74 E113.80324
G0 F9000 X108.659 Y100.174
G1 F1500 X111.338 Y102.852 E113.92923
G0 F9000 X111.338 Y102.287
G1 F1500 X108.659 Y99.608 E114.05524
G0 F9000 X108.659 Y99.043
G1 F1500 X111.338 Y101.721 E114.18123
G0 F9000 X111.338 Y101.155
G1 F1500 X108.659 Y98.477 E114.30722
G0 F9000 X108.659 Y97.911
G1 F1500 X111.338 Y100.59 E114.43323
G0 F9000 X111.337 Y100.023
G1 F1500 X108.659 Y97.345 E114.55919
G0 F9000 X108.659 Y96.78
G1 F1500 X111.337 Y99.458 E114.68516
G0 F9000 X111.337 Y98.892
G1 F1500 X108.659 Y96.214 E114.81112
G0 F9000 X108.659 Y95.648
G1 F1500 X111.337 Y98.326 E114.93709
G0 F9000 X111.337 Y97.761
G1 F1500 X108.737 Y95.161 E115.05939
G0 F9000 X109.303 Y95.161
G1 F1500 X111.337 Y97.195 E115.15506
G0 F9000 X111.337 Y96.629
G1 F1500 X109.868 Y95.161 E115.22413
G0 F9000 X110.434 Y95.161
G1 F1500 X111.337 Y96.063 E115.26658
G0 F9000 X111.337 Y95.498
G1 F1500 X111 Y95.161 E115.28243
G1 F2700 E110.28243
G0 F9000 X111 Y94.701
G0 X112.055 Y94.758
G0 X112.069 Y130.431
G0 X122.93 Y130.431
G0 X123.202 Y95.375
G1 F2700 E115.28243
G0 F9000 X123.66 Y95.375
G1 F1500 X126.339 Y98.055 E115.40847
G0 F9000 X126.339 Y98.62
G1 F1500 X123.66 Y95.941 E115.53448
G0 F9000 X123.66 Y96.507
G1 F1500 X126.339 Y99.186 E115.66049
G0 F9000 X126.339 Y99.752
G1 F1500 X123.66 Y97.073 E115.78651
G0 F9000 X123.66 Y97.638
G1 F1500 X126.339 Y100.317 E115.91252
G0 F9000 X126.339 Y100.883
G1 F1500 X123.66 Y98.204 E116.03853
G0 F9000 X123.66 Y98.77
G1 F1500 X126.339 Y101.449 E116.16454
G0 F9000 X126.339 Y102.015
G1 F1500 X123.66 Y99.335 E116.29058
G0 F9000 X123.66 Y99.901
G1 F1500 X126.339 Y102.58 E116.41659
G0 F9000 X126.339 Y103.146
G1 F1500 X123.66 Y100.467 E116.5426
G0 F9000 X123.659 Y101.032
G1 F1500 X126.339 Y103.712 E116.66866
G0 F9000 X126.339 Y104.277
G1 F1500 X123.659 Y101.597 E116.79472
G0 F9000 X123.659 Y102.163
G1 F1500 X126.339 Y104.843 E116.92078
G0 F9000 X126.339 Y105.409
G1 F1500 X123.659 Y102.729 E117.04684
G0 F9000 X123.659 Y103.294
G1 F1500 X126.339 Y105.974 E117.1729
G0 F9000 X126.339 Y106.54
G1 F1500 X123.659 Y103.86 E117.29895
G0 F9000 X123.659 Y104.426
G1 F1500 X126.339 Y107.106 E117.42501
G0 F9000 X126.339 Y107.671
G1 F1500 X123.659 Y104.991 E117.55107
G0 F9000 X123.659 Y105.557
G1 F1500 X126.339 Y108.237 E117.67713
G0 F9000 X126.339 Y108.803
G1 F1500 X123.659 Y106.123 E117.80319
G0 F9000 X123.659 Y106.688
G1 F1500 X126.339 Y109.368 E117.92925
G0 F9000 X126.339 Y109.934
G1 F1500 X123.658 Y107.253 E118.05536
G0 F9000 X123.658 Y107.819
G1 F1500 X126.339 Y110.5 E118.18146
G0 F9000 X126.339 Y111.065
G1 F1500 X123.658 Y108.385 E118.30754
G0 F9000 X123.658 Y108.951
G1 F1500 X126.339 Y111.631 E118.43363
G0 F9000 X126.339 Y112.197
G1 F1500 X123.658 Y109.516 E118.55973
G0 F9000 X123.658 Y110.082
G1 F1500 X126.339 Y112.763 E118.68584
G0 F9000 X126.339 Y113.328
G1 F1500 X123.658 Y110.648 E118.81192
G0 F9000 X123.658 Y111.213
G1 F1500 X126.339 Y113.894 E118.93803
G0 F9000 X126.339 Y114.46
G1 F1500 X123.658 Y111.779 E119.06413
G0 F9000 X123.658 Y112.345
G1 F1500 X126.339 Y115.025 E119.19022
G0 F9000 X126.339 Y115.591
G1 F1500 X123.658 Y112.91 E119.31632
G0 F9000 X123.658 Y113.475
G1 F1500 X126.339 Y116.157 E119.44245
G0 F9000 X126.339 Y116.722
G1 F1500 X123.658 Y114.041 E119.56856
G0 F9000 X123.658 Y114.607
G1 F1500 X126.339 Y117.288 E119.69466
G0 F9000 X126.339 Y117.854
G1 F1500 X123.658 Y115.172 E119.82079
G0 F9000 X123.658 Y115.738
G1 F1500 X126.339 Y118.419 E119.9469
G0 F9000 X126.339 Y118.985
G1 F1500 X123.658 Y116.304 E120.07301
G0 F9000 X123.658 Y116.869
G1 F1500 X126.339 Y119.551 E120.19913
G0 F9000 X126.339 Y120.116
G1 F1500 X123.658 Y117.435 E120.32524
G0 F9000 X123.658 Y118.001
G1 F1500 X126.339 Y120.682 E120.45135
G0 F9000 X126.339 Y121.248
G1 F1500 X123.657 Y118.566 E120.5775
G0 F9000 X123.657 Y119.131
G1 F1500 X126.339 Y121.813 E120.70365
G0 F9000 X126.339 Y122.379
G1 F1500 X123.657 Y119.697 E120.82981
G0 F9000 X123.657 Y120.263
G1 F1500 X126.339 Y122.945 E120.95596
G0 F9000 X126.339 Y123.511
G1 F1500 X123.657 Y120.828 E121.08214
G0 F9000 X123.657 Y121.394
G1 F1500 X126.339 Y124.076 E121.20829
G0 F9000 X126.339 Y124.642
G1 F1500 X123.657 Y121.96 E121.33444
G0 F9000 X123.657 Y122.526
G1 F1500 X126.339 Y125.208 E121.46059
G0 F9000 X126.339 Y125.773
G1 F1500 X123.657 Y123.091 E121.58675
G0 F9000 X123.657 Y123.657
G1 F1500 X126.339 Y126.339 E121.7129
G0 F9000 X126.339 Y126.905
G1 F1500 X123.657 Y124.223 E121.83905
G0 F9000 X123.656 Y124.788
G1 F1500 X126.339 Y127.47 E121.96523
G0 F9000 X126.339 Y128.036
G1 F1500 X123.656 Y125.353 E122.09143
G0 F9000 X123.656 Y125.919
G1 F1500 X126.339 Y128.602 E122.21763
G0 F9000 X126.339 Y129.167
G1 F1500 X123.656 Y126.485 E122.34381
G0 F9000 X123.656 Y127.05
G1 F1500 X126.339 Y129.733 E122.47001
G0 F9000 X126.339 Y130.299
G1 F1500 X123.656 Y127.616 E122.59621
G0 F9000 X123.656 Y128.182
G1 F1500 X126.339 Y130.864 E122.72238
G0 F9000 X126.339 Y131.43
G1 F1500 X123.656 Y128.747 E122.84858
G0 F9000 X123.656 Y129.313
G1 F1500 X126.339 Y131.996 E122.97478
G0 F9000 X126.339 Y132.562
G1 F1500 X123.656 Y129.879 E123.10098
G0 F9000 X123.593 Y130.382
G1 F1500 X126.05 Y132.838 E123.21653
G0 F9000 X125.484 Y132.838
G1 F1500 X123.384 Y130.738 E123.31531
G0 F9000 X123.077 Y130.997
G1 F1500 X124.918 Y132.838 E123.4019
G0 F9000 X124.353 Y132.838
G1 F1500 X122.671 Y131.156 E123.48102
G0 F9000 X122.107 Y131.158
G1 F1500 X123.787 Y132.838 E123.56004
G0 F9000 X123.221 Y132.838
G1 F1500 X121.541 Y131.158 E123.63906
G0 F9000 X120.976 Y131.158
G1 F1500 X122.656 Y132.838 E123.71809
G0 F9000 X122.09 Y132.838
G1 F1500 X120.411 Y131.159 E123.79706
G0 F9000 X119.845 Y131.159
G1 F1500 X121.524 Y132.838 E123.87604
G0 F9000 X120.959 Y132.838
G1 F1500 X119.279 Y131.159 E123.95503
G0 F9000 X118.714 Y131.159
G1 F1500 X120.393 Y132.838 E124.03401
G0 F9000 X119.827 Y132.838
G1 F1500 X118.149 Y131.159 E124.11296
G0 F9000 X117.583 Y131.159
G1 F1500 X119.262 Y132.838 E124.19194
G0 F9000 X118.696 Y132.838
G1 F1500 X117.018 Y131.16 E124.27086
G0 F9000 X116.452 Y131.16
G1 F1500 X118.13 Y132.838 E124.34979
G0 F9000 X117.564 Y132.838
G1 F1500 X115.887 Y131.16 E124.4287
G0 F9000 X115.322 Y131.161
G1 F1500 X116.999 Y132.838 E124.50758
G0 F9000 X116.433 Y132.838
G1 F1500 X114.756 Y131.161 E124.58646
G0 F9000 X114.19 Y131.161
G1 F1500 X115.867 Y132.838 E124.66534
G0 F9000 X115.302 Y132.838
G1 F1500 X113.625 Y131.161 E124.74422
G0 F9000 X113.06 Y131.161
G1 F1500 X114.736 Y132.838 E124.82308
G0 F9000 X114.17 Y132.838
G1 F1500 X112.494 Y131.161 E124.90193
G1 F2700 E119.90193
G0 F9000 X112.506 Y130.704
G0 X122.93 Y130.431
G0 X123.274 Y94.772
G0 X126.728 Y94.772
G0 X126.8 Y97.489
G1 F2700 E124.90193
G0 F9000 X126.339 Y97.489
G1 F1500 X124.01 Y95.16 E125.01148
G0 F9000 X124.575 Y95.16
G1 F1500 X126.339 Y96.923 E125.09443
G0 F9000 X126.339 Y96.358
G1 F1500 X125.141 Y95.16 E125.15078
G0 F9000 X125.707 Y95.16
G1 F1500 X126.339 Y95.792 E125.18051
G0 F9000 X126.339 Y95.226
G1 F1500 X126.273 Y95.16 E125.18362
G1 F2700 E120.18362
G0 F9000 X126.273 Y94.7
G0 X123.274 Y94.772
G0 X122.93 Y130.431
G0 X112.069 Y130.431
G0 X111.725 Y94.773
G0 X108.273 Y94.773
G0 X108.273 Y133.227
G0 X110.158 Y133.234
G0 X110.174 Y134.665
G0 X110.174 Y136.335
G0 X108.1 Y140.4
;TYPE:WALL-INNER
G1 F2700 E125.18362
G1 F1500 X126.9 Y140.4 E125.80891
G1 X126.9 Y139 E125.85547
G1 X126.9 Y137.6 E125.90203
G1 X108.1 Y137.6 E126.52732
G1 X108.1 Y140.4 E126.62045
G0 F9000 X107.7 Y140.8
;TYPE:WALL-OUTER
G1 F1500 X127.3 Y140.8 E127.27235
G1 X127.3 Y139 E127.33222
G1 X127.3 Y137.2 E127.39209
G1 X107.7 Y137.2 E128.04399
G1 X107.7 Y140.8 E128.16372
G0 F9000 X107.97 Y140.53
G0 X108.2 Y140.04
G0 X108.46 Y140.04
;TYPE:SKIN
G1 F1500 X125.5 Y140.04 E128.73048
G1 X126.54 Y140.04 E128.76507
G1 X126.54 Y137.96 E128.83425
G1 X108.46 Y137.96 E129.43559
G1 X108.46 Y140.04 E129.50477
G0 F9000 X108.66 Y139.773
G1 F1500 X108.726 Y139.838 E129.50785
G0 F9000 X109.291 Y139.838
G1 F1500 X108.66 Y139.207 E129.53753
G0 F9000 X108.66 Y138.641
G1 F1500 X109.857 Y139.838 E129.59384
G0 F9000 X110.423 Y139.838
G1 F1500 X108.743 Y138.159 E129.67283
G0 F9000 X109.309 Y138.159
G1 F1500 X110.988 Y139.838 E129.75181
G0 F9000 X111.554 Y139.838
G1 F1500 X109.875 Y138.159 E129.83078
G0 F9000 X110.44 Y138.159
G1 F1500 X112.12 Y139.838 E129.90978
G0 F9000 X112.685 Y139.838
G1 F1500 X111.006 Y138.159 E129.98876
G0 F9000 X111.572 Y138.159
G1 F1500 X113.251 Y139.838 E130.06773
G0 F9000 X113.817 Y139.838
G1 F1500 X112.137 Y138.159 E130.14673
G0 F9000 X112.703 Y138.159
G1 F1500 X114.383 Y139.838 E130.22573
G0 F9000 X114.948 Y139.838
G1 F1500 X113.269 Y138.159 E130.30471
G0 F9000 X113.834 Y138.159
G1 F1500 X115.514 Y139.838 E130.3837
G0 F9000 X116.08 Y139.838
G1 F1500 X114.4 Y138.159 E130.4627
G0 F9000 X114.966 Y138.159
G1 F1500 X116.645 Y139.838 E130.54168
G0 F9000 X117.211 Y139.838
G1 F1500 X115.532 Y138.159 E130.62065
G0 F9000 X116.097 Y138.159
G1 F1500 X117.777 Y139.838 E130.69965
G0 F9000 X118.342 Y139.838
G1 F1500 X116.663 Y138.159 E130.77863
G0 F9000 X117.229 Y138.159
G1 F1500 X118.908 Y139.838 E130.8576
G0 F9000 X119.474 Y139.838
G1 F1500 X117.794 Y138.159 E130.9366
G0 F9000 X118.36 Y138.159
G1 F1500 X120.039 Y139.838 E131.01557
G0 F9000 X120.605 Y139.838
G1 F1500 X118.926 Y138.159 E131.09455
G0 F9000 X119.491 Y138.159
G1 F1500 X121.171 Y139.838 E131.17355
G0 F9000 X121.736 Y139.838
G1 F1500 X120.057 Y138.159 E131.25252
G0 F9000 X120.623 Y138.159
G1 F1500 X122.302 Y139.838 E131.3315
G0 F9000 X122.868 Y139.838
G1 F1500 X121.188 Y138.159 E131.4105
G0 F9000 X121.754 Y138.159
G1 F1500 X123.433 Y139.838 E131.48947
G0 F9000 X123.999 Y139.838
G1 F1500 X122.32 Y138.159 E131.56845
G0 F9000 X122.885 Y138.159
G1 F1500 X124.565 Y139.838 E131.64745
G0 F9000 X125.131 Y139.838
G1 F1500 X123.451 Y138.159 E131.72644
G0 F9000 X124.017 Y138.159
G1 F1500 X125.696 Y139.838 E131.80542
G0 F9000 X126.262 Y139.838
G1 F1500 X124.583 Y138.159 E131.88439
G0 F9000 X125.148 Y138.159
G1 F1500 X126.34 Y139.35 E131.94044
G0 F9000 X126.34 Y138.785
G1 F1500 X125.714 Y138.159 E131.96988
G0 F9000 X126.28 Y138.159
G1 F1500 X126.34 Y138.219 E131.97271
G1 F2700 E126.97271
;MESH:NONMESH
G0 F300 X126.34 Y138.219 Z0.8
G0 F9000 X126.8 Y138.219
G0 X126.728 Y137.772
G0 X108.201 Y137.42
G0 X108.201 Y136.335
G0 X108.201 Y134.665
G0 X108.101 Y133.399
;TIME_ELAPSED:248.861200
;LAYER:3
M106 S255
;TYPE:WALL-INNER
;MESH:LETRA ??.stl
G1 F2700 E131.97271
G1 F1500 X126.9 Y133.4 E132.59796
G1 X126.9 Y96.499 E133.8253
G1 X126.9 Y94.6 E133.88846
G1 X123.102 Y94.6 E134.01478
G1 X123.102 Y130.112 E135.19591
G1 X123.024 Y130.3 E135.20268
G1 X122.907 Y130.447 E135.20893
G1 X122.579 Y130.603 E135.22101
G1 X112.497 Y130.603 E135.55634
G1 X112.272 Y130.56 E135.56396
G1 X112.092 Y130.447 E135.57103
G1 X111.975 Y130.3 E135.57728
G1 X111.897 Y130.11 E135.58411
G1 X111.897 Y94.601 E136.76514
G1 X108.101 Y94.601 E136.8914
G1 X108.101 Y133.399 E138.18182
G0 F9000 X107.701 Y133.799
;TYPE:WALL-OUTER
G1 F1500 X127.3 Y133.8 E138.83369
G1 X127.3 Y96.499 E140.07433
G1 X127.3 Y94.2 E140.15079
G1 X122.702 Y94.2 E140.30372
G1 X122.7 Y130.038 E141.4957
G1 X122.637 Y130.151 E141.5
G1 X122.537 Y130.201 E141.50372
G1 X112.444 Y130.203 E141.83941
G1 X112.362 Y130.151 E141.84264
G1 X112.299 Y130.038 E141.84695
G1 X112.297 Y94.201 E143.03889
G1 X107.701 Y94.201 E143.19175
G1 X107.701 Y133.799 E144.50879
G0 F9000 X107.97 Y133.53
G0 X108.201 Y133.039
G0 X108.461 Y133.039
;TYPE:SKIN
G1 F1500 X126.54 Y133.04 E145.1101
G1 X126.54 Y96.499 E146.32546
G1 X126.54 Y94.96 E146.37664
G1 X123.462 Y94.96 E146.47902
G1 X123.46 Y130.177 E147.65034
G1 X123.351 Y130.455 E147.66027
G1 X123.151 Y130.715 E147.67118
G1 X122.864 Y130.895 E147.68245
G1 X122.634 Y130.961 E147.69041
G1 X112.463 Y130.96 E148.0287
G1 X112.139 Y130.898 E148.03967
G1 X111.847 Y130.714 E148.05115
G1 X111.66 Y130.478 E148.06116
G1 X111.539 Y130.165 E148.07233
G1 X111.537 Y94.961 E149.24321
G1 X108.461 Y94.961 E149.34552
G1 X108.461 Y133.039 E150.612
G0 F9000 X108.201 Y133.039
G0 X126.244 Y133.3
G0 X126.244 Y132.839
G1 F1500 X126.339 Y132.744 E150.61647
G0 F9000 X126.339 Y132.178
G1 F1500 X125.679 Y132.839 E150.64754
G0 F9000 X125.113 Y132.839
G1 F1500 X126.339 Y131.613 E150.70521
G0 F9000 X126.339 Y131.047
G1 F1500 X124.547 Y132.839 E150.7895
G0 F9000 X123.981 Y132.839
G1 F1500 X126.339 Y130.481 E150.90041
G0 F9000 X126.339 Y129.916
G1 F1500 X123.416 Y132.839 E151.0379
G0 F9000 X122.85 Y132.839
G1 F1500 X126.339 Y129.35 E151.20201
G0 F9000 X126.339 Y128.784
G1 F1500 X122.284 Y132.839 E151.39274
G0 F9000 X121.719 Y132.839
G1 F1500 X126.339 Y128.218 E151.61008
G0 F9000 X126.339 Y127.653
G1 F1500 X123.583 Y130.409 E151.73971
G0 F9000 X123.657 Y129.769
G1 F1500 X126.339 Y127.087 E151.86587
G0 F9000 X126.339 Y126.521
G1 F1500 X123.657 Y129.203 E151.99202
G0 F9000 X123.657 Y128.638
G1 F1500 X126.339 Y125.956 E152.11817
G0 F9000 X126.339 Y125.39
G1 F1500 X123.657 Y128.072 E152.24433
G0 F9000 X123.657 Y127.506
G1 F1500 X126.339 Y124.824 E152.37048
G0 F9000 X126.339 Y124.259
G1 F1500 X123.657 Y126.941 E152.49663
G0 F9000 X123.657 Y126.375
G1 F1500 X126.339 Y123.693 E152.62278
G0 F9000 X126.339 Y123.127
G1 F1500 X123.657 Y125.809 E152.74894
G0 F9000 X123.657 Y125.244
G1 F1500 X126.339 Y122.562 E152.87509
G0 F9000 X126.339 Y121.996
G1 F1500 X123.657 Y124.678 E153.00124
G0 F9000 X123.658 Y124.112
G1 F1500 X126.339 Y121.43 E153.12737
G0 F9000 X126.339 Y120.865
G1 F1500 X123.658 Y123.546 E153.25348
G0 F9000 X123.658 Y122.98
G1 F1500 X126.339 Y120.299 E153.37959
G0 F9000 X126.339 Y119.733
G1 F1500 X123.658 Y122.415 E153.50571
G0 F9000 X123.658 Y121.849
G1 F1500 X126.339 Y119.167 E153.63184
G0 F9000 X126.339 Y118.602
G1 F1500 X123.658 Y121.283 E153.75795
G0 F9000 X123.658 Y120.717
G1 F1500 X126.339 Y118.036 E153.88406
G0 F9000 X126.339 Y117.47
G1 F1500 X123.658 Y120.152 E154.01019
G0 F9000 X123.658 Y119.586
G1 F1500 X126.339 Y116.905 E154.13629
G0 F9000 X126.339 Y116.339
G1 F1500 X123.658 Y119.02 E154.2624
G0 F9000 X123.658 Y118.454
G1 F1500 X126.339 Y115.773 E154.3885
G0 F9000 X126.339 Y115.208
G1 F1500 X123.658 Y117.888 E154.51459
G0 F9000 X123.658 Y117.323
G1 F1500 X126.339 Y114.642 E154.64069
G0 F9000 X126.339 Y114.076
G1 F1500 X123.658 Y116.757 E154.7668
G0 F9000 X123.658 Y116.191
G1 F1500 X126.339 Y113.511 E154.89288
G0 F9000 X126.339 Y112.945
G1 F1500 X123.658 Y115.626 E155.01899
G0 F9000 X123.658 Y115.06
G1 F1500 X126.339 Y112.379 E155.14509
G0 F9000 X126.339 Y111.814
G1 F1500 X123.658 Y114.494 E155.27118
G0 F9000 X123.658 Y113.929
G1 F1500 X126.339 Y111.248 E155.39728
G0 F9000 X126.339 Y110.682
G1 F1500 X123.658 Y113.363 E155.52339
G0 F9000 X123.658 Y112.797
G1 F1500 X126.339 Y110.117 E155.64947
G0 F9000 X126.339 Y109.551
G1 F1500 X123.659 Y112.231 E155.77553
G0 F9000 X123.659 Y111.665
G1 F1500 X126.339 Y108.985 E155.90159
G0 F9000 X126.339 Y108.419
G1 F1500 X123.659 Y111.099 E156.02765
G0 F9000 X123.659 Y110.534
G1 F1500 X126.339 Y107.854 E156.15371
G0 F9000 X126.339 Y107.288
G1 F1500 X123.659 Y109.968 E156.27976
G0 F9000 X123.659 Y109.402
G1 F1500 X126.339 Y106.722 E156.40582
G0 F9000 X126.339 Y106.157
G1 F1500 X123.659 Y108.837 E156.53188
G0 F9000 X123.659 Y108.271
G1 F1500 X126.339 Y105.591 E156.65794
G0 F9000 X126.339 Y105.025
G1 F1500 X123.659 Y107.705 E156.784
G0 F9000 X123.659 Y107.14
G1 F1500 X126.339 Y104.46 E156.91006
G0 F9000 X126.339 Y103.894
G1 F1500 X123.66 Y106.573 E157.03607
G0 F9000 X123.66 Y106.008
G1 F1500 X126.339 Y103.328 E157.16211
G0 F9000 X126.339 Y102.763
G1 F1500 X123.66 Y105.442 E157.28812
G0 F9000 X123.66 Y104.876
G1 F1500 X126.339 Y102.197 E157.41413
G0 F9000 X126.339 Y101.631
G1 F1500 X123.66 Y104.31 E157.54014
G0 F9000 X123.66 Y103.745
G1 F1500 X126.339 Y101.066 E157.66615
G0 F9000 X126.339 Y100.5
G1 F1500 X123.66 Y103.179 E157.79217
G0 F9000 X123.66 Y102.613
G1 F1500 X126.339 Y99.934 E157.91818
G0 F9000 X126.339 Y99.369
G1 F1500 X123.66 Y102.048 E158.04419
G0 F9000 X123.66 Y101.482
G1 F1500 X126.339 Y98.803 E158.1702
G0 F9000 X126.339 Y98.237
G1 F1500 X123.66 Y100.916 E158.29621
G0 F9000 X123.66 Y100.35
G1 F1500 X126.339 Y97.671 E158.42223
G0 F9000 X126.339 Y97.106
G1 F1500 X123.66 Y99.784 E158.54822
G0 F9000 X123.66 Y99.219
G1 F1500 X126.339 Y96.54 E158.67423
G0 F9000 X126.339 Y95.974
G1 F1500 X123.66 Y98.653 E158.80024
G0 F9000 X123.66 Y98.087
G1 F1500 X126.339 Y95.409 E158.92623
G0 F9000 X126.022 Y95.16
G1 F1500 X123.66 Y97.522 E159.03733
G0 F9000 X123.66 Y96.956
G1 F1500 X125.457 Y95.16 E159.12183
G0 F9000 X124.891 Y95.16
G1 F1500 X123.66 Y96.39 E159.17971
G0 F9000 X123.66 Y95.824
G1 F1500 X124.325 Y95.16 E159.21097
G0 F9000 X123.759 Y95.16
G1 F1500 X123.66 Y95.259 E159.21562
G1 F2700 E154.21562
G0 F9000 X123.202 Y95.259
G0 X122.93 Y130.431
G0 X112.069 Y130.431
G0 X111.797 Y95.704
G1 F2700 E159.21562
G0 F9000 X111.336 Y95.704
G1 F1500 X108.66 Y98.38 E159.34149
G0 F9000 X108.66 Y98.946
G1 F1500 X111.336 Y96.269 E159.46739
G0 F9000 X111.336 Y96.835
G1 F1500 X108.66 Y99.511 E159.59326
G0 F9000 X108.66 Y100.077
G1 F1500 X111.336 Y97.401 E159.71913
G0 F9000 X111.336 Y97.966
G1 F1500 X108.66 Y100.643 E159.84502
G0 F9000 X108.66 Y101.208
G1 F1500 X111.336 Y98.532 E159.97089
G0 F9000 X111.336 Y99.098
G1 F1500 X108.66 Y101.774 E160.09677
G0 F9000 X108.66 Y102.34
G1 F1500 X111.336 Y99.663 E160.22266
G0 F9000 X111.337 Y100.228
G1 F1500 X108.66 Y102.905 E160.34858
G0 F9000 X108.66 Y103.471
G1 F1500 X111.337 Y100.794 E160.4745
G0 F9000 X111.337 Y101.36
G1 F1500 X108.66 Y104.037 E160.60041
G0 F9000 X108.66 Y104.603
G1 F1500 X111.337 Y101.925 E160.72635
G0 F9000 X111.337 Y102.491
G1 F1500 X108.66 Y105.168 E160.85227
G0 F9000 X108.66 Y105.734
G1 F1500 X111.337 Y103.057 E160.97819
G0 F9000 X111.337 Y103.622
G1 F1500 X108.66 Y106.3 E161.10413
G0 F9000 X108.66 Y106.865
G1 F1500 X111.337 Y104.188 E161.23005
G0 F9000 X111.337 Y104.754
G1 F1500 X108.66 Y107.431 E161.35597
G0 F9000 X108.66 Y107.997
G1 F1500 X111.338 Y105.319 E161.48193
G0 F9000 X111.338 Y105.884
G1 F1500 X108.66 Y108.562 E161.6079
G0 F9000 X108.66 Y109.128
G1 F1500 X111.338 Y106.45 E161.73386
G0 F9000 X111.338 Y107.016
G1 F1500 X108.66 Y109.694 E161.85983
G0 F9000 X108.66 Y110.259
G1 F1500 X111.338 Y107.582 E161.98577
G0 F9000 X111.338 Y108.147
G1 F1500 X108.66 Y110.825 E162.11173
G0 F9000 X108.66 Y111.391
G1 F1500 X111.338 Y108.713 E162.2377
G0 F9000 X111.338 Y109.279
G1 F1500 X108.66 Y111.956 E162.36364
G0 F9000 X108.66 Y112.522
G1 F1500 X111.338 Y109.844 E162.4896
G0 F9000 X111.338 Y110.409
G1 F1500 X108.66 Y113.088 E162.61559
G0 F9000 X108.66 Y113.653
G1 F1500 X111.338 Y110.975 E162.74156
G0 F9000 X111.338 Y111.541
G1 F1500 X108.661 Y114.218 E162.86748
G0 F9000 X108.661 Y114.784
G1 F1500 X111.338 Y112.106 E162.99342
G0 F9000 X111.338 Y112.672
G1 F1500 X108.661 Y115.35 E163.11936
G0 F9000 X108.661 Y115.916
G1 F1500 X111.338 Y113.238 E163.2453
G0 F9000 X111.338 Y113.803
G1 F1500 X108.661 Y116.481 E163.37124
G0 F9000 X108.661 Y117.047
G1 F1500 X111.338 Y114.369 E163.49718
G0 F9000 X111.338 Y114.935
G1 F1500 X108.661 Y117.613 E163.62312
G0 F9000 X108.661 Y118.178
G1 F1500 X111.339 Y115.5 E163.74909
G0 F9000 X111.339 Y116.065
G1 F1500 X108.661 Y118.744 E163.87508
G0 F9000 X108.661 Y119.31
G1 F1500 X111.339 Y116.631 E164.00107
G0 F9000 X111.339 Y117.197
G1 F1500 X108.661 Y119.875 E164.12703
G0 F9000 X108.661 Y120.441
G1 F1500 X111.339 Y117.762 E164.25302
G0 F9000 X111.339 Y118.328
G1 F1500 X108.661 Y121.007 E164.37901
G0 F9000 X108.661 Y121.572
G1 F1500 X111.339 Y118.894 E164.50497
G0 F9000 X111.339 Y119.46
G1 F1500 X108.661 Y122.138 E164.63094
G0 F9000 X108.661 Y122.704
G1 F1500 X111.339 Y120.025 E164.75693
G0 F9000 X111.34 Y120.59
G1 F1500 X108.661 Y123.269 E164.88294
G0 F9000 X108.661 Y123.835
G1 F1500 X111.34 Y121.156 E165.00895
G0 F9000 X111.34 Y121.722
G1 F1500 X108.661 Y124.401 E165.13496
G0 F9000 X108.661 Y124.966
G1 F1500 X111.34 Y122.287 E165.26097
G0 F9000 X111.34 Y122.853
G1 F1500 X108.661 Y125.532 E165.38699
G0 F9000 X108.661 Y126.098
G1 F1500 X111.34 Y123.419 E165.513
G0 F9000 X111.34 Y123.984
G1 F1500 X108.661 Y126.664 E165.63903
G0 F9000 X108.661 Y127.229
G1 F1500 X111.34 Y124.55 E165.76504
G0 F9000 X111.34 Y125.116
G1 F1500 X108.661 Y127.795 E165.89106
G0 F9000 X108.661 Y128.361
G1 F1500 X111.341 Y125.681 E166.01712
G0 F9000 X111.341 Y126.246
G1 F1500 X108.661 Y128.926 E166.14317
G0 F9000 X108.661 Y129.492
G1 F1500 X111.341 Y126.812 E166.26923
G0 F9000 X111.341 Y127.378
G1 F1500 X108.661 Y130.058 E166.39529
G0 F9000 X108.661 Y130.623
G1 F1500 X111.341 Y127.943 E166.52135
G0 F9000 X111.341 Y128.509
G1 F1500 X108.661 Y131.189 E166.64741
G0 F9000 X108.661 Y131.755
G1 F1500 X111.341 Y129.075 E166.77347
G0 F9000 X111.341 Y129.64
G1 F1500 X108.661 Y132.32 E166.89953
G0 F9000 X108.708 Y132.839
G1 F1500 X111.341 Y130.206 E167.02338
G0 F9000 X111.507 Y130.605
G1 F1500 X109.274 Y132.839 E167.12843
G0 F9000 X109.839 Y132.839
G1 F1500 X111.775 Y130.903 E167.2195
G0 F9000 X112.143 Y131.101
G1 F1500 X110.405 Y132.839 E167.30125
G0 F9000 X110.971 Y132.839
G1 F1500 X112.649 Y131.161 E167.38018
G0 F9000 X113.214 Y131.161
G1 F1500 X111.536 Y132.839 E167.4591
G0 F9000 X112.102 Y132.839
G1 F1500 X113.78 Y131.161 E167.53803
G0 F9000 X114.346 Y131.16
G1 F1500 X112.668 Y132.839 E167.61698
G0 F9000 X113.233 Y132.839
G1 F1500 X114.912 Y131.16 E167.69596
G0 F9000 X115.478 Y131.16
G1 F1500 X113.799 Y132.839 E167.77493
G0 F9000 X114.365 Y132.839
G1 F1500 X116.044 Y131.159 E167.85393
G0 F9000 X116.61 Y131.159
G1 F1500 X114.931 Y132.839 E167.93293
G0 F9000 X115.496 Y132.839
G1 F1500 X117.176 Y131.159 E168.01195
G0 F9000 X117.742 Y131.159
G1 F1500 X116.062 Y132.839 E168.09097
G0 F9000 X116.628 Y132.839
G1 F1500 X118.308 Y131.159 E168.17
G0 F9000 X118.873 Y131.159
G1 F1500 X117.193 Y132.839 E168.24902
G0 F9000 X117.759 Y132.839
G1 F1500 X119.44 Y131.158 E168.32809
G0 F9000 X120.005 Y131.158
G1 F1500 X118.325 Y132.839 E168.40713
G0 F9000 X118.89 Y132.839
G1 F1500 X120.571 Y131.158 E168.4862
G0 F9000 X121.137 Y131.157
G1 F1500 X119.456 Y132.839 E168.56529
G0 F9000 X120.022 Y132.839
G1 F1500 X121.703 Y131.157 E168.64439
G0 F9000 X122.269 Y131.157
G1 F1500 X120.587 Y132.839 E168.7235
G0 F9000 X121.153 Y132.839
G1 F1500 X122.9 Y131.091 E168.8057
G1 F2700 E163.8057
G0 F9000 X122.761 Y130.655
G0 X112.069 Y130.431
G0 X111.725 Y94.773
G0 X108.273 Y94.773
G0 X108.201 Y97.814
G1 F2700 E168.8057
G0 F9000 X108.66 Y97.814
G1 F1500 X111.314 Y95.161 E168.93051
G0 F9000 X110.748 Y95.161
G1 F1500 X108.66 Y97.249 E169.02873
G0 F9000 X108.66 Y96.683
G1 F1500 X110.182 Y95.161 E169.10032
G0 F9000 X109.617 Y95.161
G1 F1500 X108.66 Y96.117 E169.14531
G0 F9000 X108.66 Y95.552
G1 F1500 X109.051 Y95.161 E169.1637
G1 F2700 E164.1637
G0 F9000 X109.051 Y94.701
G0 X108.273 Y94.773
G0 X108.1 Y133.58
G0 X108.1 Y134.665
G0 X108.1 Y136.335
G0 X108.1 Y140.4
;TYPE:WALL-INNER
G1 F2700 E169.1637
G1 F1500 X126.9 Y140.4 E169.78899
G1 X126.9 Y137.6 E169.88212
G1 X109.5 Y137.6 E170.46084
G1 X108.1 Y137.6 E170.50741
G1 X108.1 Y140.4 E170.60054
G0 F9000 X107.7 Y140.8
;TYPE:WALL-OUTER
G1 F1500 X127.3 Y140.8 E171.25244
G1 X127.3 Y137.2 E171.37217
G1 X109.5 Y137.2 E171.9642
G1 X107.7 Y137.2 E172.02407
G1 X107.7 Y140.8 E172.14381
G0 F9000 X107.97 Y140.53
G0 X108.2 Y140.04
G0 X108.46 Y140.04
;TYPE:SKIN
G1 F1500 X125.5 Y140.04 E172.71056
G1 X126.54 Y140.04 E172.74515
G1 X126.54 Y137.96 E172.81433
G1 X108.46 Y137.96 E173.41567
G1 X108.46 Y140.04 E173.48486
G0 F9000 X108.2 Y140.04
G0 X108.2 Y138.544
G0 X108.66 Y138.544
G1 F1500 X109.045 Y138.159 E173.50296
G0 F9000 X109.61 Y138.159
G1 F1500 X108.66 Y139.109 E173.54765
G0 F9000 X108.66 Y139.675
G1 F1500 X110.176 Y138.159 E173.61896
G0 F9000 X110.742 Y138.159
G1 F1500 X109.062 Y139.839 E173.69798
G0 F9000 X109.627 Y139.839
G1 F1500 X111.307 Y138.159 E173.777
G0 F9000 X111.873 Y138.159
G1 F1500 X110.193 Y139.839 E173.85602
G0 F9000 X110.759 Y139.839
G1 F1500 X112.439 Y138.159 E173.93505
G0 F9000 X113.004 Y138.159
G1 F1500 X111.324 Y139.839 E174.01407
G0 F9000 X111.89 Y139.839
G1 F1500 X113.57 Y138.159 E174.09309
G0 F9000 X114.136 Y138.159
G1 F1500 X112.456 Y139.839 E174.17211
G0 F9000 X113.021 Y139.839
G1 F1500 X114.701 Y138.159 E174.25113
G0 F9000 X115.267 Y138.159
G1 F1500 X113.587 Y139.839 E174.33016
G0 F9000 X114.153 Y139.839
G1 F1500 X115.833 Y138.159 E174.40918
G0 F9000 X116.398 Y138.159
G1 F1500 X114.718 Y139.839 E174.4882
G0 F9000 X115.284 Y139.839
G1 F1500 X116.964 Y138.159 E174.56722
G0 F9000 X117.53 Y138.159
G1 F1500 X115.85 Y139.839 E174.64624
G0 F9000 X116.415 Y139.839
G1 F1500 X118.096 Y138.159 E174.72529
G0 F9000 X118.661 Y138.159
G1 F1500 X116.981 Y139.839 E174.80431
G0 F9000 X117.547 Y139.839
G1 F1500 X119.227 Y138.159 E174.88333
G0 F9000 X119.793 Y138.159
G1 F1500 X118.112 Y139.839 E174.96238
G0 F9000 X118.678 Y139.839
G1 F1500 X120.358 Y138.159 E175.0414
G0 F9000 X120.924 Y138.159
G1 F1500 X119.244 Y139.839 E175.12042
G0 F9000 X119.81 Y139.839
G1 F1500 X121.49 Y138.159 E175.19945
G0 F9000 X122.055 Y138.159
G1 F1500 X120.375 Y139.839 E175.27847
G0 F9000 X120.941 Y139.839
G1 F1500 X122.621 Y138.159 E175.35749
G0 F9000 X123.187 Y138.159
G1 F1500 X121.507 Y139.839 E175.43651
G0 F9000 X122.072 Y139.839
G1 F1500 X123.752 Y138.159 E175.51553
G0 F9000 X124.318 Y138.159
G1 F1500 X122.638 Y139.839 E175.59456
G0 F9000 X123.204 Y139.839
G1 F1500 X124.884 Y138.159 E175.67358
G0 F9000 X125.449 Y138.159
G1 F1500 X123.769 Y139.839 E175.7526
G0 F9000 X124.335 Y139.839
G1 F1500 X126.015 Y138.159 E175.83162
G0 F9000 X126.339 Y138.401
G1 F1500 X124.901 Y139.839 E175.89926
G0 F9000 X125.466 Y139.839
G1 F1500 X126.339 Y138.966 E175.94032
G0 F9000 X126.339 Y139.532
G1 F1500 X126.032 Y139.839 E175.95476
G1 F2700 E170.95476
;MESH:NONMESH
G0 F300 X126.032 Y139.839 Z1
G0 F9000 X126.032 Y140.3
G0 X126.728 Y140.228
G0 X126.728 Y137.772
G0 X108.201 Y137.42
G0 X108.201 Y136.335
G0 X108.201 Y134.665
G0 X108.101 Y133.399
;TIME_ELAPSED:324.263862
;LAYER:4
;TYPE:WALL-INNER
;MESH:LETRA ??.stl
G1 F2700 E175.95476
G1 F1500 X126.9 Y133.4 E176.58002
G1 X126.9 Y96.499 E177.80735
G1 X126.9 Y94.6 E177.87052
G1 X123.102 Y94.6 E177.99684
G1 X123.102 Y130.112 E179.17797
G1 X123.024 Y130.3 E179.18474
G1 X122.907 Y130.447 E179.19099
G1 X122.579 Y130.603 E179.20307
G1 X112.497 Y130.603 E179.5384
G1 X112.272 Y130.56 E179.54602
G1 X112.092 Y130.447 E179.55309
G1 X111.975 Y130.3 E179.55934
G1 X111.897 Y130.11 E179.56617
G1 X111.897 Y94.601 E180.7472
G1 X108.101 Y94.601 E180.87346
G1 X108.101 Y133.399 E182.16388
G0 F9000 X107.701 Y133.799
;TYPE:WALL-OUTER
G1 F1500 X127.3 Y133.8 E182.81575
G1 X127.3 Y96.499 E184.05638
G1 X127.3 Y94.2 E184.13285
G1 X122.702 Y94.2 E184.28578
G1 X122.7 Y130.038 E185.47776
G1 X122.637 Y130.151 E185.48206
G1 X122.537 Y130.201 E185.48578
G1 X112.444 Y130.203 E185.82147
G1 X112.362 Y130.151 E185.8247
G1 X112.299 Y130.038 E185.82901
G1 X112.297 Y94.201 E187.02095
G1 X107.701 Y94.201 E187.17381
G1 X107.701 Y133.799 E188.49085
G0 F9000 X108.181 Y133.151
;TYPE:FILL
G1 F3000 X117.396 Y130.682 E188.80815
G0 F9000 X117.396 Y130.903
G0 X119.447 Y130.903
G0 X119.447 Y130.682
G1 F3000 X118.74 Y133.319 E188.89895
G0 F9000 X118.74 Y133.1
G0 X117.347 Y133.1
G0 X117.347 Y133.318
G1 F3000 X114.711 Y130.682 E189.02294
G0 F9000 X114.711 Y130.903
G0 X113.235 Y130.903
G0 X113.235 Y130.681
G1 F3000 X112.529 Y133.318 E189.11374
G0 F9000 X112.529 Y133.1
G0 X108.862 Y133.1
G0 X108.862 Y133.318
G1 F3000 X108.18 Y132.636 E189.14582
G0 F9000 X108.4 Y132.636
G0 X108.4 Y126.94
G0 X108.18 Y126.94
G1 F3000 X111.815 Y125.966 E189.27098
G0 F9000 X111.597 Y125.966
G0 X111.597 Y127.787
G0 X111.816 Y127.787
G1 F3000 X108.18 Y124.15 E189.44203
G0 F9000 X108.4 Y124.15
G0 X108.4 Y126.363
G0 X108.181 Y126.363
G1 F3000 X111.816 Y112.793 E189.90929
G0 F9000 X111.816 Y113.542
G1 F3000 X108.181 Y114.516 E190.03445
G0 F9000 X108.4 Y114.516
G0 X108.4 Y115.665
G0 X108.18 Y115.665
G1 F3000 X111.816 Y119.302 E190.2055
G0 F9000 X111.815 Y119.754
G1 F3000 X108.18 Y120.728 E190.33067
G0 F9000 X108.4 Y120.728
G0 X111.597 Y110.817
G0 X111.816 Y110.817
G1 F3000 X108.18 Y107.18 E190.50172
G0 F9000 X108.4 Y107.18
G0 X108.4 Y108.305
G0 X108.18 Y108.305
G1 F3000 X111.815 Y107.331 E190.62688
G0 F9000 X111.597 Y107.331
G0 X111.597 Y102.331
G0 X111.816 Y102.331
G1 F3000 X108.18 Y98.695 E190.79791
G0 F9000 X108.4 Y98.695
G0 X108.4 Y95.881
G0 X108.181 Y95.881
G1 F3000 X111.815 Y94.907 E190.92304
G0 F9000 X111.597 Y94.907
G0 X110.458 Y94.9
G0 X110.458 Y94.679
G1 F3000 X108.181 Y103.18 E191.21575
G0 F9000 X108.4 Y103.18
G0 X108.4 Y102.093
G0 X108.18 Y102.093
G1 F3000 X111.815 Y101.119 E191.34092
G1 F2700 E186.34092
G0 F9000 X111.597 Y101.119
G0 X111.669 Y130.831
G0 X123.33 Y130.831
G0 X123.402 Y98.074
G1 F2700 E191.34092
G0 F9000 X123.181 Y98.074
G1 F3000 X126.818 Y97.099 E191.46616
G0 F9000 X126.6 Y97.099
G0 X126.6 Y100.363
G0 X126.819 Y100.363
G1 F3000 X123.18 Y96.725 E191.6373
G0 F9000 X123.402 Y96.725
G0 X126.6 Y103.168
G0 X126.819 Y103.168
G1 F3000 X123.181 Y116.744 E192.10477
G1 X123.181 Y116.708
G1 X126.818 Y115.734 E192.23
G0 F9000 X126.6 Y115.734
G0 X126.6 Y117.334
G0 X126.819 Y117.334
G1 F3000 X123.18 Y113.695 E192.40117
G0 F9000 X123.402 Y113.695
G0 X123.402 Y110.497
G0 X123.182 Y110.497
G1 F3000 X126.818 Y109.522 E192.52638
G0 F9000 X126.819 Y108.849
G1 F3000 X123.18 Y105.21 E192.69754
G0 F9000 X123.181 Y104.285
G1 F3000 X126.819 Y103.311 E192.82281
G0 F9000 X126.6 Y103.311
G0 X126.6 Y121.946
G0 X126.818 Y121.946
G1 F3000 X123.181 Y122.92 E192.94804
G0 F9000 X123.18 Y122.18
G1 F3000 X126.819 Y125.819 E193.1192
G0 F9000 X126.819 Y126.349
G1 F3000 X124.951 Y133.319 E193.35921
G0 F9000 X125.833 Y133.318
G1 F3000 X122.985 Y130.471 E193.49314
G0 F9000 X123.402 Y130.471
G0 X123.402 Y129.132
G0 X123.181 Y129.132
G1 F3000 X126.818 Y128.157 E193.61838
G0 F9000 X126.3 Y128.157
G1 F2700 E188.61838
G0 F9000 X122.93 Y130.431
G0 X108.37 Y133.58
G0 X108.37 Y134.665
G0 X108.37 Y136.335
G0 X108.37 Y137.42
G0 X108.37 Y140.13
G1 F2700 E193.61838
G0 F9000 X108.1 Y140.4
;TYPE:WALL-INNER
G1 F1500 X126.9 Y140.4 E194.24367
G1 X126.9 Y139 E194.29024
G1 X126.9 Y137.6 E194.3368
G1 X108.1 Y137.6 E194.96209
G1 X108.1 Y140.4 E195.05522
G0 F9000 X107.7 Y140.8
;TYPE:WALL-OUTER
G1 F1500 X127.3 Y140.8 E195.70712
G1 X127.3 Y139 E195.76699
G1 X127.3 Y137.2 E195.82686
G1 X107.7 Y137.2 E196.47875
G1 X107.7 Y140.8 E196.59849
G0 F9000 X107.97 Y140.53
G0 X108.4 Y139.363
G0 X108.18 Y139.363
;TYPE:FILL
G1 F3000 X114.465 Y137.679 E196.8149
G0 F9000 X114.465 Y137.9
G0 X113.223 Y137.9
G0 X113.223 Y137.679
G1 F3000 X115.862 Y140.318 E196.93904
G0 F9000 X115.862 Y140.1
G0 X116.864 Y140.1
G0 X116.864 Y140.32
G1 F3000 X117.572 Y137.679 E197.02998
G0 F9000 X117.572 Y137.9
G0 X121.708 Y137.9
G0 X121.708 Y137.679
G1 F3000 X124.348 Y140.318 E197.15413
G0 F9000 X124.348 Y140.1
G0 X123.076 Y140.1
G0 X123.076 Y140.319
G1 F3000 X123.783 Y137.678 E197.24506
G0 F9000 X123.783 Y137.9
G0 X111.36 Y137.9
G0 X111.36 Y137.678
G1 F3000 X110.653 Y140.319 E197.336
G0 F9000 X110.653 Y139.8
G1 F2700 E192.336
;MESH:NONMESH
G0 F300 X110.653 Y139.8 Z1.2
G0 F9000 X108.37 Y137.42
G0 X108.37 Y136.335
G0 X108.37 Y134.665
G0 X108.37 Y133.58
G0 X108.37 Y133.13
G1 F2700 E197.336
G0 F9000 X108.101 Y133.399
;TIME_ELAPSED:358.636577
;LAYER:5
;TYPE:WALL-INNER
;MESH:LETRA ??.stl
G1 F1500 X126.9 Y133.4 E197.96125
G1 X126.9 Y96.499 E199.18859
G1 X126.9 Y94.6 E199.25175
G1 X123.102 Y94.6 E199.37807
G1 X123.102 Y130.112 E200.5592
G1 X123.024 Y130.3 E200.56597
G1 X122.907 Y130.447 E200.57222
G1 X122.579 Y130.603 E200.5843
G1 X112.497 Y130.603 E200.91963
G1 X112.272 Y130.56 E200.92725
G1 X112.092 Y130.447 E200.93432
G1 X111.975 Y130.3 E200.94057
G1 X111.897 Y130.11 E200.9474
G1 X111.897 Y94.601 E202.12843
G1 X108.101 Y94.601 E202.25469
G1 X108.101 Y133.399 E203.54512
G0 F9000 X107.701 Y133.799
;TYPE:WALL-OUTER
G1 F1500 X127.3 Y133.8 E204.19698
G1 X127.3 Y96.499 E205.43762
G1 X127.3 Y94.2 E205.51408
G1 X122.702 Y94.2 E205.66701
G1 X122.7 Y130.038 E206.85899
G1 X122.637 Y130.151 E206.86329
G1 X122.537 Y130.201 E206.86701
G1 X112.444 Y130.203 E207.2027
G1 X112.362 Y130.151 E207.20593
G1 X112.299 Y130.038 E207.21024
G1 X112.297 Y94.201 E208.40218
G1 X107.701 Y94.201 E208.55504
G1 X107.701 Y133.799 E209.87208
G0 F9000 X108.181 Y133.297
;TYPE:FILL
G1 F3000 X117.94 Y130.682 E210.20812
G0 F9000 X117.94 Y130.903
G0 X119.301 Y130.903
G0 X119.301 Y130.681
G1 F3000 X118.594 Y133.319 E210.29895
G0 F9000 X118.594 Y133.1
G0 X117.547 Y133.1
G0 X117.547 Y133.318
G1 F3000 X114.911 Y130.682 E210.42294
G0 F9000 X114.911 Y130.903
G0 X113.089 Y130.903
G0 X113.089 Y130.681
G1 F3000 X112.382 Y133.318 E210.51375
G0 F9000 X112.382 Y133.1
G0 X109.062 Y133.1
G0 X109.062 Y133.318
G1 F3000 X108.18 Y132.436 E210.55523
G0 F9000 X108.4 Y132.436
G0 X108.4 Y127.085
G0 X108.181 Y127.085
G1 F3000 X111.816 Y126.111 E210.6804
G0 F9000 X111.597 Y126.111
G0 X111.597 Y127.588
G0 X111.816 Y127.588
G1 F3000 X108.18 Y123.951 E210.85145
G0 F9000 X108.4 Y123.951
G0 X108.4 Y125.817
G0 X108.181 Y125.817
G1 F3000 X111.816 Y112.249 E211.31864
G0 F9000 X111.597 Y112.249
G0 X111.597 Y113.688
G0 X111.815 Y113.688
G1 F3000 X108.181 Y114.662 E211.44377
G0 F9000 X108.18 Y115.466
G1 F3000 X111.816 Y119.102 E211.6148
G0 F9000 X111.815 Y119.9
G1 F3000 X108.18 Y120.874 E211.73996
G0 F9000 X108.4 Y120.874
G0 X111.597 Y110.617
G0 X111.816 Y110.617
G1 F3000 X108.18 Y106.981 E211.91099
G0 F9000 X108.4 Y106.981
G0 X108.4 Y108.45
G0 X108.181 Y108.45
G1 F3000 X111.816 Y107.477 E212.03614
G0 F9000 X111.597 Y107.477
G0 X111.597 Y102.132
G0 X111.816 Y102.132
G1 F3000 X108.18 Y98.495 E212.20719
G0 F9000 X108.4 Y98.495
G0 X108.4 Y96.027
G0 X108.18 Y96.027
G1 F3000 X111.815 Y95.053 E212.33236
G0 F9000 X111.597 Y95.053
G0 X110.312 Y94.9
G0 X110.312 Y94.68
G1 F3000 X108.181 Y102.635 E212.60627
G0 F9000 X108.18 Y102.239
G1 F3000 X111.815 Y101.265 E212.73144
G1 F2700 E207.73144
G0 F9000 X111.597 Y101.265
G0 X111.669 Y130.831
G0 X123.33 Y130.831
G0 X123.402 Y98.22
G1 F2700 E212.73144
G0 F9000 X123.181 Y98.22
G1 F3000 X126.818 Y97.245 E212.85668
G0 F9000 X126.6 Y97.245
G0 X126.6 Y100.164
G0 X126.819 Y100.164
G1 F3000 X123.18 Y96.525 E213.02784
G0 F9000 X123.402 Y96.525
G0 X126.6 Y102.623
G0 X126.819 Y102.623
G1 F3000 X123.181 Y116.2 E213.49535
G0 F9000 X123.181 Y116.854
G1 F3000 X126.818 Y115.88 E213.62058
G0 F9000 X126.6 Y115.88
G0 X126.6 Y117.135
G0 X126.819 Y117.135
G1 F3000 X123.18 Y113.496 E213.79175
G0 F9000 X123.402 Y113.496
G0 X123.402 Y110.643
G0 X123.181 Y110.643
G1 F3000 X126.818 Y109.668 E213.91698
G0 F9000 X126.6 Y109.668
G0 X126.6 Y108.649
G0 X126.819 Y108.649
G1 F3000 X123.18 Y105.011 E214.08813
G0 F9000 X123.181 Y104.431
G1 F3000 X126.818 Y103.457 E214.21336
G0 F9000 X126.6 Y103.457
G0 X126.6 Y122.092
G0 X126.818 Y122.092
G1 F3000 X123.181 Y123.066 E214.33859
G0 F9000 X123.402 Y123.066
G0 X123.402 Y121.981
G0 X123.18 Y121.981
G1 F3000 X126.819 Y125.62 E214.50975
G1 X126.819 Y125.805
G1 X124.805 Y133.319 E214.76849
G0 F9000 X124.805 Y133.1
G0 X126.032 Y133.1
G0 X126.032 Y133.318
G1 F3000 X123.074 Y130.36 E214.90763
G0 F9000 X123.402 Y130.36
G0 X123.402 Y129.278
G0 X123.181 Y129.278
G1 F3000 X126.818 Y128.303 E215.03287
G0 F9000 X126.3 Y128.303
G1 F2700 E210.03287
G0 F9000 X122.93 Y130.431
G0 X108.37 Y133.58
G0 X108.37 Y134.665
G0 X108.37 Y136.335
G0 X108.37 Y137.42
G0 X108.37 Y140.13
G1 F2700 E215.03287
G0 F9000 X108.1 Y140.4
;TYPE:WALL-INNER
G1 F1500 X126.9 Y140.4 E215.65816
G1 X126.9 Y139 E215.70472
G1 X126.9 Y137.6 E215.75129
G1 X108.1 Y137.6 E216.37658
G1 X108.1 Y140.4 E216.4697
G0 F9000 X107.7 Y140.8
;TYPE:WALL-OUTER
G1 F1500 X127.3 Y140.8 E217.1216
G1 X127.3 Y139 E217.18147
G1 X127.3 Y137.2 E217.24134
G1 X107.7 Y137.2 E217.89324
G1 X107.7 Y140.8 E218.01297
G0 F9000 X107.97 Y140.53
G0 X108.4 Y139.509
G0 X108.179 Y139.509
;TYPE:FILL
G1 F3000 X115.009 Y137.679 E218.24815
G0 F9000 X115.009 Y137.9
G0 X113.422 Y137.9
G0 X113.422 Y137.679
G1 F3000 X116.062 Y140.318 E218.37231
G0 F9000 X116.718 Y140.32
G1 F3000 X117.426 Y137.679 E218.46325
G0 F9000 X117.426 Y137.9
G0 X121.908 Y137.9
G0 X121.908 Y137.679
G1 F3000 X124.547 Y140.318 E218.58738
G0 F9000 X124.547 Y140.1
G0 X122.93 Y140.1
G0 X122.93 Y140.319
G1 F3000 X123.637 Y137.679 E218.67828
G0 F9000 X123.637 Y137.9
G0 X111.214 Y137.9
G0 X111.214 Y137.678
G1 F3000 X110.507 Y140.319 E218.76921
G0 F9000 X110.507 Y139.8
G1 F2700 E213.76921
;MESH:NONMESH
G0 F300 X110.507 Y139.8 Z1.4
G0 F9000 X108.37 Y137.42
G0 X108.37 Y136.335
G0 X108.37 Y134.665
G0 X108.37 Y133.58
G0 X108.37 Y133.13
G1 F2700 E218.76921
G0 F9000 X108.101 Y133.399
;TIME_ELAPSED:392.797690
;LAYER:6
;TYPE:WALL-INNER
;MESH:LETRA ??.stl
G1 F1500 X126.9 Y133.4 E219.39447
G1 X126.9 Y96.499 E220.6218
G1 X126.9 Y94.6 E220.68496
G1 X123.102 Y94.6 E220.81129
G1 X123.102 Y130.112 E221.99242
G1 X123.024 Y130.3 E221.99919
G1 X122.907 Y130.447 E222.00544
G1 X122.579 Y130.603 E222.01752
G1 X112.497 Y130.603 E222.35285
G1 X112.272 Y130.56 E222.36047
G1 X112.092 Y130.447 E222.36754
G1 X111.975 Y130.3 E222.37378
G1 X111.897 Y130.11 E222.38062
G1 X111.897 Y94.601 E223.56165
G1 X108.101 Y94.601 E223.68791
G1 X108.101 Y133.399 E224.97833
G0 F9000 X107.701 Y133.799
;TYPE:WALL-OUTER
G1 F1500 X127.3 Y133.8 E225.6302
G1 X127.3 Y96.499 E226.87083
G1 X127.3 Y94.2 E226.9473
G1 X122.702 Y94.2 E227.10023
G1 X122.7 Y130.038 E228.29221
G1 X122.637 Y130.151 E228.29651
G1 X122.537 Y130.201 E228.30023
G1 X112.444 Y130.203 E228.63592
G1 X112.362 Y130.151 E228.63915
G1 X112.299 Y130.038 E228.64345
G1 X112.297 Y94.201 E229.8354
G1 X107.701 Y94.201 E229.98826
G1 X107.701 Y133.799 E231.3053
G0 F9000 X107.97 Y133.53
G0 X108.201 Y133.039
G0 X108.461 Y133.039
;TYPE:SKIN
G1 F1500 X126.54 Y133.04 E231.90661
G1 X126.54 Y96.499 E233.12196
G1 X126.54 Y94.96 E233.17315
G1 X123.462 Y94.96 E233.27553
G1 X123.46 Y130.177 E234.44685
G1 X123.351 Y130.455 E234.45678
G1 X123.151 Y130.715 E234.46769
G1 X122.864 Y130.895 E234.47896
G1 X122.634 Y130.961 E234.48692
G1 X112.463 Y130.96 E234.82521
G1 X112.139 Y130.898 E234.83618
G1 X111.847 Y130.714 E234.84766
G1 X111.66 Y130.478 E234.85767
G1 X111.539 Y130.165 E234.86883
G1 X111.537 Y94.961 E236.03972
G1 X108.461 Y94.961 E236.14203
G1 X108.461 Y133.039 E237.40851
G0 F9000 X109.079 Y132.838
G1 F1500 X108.66 Y132.419 E237.42822
G0 F9000 X108.66 Y131.853
G1 F1500 X109.645 Y132.838 E237.47455
G0 F9000 X110.211 Y132.838
G1 F1500 X108.66 Y131.287 E237.5475
G0 F9000 X108.66 Y130.722
G1 F1500 X110.776 Y132.838 E237.64703
G0 F9000 X111.342 Y132.838
G1 F1500 X108.66 Y130.156 E237.77319
G0 F9000 X108.66 Y129.59
G1 F1500 X111.908 Y132.838 E237.92596
G0 F9000 X112.473 Y132.838
G1 F1500 X108.66 Y129.025 E238.10532
G0 F9000 X108.66 Y128.459
G1 F1500 X113.039 Y132.838 E238.31129
G0 F9000 X113.605 Y132.838
G1 F1500 X108.66 Y127.893 E238.54389
G0 F9000 X108.66 Y127.328
G1 F1500 X111.341 Y130.009 E238.66999
G0 F9000 X111.341 Y129.443
G1 F1500 X108.66 Y126.762 E238.7961
G0 F9000 X108.66 Y126.196
G1 F1500 X111.341 Y128.877 E238.92221
G0 F9000 X111.341 Y128.312
G1 F1500 X108.66 Y125.63 E239.04834
G0 F9000 X108.66 Y125.065
G1 F1500 X111.341 Y127.746 E239.17444
G0 F9000 X111.341 Y127.18
G1 F1500 X108.66 Y124.499 E239.30055
G0 F9000 X108.66 Y123.933
G1 F1500 X111.341 Y126.615 E239.42668
G0 F9000 X111.341 Y126.049
G1 F1500 X108.66 Y123.368 E239.55278
G0 F9000 X108.66 Y122.802
G1 F1500 X111.341 Y125.483 E239.67889
G0 F9000 X111.341 Y124.917
G1 F1500 X108.66 Y122.236 E239.805
G0 F9000 X108.66 Y121.671
G1 F1500 X111.341 Y124.351 E239.93108
G0 F9000 X111.341 Y123.786
G1 F1500 X108.66 Y121.105 E240.05718
G0 F9000 X108.66 Y120.539
G1 F1500 X111.341 Y123.22 E240.18329
G0 F9000 X111.341 Y122.654
G1 F1500 X108.66 Y119.974 E240.30937
G0 F9000 X108.66 Y119.408
G1 F1500 X111.341 Y122.089 E240.43548
G0 F9000 X111.341 Y121.523
G1 F1500 X108.66 Y118.842 E240.56158
G0 F9000 X108.66 Y118.277
G1 F1500 X111.341 Y120.957 E240.68767
G0 F9000 X111.341 Y120.392
G1 F1500 X108.66 Y117.711 E240.81377
G0 F9000 X108.66 Y117.145
G1 F1500 X111.34 Y119.825 E240.93983
G0 F9000 X111.34 Y119.259
G1 F1500 X108.66 Y116.579 E241.06589
G0 F9000 X108.66 Y116.014
G1 F1500 X111.34 Y118.694 E241.19195
G0 F9000 X111.34 Y118.128
G1 F1500 X108.66 Y115.448 E241.31801
G0 F9000 X108.66 Y114.882
G1 F1500 X111.34 Y117.562 E241.44407
G0 F9000 X111.34 Y116.997
G1 F1500 X108.66 Y114.317 E241.57013
G0 F9000 X108.659 Y113.75
G1 F1500 X111.34 Y116.431 E241.69623
G0 F9000 X111.34 Y115.865
G1 F1500 X108.659 Y113.185 E241.82232
G0 F9000 X108.659 Y112.619
G1 F1500 X111.34 Y115.3 E241.94842
G0 F9000 X111.339 Y114.733
G1 F1500 X108.659 Y112.053 E242.07448
G0 F9000 X108.659 Y111.488
G1 F1500 X111.339 Y114.168 E242.20054
G0 F9000 X111.339 Y113.602
G1 F1500 X108.659 Y110.922 E242.3266
G0 F9000 X108.659 Y110.356
G1 F1500 X111.339 Y113.036 E242.45266
G0 F9000 X111.339 Y112.47
G1 F1500 X108.659 Y109.791 E242.57869
G0 F9000 X108.659 Y109.225
G1 F1500 X111.339 Y111.905 E242.70475
G0 F9000 X111.339 Y111.339
G1 F1500 X108.659 Y108.659 E242.83081
G0 F9000 X108.659 Y108.093
G1 F1500 X111.339 Y110.773 E242.95687
G0 F9000 X111.339 Y110.208
G1 F1500 X108.659 Y107.528 E243.08293
G0 F9000 X108.659 Y106.962
G1 F1500 X111.338 Y109.641 E243.20894
G0 F9000 X111.338 Y109.076
G1 F1500 X108.659 Y106.396 E243.33498
G0 F9000 X108.659 Y105.831
G1 F1500 X111.338 Y108.51 E243.46099
G0 F9000 X111.338 Y107.944
G1 F1500 X108.659 Y105.265 E243.587
G0 F9000 X108.659 Y104.699
G1 F1500 X111.338 Y107.379 E243.71304
G0 F9000 X111.338 Y106.813
G1 F1500 X108.659 Y104.134 E243.83905
G0 F9000 X108.659 Y103.568
G1 F1500 X111.338 Y106.247 E243.96506
G0 F9000 X111.338 Y105.682
G1 F1500 X108.659 Y103.002 E244.09109
G0 F9000 X108.659 Y102.437
G1 F1500 X111.338 Y105.115 E244.21708
G0 F9000 X111.338 Y104.549
G1 F1500 X108.659 Y101.871 E244.34307
G0 F9000 X108.659 Y101.305
G1 F1500 X111.338 Y103.984 E244.46908
G0 F9000 X111.338 Y103.418
G1 F1500 X108.659 Y100.74 E244.59507
G0 F9000 X108.659 Y100.174
G1 F1500 X111.338 Y102.852 E244.72106
G0 F9000 X111.338 Y102.287
G1 F1500 X108.659 Y99.608 E244.84707
G0 F9000 X108.659 Y99.043
G1 F1500 X111.338 Y101.721 E244.97306
G0 F9000 X111.338 Y101.155
G1 F1500 X108.659 Y98.477 E245.09905
G0 F9000 X108.659 Y97.911
G1 F1500 X111.338 Y100.59 E245.22506
G0 F9000 X111.337 Y100.023
G1 F1500 X108.659 Y97.345 E245.35103
G0 F9000 X108.659 Y96.78
G1 F1500 X111.337 Y99.458 E245.47699
G0 F9000 X111.337 Y98.892
G1 F1500 X108.659 Y96.214 E245.60296
G0 F9000 X108.659 Y95.648
G1 F1500 X111.337 Y98.326 E245.72892
G0 F9000 X111.337 Y97.761
G1 F1500 X108.737 Y95.161 E245.85122
G0 F9000 X109.303 Y95.161
G1 F1500 X111.337 Y97.195 E245.94689
G0 F9000 X111.337 Y96.629
G1 F1500 X109.868 Y95.161 E246.01596
G0 F9000 X110.434 Y95.161
G1 F1500 X111.337 Y96.063 E246.05841
G0 F9000 X111.337 Y95.498
G1 F1500 X111 Y95.161 E246.07427
G1 F2700 E241.07427
G0 F9000 X111 Y94.701
G0 X112.055 Y94.758
G0 X112.069 Y130.431
G0 X122.93 Y130.431
G0 X123.202 Y95.375
G1 F2700 E246.07427
G0 F9000 X123.66 Y95.375
G1 F1500 X126.339 Y98.055 E246.2003
G0 F9000 X126.339 Y98.62
G1 F1500 X123.66 Y95.941 E246.32631
G0 F9000 X123.66 Y96.507
G1 F1500 X126.339 Y99.186 E246.45233
G0 F9000 X126.339 Y99.752
G1 F1500 X123.66 Y97.073 E246.57834
G0 F9000 X123.66 Y97.638
G1 F1500 X126.339 Y100.317 E246.70435
G0 F9000 X126.339 Y100.883
G1 F1500 X123.66 Y98.204 E246.83036
G0 F9000 X123.66 Y98.77
G1 F1500 X126.339 Y101.449 E246.95637
G0 F9000 X126.339 Y102.015
G1 F1500 X123.66 Y99.335 E247.08241
G0 F9000 X123.66 Y99.901
G1 F1500 X126.339 Y102.58 E247.20842
G0 F9000 X126.339 Y103.146
G1 F1500 X123.66 Y100.467 E247.33443
G0 F9000 X123.659 Y101.032
G1 F1500 X126.339 Y103.712 E247.46049
G0 F9000 X126.339 Y104.277
G1 F1500 X123.659 Y101.597 E247.58655
G0 F9000 X123.659 Y102.163
G1 F1500 X126.339 Y104.843 E247.71261
G0 F9000 X126.339 Y105.409
G1 F1500 X123.659 Y102.729 E247.83867
G0 F9000 X123.659 Y103.294
G1 F1500 X126.339 Y105.974 E247.96473
G0 F9000 X126.339 Y106.54
G1 F1500 X123.659 Y103.86 E248.09079
G0 F9000 X123.659 Y104.426
G1 F1500 X126.339 Y107.106 E248.21685
G0 F9000 X126.339 Y107.671
G1 F1500 X123.659 Y104.991 E248.3429
G0 F9000 X123.659 Y105.557
G1 F1500 X126.339 Y108.237 E248.46896
G0 F9000 X126.339 Y108.803
G1 F1500 X123.659 Y106.123 E248.59502
G0 F9000 X123.659 Y106.688
G1 F1500 X126.339 Y109.368 E248.72108
G0 F9000 X126.339 Y109.934
G1 F1500 X123.658 Y107.253 E248.84719
G0 F9000 X123.658 Y107.819
G1 F1500 X126.339 Y110.5 E248.97329
G0 F9000 X126.339 Y111.065
G1 F1500 X123.658 Y108.385 E249.09938
G0 F9000 X123.658 Y108.951
G1 F1500 X126.339 Y111.631 E249.22546
G0 F9000 X126.339 Y112.197
G1 F1500 X123.658 Y109.516 E249.35156
G0 F9000 X123.658 Y110.082
G1 F1500 X126.339 Y112.763 E249.47767
G0 F9000 X126.339 Y113.328
G1 F1500 X123.658 Y110.648 E249.60375
G0 F9000 X123.658 Y111.213
G1 F1500 X126.339 Y113.894 E249.72986
G0 F9000 X126.339 Y114.46
G1 F1500 X123.658 Y111.779 E249.85597
G0 F9000 X123.658 Y112.345
G1 F1500 X126.339 Y115.025 E249.98205
G0 F9000 X126.339 Y115.591
G1 F1500 X123.658 Y112.91 E250.10815
G0 F9000 X123.658 Y113.475
G1 F1500 X126.339 Y116.157 E250.23428
G0 F9000 X126.339 Y116.722
G1 F1500 X123.658 Y114.041 E250.36039
G0 F9000 X123.658 Y114.607
G1 F1500 X126.339 Y117.288 E250.4865
G0 F9000 X126.339 Y117.854
G1 F1500 X123.658 Y115.172 E250.61262
G0 F9000 X123.658 Y115.738
G1 F1500 X126.339 Y118.419 E250.73873
G0 F9000 X126.339 Y118.985
G1 F1500 X123.658 Y116.304 E250.86484
G0 F9000 X123.658 Y116.869
G1 F1500 X126.339 Y119.551 E250.99097
G0 F9000 X126.339 Y120.116
G1 F1500 X123.658 Y117.435 E251.11707
G0 F9000 X123.658 Y118.001
G1 F1500 X126.339 Y120.682 E251.24318
G0 F9000 X126.339 Y121.248
G1 F1500 X123.657 Y118.566 E251.36933
G0 F9000 X123.657 Y119.131
G1 F1500 X126.339 Y121.813 E251.49548
G0 F9000 X126.339 Y122.379
G1 F1500 X123.657 Y119.697 E251.62164
G0 F9000 X123.657 Y120.263
G1 F1500 X126.339 Y122.945 E251.74779
G0 F9000 X126.339 Y123.511
G1 F1500 X123.657 Y120.828 E251.87397
G0 F9000 X123.657 Y121.394
G1 F1500 X126.339 Y124.076 E252.00012
G0 F9000 X126.339 Y124.642
G1 F1500 X123.657 Y121.96 E252.12627
G0 F9000 X123.657 Y122.526
G1 F1500 X126.339 Y125.208 E252.25243
G0 F9000 X126.339 Y125.773
G1 F1500 X123.657 Y123.091 E252.37858
G0 F9000 X123.657 Y123.657
G1 F1500 X126.339 Y126.339 E252.50473
G0 F9000 X126.339 Y126.905
G1 F1500 X123.657 Y124.223 E252.63089
G0 F9000 X123.656 Y124.788
G1 F1500 X126.339 Y127.47 E252.75706
G0 F9000 X126.339 Y128.036
G1 F1500 X123.656 Y125.353 E252.88326
G0 F9000 X123.656 Y125.919
G1 F1500 X126.339 Y128.602 E253.00946
G0 F9000 X126.339 Y129.167
G1 F1500 X123.656 Y126.485 E253.13564
G0 F9000 X123.656 Y127.05
G1 F1500 X126.339 Y129.733 E253.26184
G0 F9000 X126.339 Y130.299
G1 F1500 X123.656 Y127.616 E253.38804
G0 F9000 X123.656 Y128.182
G1 F1500 X126.339 Y130.864 E253.51422
G0 F9000 X126.339 Y131.43
G1 F1500 X123.656 Y128.747 E253.64042
G0 F9000 X123.656 Y129.313
G1 F1500 X126.339 Y131.996 E253.76662
G0 F9000 X126.339 Y132.562
G1 F1500 X123.656 Y129.879 E253.89282
G0 F9000 X123.593 Y130.382
G1 F1500 X126.05 Y132.838 E254.00836
G0 F9000 X125.484 Y132.838
G1 F1500 X123.384 Y130.738 E254.10714
G0 F9000 X123.077 Y130.997
G1 F1500 X124.918 Y132.838 E254.19373
G0 F9000 X124.353 Y132.838
G1 F1500 X122.671 Y131.156 E254.27285
G0 F9000 X122.107 Y131.158
G1 F1500 X123.787 Y132.838 E254.35187
G0 F9000 X123.221 Y132.838
G1 F1500 X121.541 Y131.158 E254.43089
G0 F9000 X120.976 Y131.158
G1 F1500 X122.656 Y132.838 E254.50992
G0 F9000 X122.09 Y132.838
G1 F1500 X120.411 Y131.159 E254.58889
G0 F9000 X119.845 Y131.159
G1 F1500 X121.524 Y132.838 E254.66787
G0 F9000 X120.959 Y132.838
G1 F1500 X119.279 Y131.159 E254.74687
G0 F9000 X118.714 Y131.159
G1 F1500 X120.393 Y132.838 E254.82584
G0 F9000 X119.827 Y132.838
G1 F1500 X118.149 Y131.159 E254.90479
G0 F9000 X117.583 Y131.159
G1 F1500 X119.262 Y132.838 E254.98377
G0 F9000 X118.696 Y132.838
G1 F1500 X117.018 Y131.16 E255.06269
G0 F9000 X116.452 Y131.16
G1 F1500 X118.13 Y132.838 E255.14162
G0 F9000 X117.564 Y132.838
G1 F1500 X115.887 Y131.16 E255.22053
G0 F9000 X115.322 Y131.161
G1 F1500 X116.999 Y132.838 E255.29941
G0 F9000 X116.433 Y132.838
G1 F1500 X114.756 Y131.161 E255.37829
G0 F9000 X114.19 Y131.161
G1 F1500 X115.867 Y132.838 E255.45717
G0 F9000 X115.302 Y132.838
G1 F1500 X113.625 Y131.161 E255.53605
G0 F9000 X113.06 Y131.161
G1 F1500 X114.736 Y132.838 E255.61491
G0 F9000 X114.17 Y132.838
G1 F1500 X112.494 Y131.161 E255.69377
G1 F2700 E250.69377
G0 F9000 X112.506 Y130.704
G0 X122.93 Y130.431
G0 X123.274 Y94.772
G0 X126.728 Y94.772
G0 X126.8 Y97.489
G1 F2700 E255.69377
G0 F9000 X126.339 Y97.489
G1 F1500 X124.01 Y95.16 E255.80332
G0 F9000 X124.575 Y95.16
G1 F1500 X126.339 Y96.923 E255.88626
G0 F9000 X126.339 Y96.358
G1 F1500 X125.141 Y95.16 E255.94261
G0 F9000 X125.707 Y95.16
G1 F1500 X126.339 Y95.792 E255.97234
G0 F9000 X126.339 Y95.226
G1 F1500 X126.273 Y95.16 E255.97545
G1 F2700 E250.97545
G0 F9000 X126.273 Y94.7
G0 X123.274 Y94.772
G0 X122.93 Y130.431
G0 X112.069 Y130.431
G0 X111.725 Y94.773
G0 X108.273 Y94.773
G0 X108.273 Y133.227
G0 X110.158 Y133.234
G0 X110.174 Y134.665
G0 X110.174 Y136.335
G0 X108.1 Y140.4
;TYPE:WALL-INNER
G1 F2700 E255.97545
G1 F1500 X126.9 Y140.4 E256.60074
G1 X126.9 Y139 E256.6473
G1 X126.9 Y137.6 E256.69387
G1 X108.1 Y137.6 E257.31916
G1 X108.1 Y140.4 E257.41228
G0 F9000 X107.7 Y140.8
;TYPE:WALL-OUTER
G1 F1500 X127.3 Y140.8 E258.06418
G1 X127.3 Y139 E258.12405
G1 X127.3 Y137.2 E258.18392
G1 X107.7 Y137.2 E258.83582
G1 X107.7 Y140.8 E258.95555
G0 F9000 X107.97 Y140.53
G0 X108.2 Y140.04
G0 X108.46 Y140.04
;TYPE:SKIN
G1 F1500 X126.54 Y140.04 E259.5569
G1 X126.54 Y139 E259.59149
G1 X126.54 Y137.96 E259.62608
G1 X108.46 Y137.96 E260.22742
G1 X108.46 Y140.04 E260.2966
G0 F9000 X108.66 Y139.773
G1 F1500 X108.726 Y139.838 E260.29968
G0 F9000 X109.291 Y139.838
G1 F1500 X108.66 Y139.207 E260.32936
G0 F9000 X108.66 Y138.641
G1 F1500 X109.857 Y139.838 E260.38567
G0 F9000 X110.423 Y139.838
G1 F1500 X108.743 Y138.159 E260.46467
G0 F9000 X109.309 Y138.159
G1 F1500 X110.988 Y139.838 E260.54364
G0 F9000 X111.554 Y139.838
G1 F1500 X109.875 Y138.159 E260.62262
G0 F9000 X110.44 Y138.159
G1 F1500 X112.12 Y139.838 E260.70162
G0 F9000 X112.685 Y139.838
G1 F1500 X111.006 Y138.159 E260.78059
G0 F9000 X111.572 Y138.159
G1 F1500 X113.251 Y139.838 E260.85957
G0 F9000 X113.817 Y139.838
G1 F1500 X112.137 Y138.159 E260.93856
G0 F9000 X112.703 Y138.159
G1 F1500 X114.383 Y139.838 E261.01756
G0 F9000 X114.948 Y139.838
G1 F1500 X113.269 Y138.159 E261.09654
G0 F9000 X113.834 Y138.159
G1 F1500 X115.514 Y139.838 E261.17554
G0 F9000 X116.08 Y139.838
G1 F1500 X114.4 Y138.159 E261.25453
G0 F9000 X114.966 Y138.159
G1 F1500 X116.645 Y139.838 E261.33351
G0 F9000 X117.211 Y139.838
G1 F1500 X115.532 Y138.159 E261.41248
G0 F9000 X116.097 Y138.159
G1 F1500 X117.777 Y139.838 E261.49148
G0 F9000 X118.342 Y139.838
G1 F1500 X116.663 Y138.159 E261.57046
G0 F9000 X117.229 Y138.159
G1 F1500 X118.908 Y139.838 E261.64943
G0 F9000 X119.474 Y139.838
G1 F1500 X117.794 Y138.159 E261.72843
G0 F9000 X118.36 Y138.159
G1 F1500 X120.039 Y139.838 E261.80741
G0 F9000 X120.605 Y139.838
G1 F1500 X118.926 Y138.159 E261.88638
G0 F9000 X119.491 Y138.159
G1 F1500 X121.171 Y139.838 E261.96538
G0 F9000 X121.736 Y139.838
G1 F1500 X120.057 Y138.159 E262.04435
G0 F9000 X120.623 Y138.159
G1 F1500 X122.302 Y139.838 E262.12333
G0 F9000 X122.868 Y139.838
G1 F1500 X121.188 Y138.159 E262.20233
G0 F9000 X121.754 Y138.159
G1 F1500 X123.433 Y139.838 E262.2813
G0 F9000 X123.999 Y139.838
G1 F1500 X122.32 Y138.159 E262.36028
G0 F9000 X122.885 Y138.159
G1 F1500 X124.565 Y139.838 E262.43928
G0 F9000 X125.131 Y139.838
G1 F1500 X123.451 Y138.159 E262.51828
G0 F9000 X124.017 Y138.159
G1 F1500 X125.696 Y139.838 E262.59725
G0 F9000 X126.262 Y139.838
G1 F1500 X124.583 Y138.159 E262.67623
G0 F9000 X125.148 Y138.159
G1 F1500 X126.34 Y139.35 E262.73227
G0 F9000 X126.34 Y138.785
G1 F1500 X125.714 Y138.159 E262.76172
G0 F9000 X126.28 Y138.159
G1 F1500 X126.34 Y138.219 E262.76454
G1 F2700 E257.76454
;MESH:NONMESH
G0 F300 X126.34 Y138.219 Z1.6
G0 F9000 X126.8 Y138.219
G0 X126.728 Y137.772
G0 X108.201 Y137.42
G0 X108.201 Y136.335
G0 X108.201 Y134.665
G0 X108.101 Y133.399
;TIME_ELAPSED:469.267803
;LAYER:7
;TYPE:WALL-INNER
;MESH:LETRA ??.stl
G1 F2700 E262.76454
G1 F1500 X126.9 Y133.4 E263.38979
G1 X126.9 Y96.499 E264.61713
G1 X126.9 Y94.6 E264.68029
G1 X123.102 Y94.6 E264.80661
G1 X123.102 Y130.112 E265.98774
G1 X123.024 Y130.3 E265.99451
G1 X122.907 Y130.447 E266.00076
G1 X122.579 Y130.603 E266.01284
G1 X112.497 Y130.603 E266.34817
G1 X112.272 Y130.56 E266.35579
G1 X112.092 Y130.447 E266.36286
G1 X111.975 Y130.3 E266.36911
G1 X111.897 Y130.11 E266.37594
G1 X111.897 Y94.601 E267.55697
G1 X108.101 Y94.601 E267.68323
G1 X108.101 Y133.399 E268.97366
G0 F9000 X107.701 Y133.799
;TYPE:WALL-OUTER
G1 F1500 X127.3 Y133.8 E269.62552
G1 X127.3 Y96.499 E270.86616
G1 X127.3 Y94.2 E270.94262
G1 X122.702 Y94.2 E271.09555
G1 X122.7 Y130.038 E272.28753
G1 X122.637 Y130.151 E272.29183
G1 X122.537 Y130.201 E272.29555
G1 X112.444 Y130.203 E272.63125
G1 X112.362 Y130.151 E272.63447
G1 X112.299 Y130.038 E272.63878
G1 X112.297 Y94.201 E273.83072
G1 X107.701 Y94.201 E273.98358
G1 X107.701 Y133.799 E275.30062
G0 F9000 X107.97 Y133.53
G0 X108.201 Y133.039
G0 X108.461 Y133.039
;TYPE:SKIN
G1 F1500 X126.54 Y133.04 E275.90193
G1 X126.54 Y96.499 E277.11729
G1 X126.54 Y94.96 E277.16848
G1 X123.462 Y94.96 E277.27085
G1 X123.46 Y130.177 E278.44217
G1 X123.351 Y130.455 E278.4521
G1 X123.151 Y130.715 E278.46301
G1 X122.864 Y130.895 E278.47428
G1 X122.634 Y130.961 E278.48224
G1 X112.463 Y130.96 E278.82053
G1 X112.139 Y130.898 E278.8315
G1 X111.847 Y130.714 E278.84298
G1 X111.66 Y130.478 E278.853
G1 X111.539 Y130.165 E278.86416
G1 X111.537 Y94.961 E280.03505
G1 X108.461 Y94.961 E280.13735
G1 X108.461 Y133.039 E281.40383
G0 F9000 X108.201 Y133.039
G0 X126.244 Y133.3
G0 X126.244 Y132.839
G1 F1500 X126.339 Y132.744 E281.4083
G0 F9000 X126.339 Y132.178
G1 F1500 X125.679 Y132.839 E281.43937
G0 F9000 X125.113 Y132.839
G1 F1500 X126.339 Y131.613 E281.49704
G0 F9000 X126.339 Y131.047
G1 F1500 X124.547 Y132.839 E281.58133
G0 F9000 X123.981 Y132.839
G1 F1500 X126.339 Y130.481 E281.69224
G0 F9000 X126.339 Y129.916
G1 F1500 X123.416 Y132.839 E281.82973
G0 F9000 X122.85 Y132.839
G1 F1500 X126.339 Y129.35 E281.99384
G0 F9000 X126.339 Y128.784
G1 F1500 X122.284 Y132.839 E282.18458
G0 F9000 X121.719 Y132.839
G1 F1500 X126.339 Y128.218 E282.40191
G0 F9000 X126.339 Y127.653
G1 F1500 X123.583 Y130.409 E282.53154
G0 F9000 X123.657 Y129.769
G1 F1500 X126.339 Y127.087 E282.6577
G0 F9000 X126.339 Y126.521
G1 F1500 X123.657 Y129.203 E282.78385
G0 F9000 X123.657 Y128.638
G1 F1500 X126.339 Y125.956 E282.91
G0 F9000 X126.339 Y125.39
G1 F1500 X123.657 Y128.072 E283.03616
G0 F9000 X123.657 Y127.506
G1 F1500 X126.339 Y124.824 E283.16231
G0 F9000 X126.339 Y124.259
G1 F1500 X123.657 Y126.941 E283.28846
G0 F9000 X123.657 Y126.375
G1 F1500 X126.339 Y123.693 E283.41462
G0 F9000 X126.339 Y123.127
G1 F1500 X123.657 Y125.809 E283.54077
G0 F9000 X123.657 Y125.244
G1 F1500 X126.339 Y122.562 E283.66692
G0 F9000 X126.339 Y121.996
G1 F1500 X123.657 Y124.678 E283.79308
G0 F9000 X123.658 Y124.112
G1 F1500 X126.339 Y121.43 E283.9192
G0 F9000 X126.339 Y120.865
G1 F1500 X123.658 Y123.546 E284.04531
G0 F9000 X123.658 Y122.98
G1 F1500 X126.339 Y120.299 E284.17142
G0 F9000 X126.339 Y119.733
G1 F1500 X123.658 Y122.415 E284.29755
G0 F9000 X123.658 Y121.849
G1 F1500 X126.339 Y119.167 E284.42368
G0 F9000 X126.339 Y118.602
G1 F1500 X123.658 Y121.283 E284.54978
G0 F9000 X123.658 Y120.717
G1 F1500 X126.339 Y118.036 E284.67589
G0 F9000 X126.339 Y117.47
G1 F1500 X123.658 Y120.152 E284.80202
G0 F9000 X123.658 Y119.586
G1 F1500 X126.339 Y116.905 E284.92812
G0 F9000 X126.339 Y116.339
G1 F1500 X123.658 Y119.02 E285.05423
G0 F9000 X123.658 Y118.454
G1 F1500 X126.339 Y115.773 E285.18034
G0 F9000 X126.339 Y115.208
G1 F1500 X123.658 Y117.888 E285.30642
G0 F9000 X123.658 Y117.323
G1 F1500 X126.339 Y114.642 E285.43252
G0 F9000 X126.339 Y114.076
G1 F1500 X123.658 Y116.757 E285.55863
G0 F9000 X123.658 Y116.191
G1 F1500 X126.339 Y113.511 E285.68471
G0 F9000 X126.339 Y112.945
G1 F1500 X123.658 Y115.626 E285.81082
G0 F9000 X123.658 Y115.06
G1 F1500 X126.339 Y112.379 E285.93692
G0 F9000 X126.339 Y111.814
G1 F1500 X123.658 Y114.494 E286.06301
G0 F9000 X123.658 Y113.929
G1 F1500 X126.339 Y111.248 E286.18911
G0 F9000 X126.339 Y110.682
G1 F1500 X123.658 Y113.363 E286.31522
G0 F9000 X123.658 Y112.797
G1 F1500 X126.339 Y110.117 E286.4413
G0 F9000 X126.339 Y109.551
G1 F1500 X123.659 Y112.231 E286.56736
G0 F9000 X123.659 Y111.665
G1 F1500 X126.339 Y108.985 E286.69342
G0 F9000 X126.339 Y108.419
G1 F1500 X123.659 Y111.099 E286.81948
G0 F9000 X123.659 Y110.534
G1 F1500 X126.339 Y107.854 E286.94554
G0 F9000 X126.339 Y107.288
G1 F1500 X123.659 Y109.968 E287.0716
G0 F9000 X123.659 Y109.402
G1 F1500 X126.339 Y106.722 E287.19766
G0 F9000 X126.339 Y106.157
G1 F1500 X123.659 Y108.837 E287.32371
G0 F9000 X123.659 Y108.271
G1 F1500 X126.339 Y105.591 E287.44977
G0 F9000 X126.339 Y105.025
G1 F1500 X123.659 Y107.705 E287.57583
G0 F9000 X123.659 Y107.14
G1 F1500 X126.339 Y104.46 E287.70189
G0 F9000 X126.339 Y103.894
G1 F1500 X123.66 Y106.573 E287.8279
G0 F9000 X123.66 Y106.008
G1 F1500 X126.339 Y103.328 E287.95394
G0 F9000 X126.339 Y102.763
G1 F1500 X123.66 Y105.442 E288.07995
G0 F9000 X123.66 Y104.876
G1 F1500 X126.339 Y102.197 E288.20596
G0 F9000 X126.339 Y101.631
G1 F1500 X123.66 Y104.31 E288.33197
G0 F9000 X123.66 Y103.745
G1 F1500 X126.339 Y101.066 E288.45799
G0 F9000 X126.339 Y100.5
G1 F1500 X123.66 Y103.179 E288.584
G0 F9000 X123.66 Y102.613
G1 F1500 X126.339 Y99.934 E288.71001
G0 F9000 X126.339 Y99.369
G1 F1500 X123.66 Y102.048 E288.83602
G0 F9000 X123.66 Y101.482
G1 F1500 X126.339 Y98.803 E288.96203
G0 F9000 X126.339 Y98.237
G1 F1500 X123.66 Y100.916 E289.08805
G0 F9000 X123.66 Y100.35
G1 F1500 X126.339 Y97.671 E289.21406
G0 F9000 X126.339 Y97.106
G1 F1500 X123.66 Y99.784 E289.34005
G0 F9000 X123.66 Y99.219
G1 F1500 X126.339 Y96.54 E289.46606
G0 F9000 X126.339 Y95.974
G1 F1500 X123.66 Y98.653 E289.59207
G0 F9000 X123.66 Y98.087
G1 F1500 X126.339 Y95.409 E289.71806
G0 F9000 X126.022 Y95.16
G1 F1500 X123.66 Y97.522 E289.82916
G0 F9000 X123.66 Y96.956
G1 F1500 X125.457 Y95.16 E289.91366
G0 F9000 X124.891 Y95.16
G1 F1500 X123.66 Y96.39 E289.97154
G0 F9000 X123.66 Y95.824
G1 F1500 X124.325 Y95.16 E290.0028
G0 F9000 X123.759 Y95.16
G1 F1500 X123.66 Y95.259 E290.00745
G1 F2700 E285.00745
G0 F9000 X123.202 Y95.259
G0 X122.93 Y130.431
G0 X112.069 Y130.431
G0 X111.797 Y95.704
G1 F2700 E290.00745
G0 F9000 X111.336 Y95.704
G1 F1500 X108.66 Y98.38 E290.13332
G0 F9000 X108.66 Y98.946
G1 F1500 X111.336 Y96.269 E290.25922
G0 F9000 X111.336 Y96.835
G1 F1500 X108.66 Y99.511 E290.38509
G0 F9000 X108.66 Y100.077
G1 F1500 X111.336 Y97.401 E290.51096
G0 F9000 X111.336 Y97.966
G1 F1500 X108.66 Y100.643 E290.63685
G0 F9000 X108.66 Y101.208
G1 F1500 X111.336 Y98.532 E290.76273
G0 F9000 X111.336 Y99.098
G1 F1500 X108.66 Y101.774 E290.8886
G0 F9000 X108.66 Y102.34
G1 F1500 X111.336 Y99.663 E291.01449
G0 F9000 X111.337 Y100.228
G1 F1500 X108.66 Y102.905 E291.14041
G0 F9000 X108.66 Y103.471
G1 F1500 X111.337 Y100.794 E291.26633
G0 F9000 X111.337 Y101.36
G1 F1500 X108.66 Y104.037 E291.39224
G0 F9000 X108.66 Y104.603
G1 F1500 X111.337 Y101.925 E291.51819
G0 F9000 X111.337 Y102.491
G1 F1500 X108.66 Y105.168 E291.6441
G0 F9000 X108.66 Y105.734
G1 F1500 X111.337 Y103.057 E291.77002
G0 F9000 X111.337 Y103.622
G1 F1500 X108.66 Y106.3 E291.89596
G0 F9000 X108.66 Y106.865
G1 F1500 X111.337 Y104.188 E292.02188
G0 F9000 X111.337 Y104.754
G1 F1500 X108.66 Y107.431 E292.1478
G0 F9000 X108.66 Y107.997
G1 F1500 X111.338 Y105.319 E292.27376
G0 F9000 X111.338 Y105.884
G1 F1500 X108.66 Y108.562 E292.39973
G0 F9000 X108.66 Y109.128
G1 F1500 X111.338 Y106.45 E292.52569
G0 F9000 X111.338 Y107.016
G1 F1500 X108.66 Y109.694 E292.65166
G0 F9000 X108.66 Y110.259
G1 F1500 X111.338 Y107.582 E292.7776
G0 F9000 X111.338 Y108.147
G1 F1500 X108.66 Y110.825 E292.90356
G0 F9000 X108.66 Y111.391
G1 F1500 X111.338 Y108.713 E293.02953
G0 F9000 X111.338 Y109.279
G1 F1500 X108.66 Y111.956 E293.15547
G0 F9000 X108.66 Y112.522
G1 F1500 X111.338 Y109.844 E293.28144
G0 F9000 X111.338 Y110.409
G1 F1500 X108.66 Y113.088 E293.40742
G0 F9000 X108.66 Y113.653
G1 F1500 X111.338 Y110.975 E293.53339
G0 F9000 X111.338 Y111.541
G1 F1500 X108.661 Y114.218 E293.65931
G0 F9000 X108.661 Y114.784
G1 F1500 X111.338 Y112.106 E293.78525
G0 F9000 X111.338 Y112.672
G1 F1500 X108.661 Y115.35 E293.91119
G0 F9000 X108.661 Y115.916
G1 F1500 X111.338 Y113.238 E294.03713
G0 F9000 X111.338 Y113.803
G1 F1500 X108.661 Y116.481 E294.16307
G0 F9000 X108.661 Y117.047
G1 F1500 X111.338 Y114.369 E294.28901
G0 F9000 X111.338 Y114.935
G1 F1500 X108.661 Y117.613 E294.41496
G0 F9000 X108.661 Y118.178
G1 F1500 X111.339 Y115.5 E294.54092
G0 F9000 X111.339 Y116.065
G1 F1500 X108.661 Y118.744 E294.66691
G0 F9000 X108.661 Y119.31
G1 F1500 X111.339 Y116.631 E294.7929
G0 F9000 X111.339 Y117.197
G1 F1500 X108.661 Y119.875 E294.91886
G0 F9000 X108.661 Y120.441
G1 F1500 X111.339 Y117.762 E295.04485
G0 F9000 X111.339 Y118.328
G1 F1500 X108.661 Y121.007 E295.17084
G0 F9000 X108.661 Y121.572
G1 F1500 X111.339 Y118.894 E295.2968
G0 F9000 X111.339 Y119.46
G1 F1500 X108.661 Y122.138 E295.42277
G0 F9000 X108.661 Y122.704
G1 F1500 X111.339 Y120.025 E295.54876
G0 F9000 X111.34 Y120.59
G1 F1500 X108.661 Y123.269 E295.67477
G0 F9000 X108.661 Y123.835
G1 F1500 X111.34 Y121.156 E295.80078
G0 F9000 X111.34 Y121.722
G1 F1500 X108.661 Y124.401 E295.92679
G0 F9000 X108.661 Y124.966
G1 F1500 X111.34 Y122.287 E296.05281
G0 F9000 X111.34 Y122.853
G1 F1500 X108.661 Y125.532 E296.17882
G0 F9000 X108.661 Y126.098
G1 F1500 X111.34 Y123.419 E296.30483
G0 F9000 X111.34 Y123.984
G1 F1500 X108.661 Y126.664 E296.43086
G0 F9000 X108.661 Y127.229
G1 F1500 X111.34 Y124.55 E296.55688
G0 F9000 X111.34 Y125.116
G1 F1500 X108.661 Y127.795 E296.68289
G0 F9000 X108.661 Y128.361
G1 F1500 X111.341 Y125.681 E296.80895
G0 F9000 X111.341 Y126.246
G1 F1500 X108.661 Y128.926 E296.93501
G0 F9000 X108.661 Y129.492
G1 F1500 X111.341 Y126.812 E297.06107
G0 F9000 X111.341 Y127.378
G1 F1500 X108.661 Y130.058 E297.18712
G0 F9000 X108.661 Y130.623
G1 F1500 X111.341 Y127.943 E297.31318
G0 F9000 X111.341 Y128.509
G1 F1500 X108.661 Y131.189 E297.43924
G0 F9000 X108.661 Y131.755
G1 F1500 X111.341 Y129.075 E297.5653
G0 F9000 X111.341 Y129.64
G1 F1500 X108.661 Y132.32 E297.69136
G0 F9000 X108.708 Y132.839
G1 F1500 X111.341 Y130.206 E297.81521
G0 F9000 X111.507 Y130.605
G1 F1500 X109.274 Y132.839 E297.92027
G0 F9000 X109.839 Y132.839
G1 F1500 X111.775 Y130.903 E298.01133
G0 F9000 X112.143 Y131.101
G1 F1500 X110.405 Y132.839 E298.09308
G0 F9000 X110.971 Y132.839
G1 F1500 X112.649 Y131.161 E298.17201
G0 F9000 X113.214 Y131.161
G1 F1500 X111.536 Y132.839 E298.25094
G0 F9000 X112.102 Y132.839
G1 F1500 X113.78 Y131.161 E298.32986
G0 F9000 X114.346 Y131.16
G1 F1500 X112.668 Y132.839 E298.40881
G0 F9000 X113.233 Y132.839
G1 F1500 X114.912 Y131.16 E298.48779
G0 F9000 X115.478 Y131.16
G1 F1500 X113.799 Y132.839 E298.56676
G0 F9000 X114.365 Y132.839
G1 F1500 X116.044 Y131.159 E298.64576
G0 F9000 X116.61 Y131.159
G1 F1500 X114.931 Y132.839 E298.72476
G0 F9000 X115.496 Y132.839
G1 F1500 X117.176 Y131.159 E298.80378
G0 F9000 X117.742 Y131.159
G1 F1500 X116.062 Y132.839 E298.88281
G0 F9000 X116.628 Y132.839
G1 F1500 X118.308 Y131.159 E298.96183
G0 F9000 X118.873 Y131.159
G1 F1500 X117.193 Y132.839 E299.04085
G0 F9000 X117.759 Y132.839
G1 F1500 X119.44 Y131.158 E299.11992
G0 F9000 X120.005 Y131.158
G1 F1500 X118.325 Y132.839 E299.19896
G0 F9000 X118.89 Y132.839
G1 F1500 X120.571 Y131.158 E299.27803
G0 F9000 X121.137 Y131.157
G1 F1500 X119.456 Y132.839 E299.35713
G0 F9000 X120.022 Y132.839
G1 F1500 X121.703 Y131.157 E299.43622
G0 F9000 X122.269 Y131.157
G1 F1500 X120.587 Y132.839 E299.51534
G0 F9000 X121.153 Y132.839
G1 F1500 X122.9 Y131.091 E299.59753
G1 F2700 E294.59753
G0 F9000 X122.761 Y130.655
G0 X112.069 Y130.431
G0 X111.725 Y94.773
G0 X108.273 Y94.773
G0 X108.201 Y97.814
G1 F2700 E299.59753
G0 F9000 X108.66 Y97.814
G1 F1500 X111.314 Y95.161 E299.72234
