;FLAVOR:Marlin
;TIME:579
;Filament used: 0.346076m
;Layer height: 0.2
;MINX:107.7
;MINY:97.7
;MINZ:0.2
;MAXX:127.3
;MAXY:137.3
;MAXZ:2
;Generated with Cura_SteamEngine 5.2.2
M140 S50
M105
M190 S50
M104 S200
M105
M109 S200
M82 ;absolute extrusion mode
; Ender 3 Custom Start G-code
G92 E0 ; Reset Extruder
G28 ; Home all axes
G1 Z2.0 F3000 ; Move Z Axis up little to prevent scratching of Heat Bed
G1 X0.1 Y20 Z0.3 F5000.0 ; Move to start position
G1 X0.1 Y200.0 Z0.3 F1500.0 E15 ; Draw the first line
G1 X0.4 Y200.0 Z0.3 F5000.0 ; Move to side a little
G1 X0.4 Y20 Z0.3 F1500.0 E30 ; Draw the second line
G92 E0 ; Reset Extruder
G1 Z2.0 F3000 ; Move Z Axis up little to prevent scratching of Heat Bed
G1 X5 Y20 Z0.3 F5000.0 ; Move over to prevent blob squish
G92 E0
G92 E0
G1 F2700 E-5
;LAYER_COUNT:10
;LAYER:0
M107
;MESH:LETRA N.stl
G0 F6000 X108.1 Y136.9 Z0.2
;TYPE:WALL-INNER
G1 F2700 E0
G1 F1200 X126.9 Y136.9 E0.62529
G1 X126.9 Y99.999 E1.85262
G1 X126.9 Y98.1 E1.91578
G1 X123.102 Y98.1 E2.04211
G1 X123.102 Y131.578 E3.15559
G1 X122.961 Y131.891 E3.16701
G1 X122.824 Y132.01 E3.17304
G1 X122.62 Y132.103 E3.1805
G1 X112.377 Y132.103 E3.52118
G1 X112.175 Y132.01 E3.52858
G1 X112.038 Y131.891 E3.53461
G1 X111.897 Y131.578 E3.54603
G1 X111.897 Y98.101 E4.65948
G1 X108.101 Y98.101 E4.78574
G1 X108.1 Y136.9 E6.0762
G0 F6000 X107.7 Y137.3
;TYPE:WALL-OUTER
G1 F1200 X127.3 Y137.3 E6.7281
G1 X127.3 Y99.999 E7.96873
G1 X127.3 Y97.7 E8.0452
G1 X122.702 Y97.7 E8.19813
G1 X122.7 Y131.538 E9.32358
G1 X122.655 Y131.633 E9.32708
G1 X122.537 Y131.701 E9.33161
G1 X112.456 Y131.703 E9.66691
G1 X112.344 Y131.633 E9.6713
G1 X112.299 Y131.538 E9.67479
G1 X112.297 Y97.701 E10.80022
G1 X107.701 Y97.701 E10.95308
G1 X107.7 Y137.3 E12.27015
G0 F6000 X107.97 Y137.03
G0 X108.2 Y136.54
G0 X108.46 Y136.54
;TYPE:SKIN
G1 F1200 X126.54 Y136.54 E12.87149
G1 X126.54 Y99.999 E14.08685
G1 X126.54 Y98.46 E14.13804
G1 X123.462 Y98.46 E14.24041
G1 X123.46 Y131.63 E15.34365
G1 X123.386 Y131.874 E15.35213
G1 X123.241 Y132.124 E15.36174
G1 X123.019 Y132.313 E15.37144
G1 X122.752 Y132.431 E15.38115
G1 X122.525 Y132.462 E15.38877
G1 X112.475 Y132.461 E15.72304
G1 X112.191 Y132.412 E15.73262
G1 X111.982 Y132.314 E15.7403
G1 X111.76 Y132.125 E15.75
G1 X111.601 Y131.852 E15.7605
G1 X111.539 Y131.627 E15.76827
G1 X111.537 Y98.461 E16.87137
G1 X108.461 Y98.461 E16.97368
G1 X108.46 Y136.54 E18.24019
G0 F6000 X109.186 Y136.339
G1 F1200 X108.66 Y135.813 E18.26493
G0 F6000 X108.66 Y135.247
G1 F1200 X109.752 Y136.339 E18.3163
G0 F6000 X110.317 Y136.339
G1 F1200 X108.66 Y134.681 E18.39426
G0 F6000 X108.66 Y134.116
G1 F1200 X110.883 Y136.339 E18.49883
G0 F6000 X111.449 Y136.339
G1 F1200 X108.66 Y133.55 E18.63001
G0 F6000 X108.66 Y132.984
G1 F1200 X112.014 Y136.339 E18.7878
G0 F6000 X112.58 Y136.339
G1 F1200 X108.66 Y132.419 E18.97218
G0 F6000 X108.66 Y131.853
G1 F1200 X113.146 Y136.339 E19.18319
G0 F6000 X113.711 Y136.339
G1 F1200 X108.66 Y131.287 E19.4208
G0 F6000 X108.66 Y130.722
G1 F1200 X114.277 Y136.339 E19.685
G0 F6000 X114.843 Y136.339
G1 F1200 X108.66 Y130.156 E19.97583
G0 F6000 X108.66 Y129.59
G1 F1200 X115.409 Y136.339 E20.29328
G0 F6000 X115.974 Y136.339
G1 F1200 X112.267 Y132.632 E20.46765
G0 F6000 X112.863 Y132.662
G1 F1200 X116.54 Y136.339 E20.64061
G0 F6000 X117.106 Y136.339
G1 F1200 X113.429 Y132.662 E20.81356
G0 F6000 X113.994 Y132.662
G1 F1200 X117.671 Y136.339 E20.98651
G0 F6000 X118.237 Y136.339
G1 F1200 X114.56 Y132.662 E21.15947
G0 F6000 X115.125 Y132.661
G1 F1200 X118.803 Y136.339 E21.33247
G0 F6000 X119.368 Y136.339
G1 F1200 X115.691 Y132.661 E21.50545
G0 F6000 X116.256 Y132.661
G1 F1200 X119.934 Y136.339 E21.67845
G0 F6000 X120.5 Y136.339
G1 F1200 X116.822 Y132.661 E21.85145
G0 F6000 X117.388 Y132.661
G1 F1200 X121.065 Y136.339 E22.02443
G0 F6000 X121.631 Y136.339
G1 F1200 X117.953 Y132.661 E22.19743
G0 F6000 X118.518 Y132.661
G1 F1200 X122.197 Y136.339 E22.37046
G0 F6000 X122.762 Y136.339
G1 F1200 X119.084 Y132.661 E22.54346
G0 F6000 X119.65 Y132.661
G1 F1200 X123.328 Y136.339 E22.71646
G0 F6000 X123.894 Y136.339
G1 F1200 X120.215 Y132.66 E22.88951
G0 F6000 X120.78 Y132.66
G1 F1200 X124.459 Y136.339 E23.06256
G0 F6000 X125.025 Y136.339
G1 F1200 X121.346 Y132.66 E23.23561
G0 F6000 X121.912 Y132.66
G1 F1200 X125.591 Y136.339 E23.40866
G0 F6000 X126.157 Y136.339
G1 F1200 X122.477 Y132.66 E23.58173
G0 F6000 X122.949 Y132.566
G1 F1200 X126.339 Y135.956 E23.74119
G0 F6000 X126.339 Y135.39
G1 F1200 X123.292 Y132.343 E23.88451
G0 F6000 X123.532 Y132.018
G1 F1200 X126.339 Y134.824 E24.01652
G0 F6000 X126.339 Y134.259
G1 F1200 X123.657 Y131.577 E24.14267
G0 F6000 X123.657 Y131.011
G1 F1200 X126.339 Y133.693 E24.26882
G0 F6000 X126.339 Y133.127
G1 F1200 X123.657 Y130.445 E24.39498
G0 F6000 X123.657 Y129.879
G1 F1200 X126.339 Y132.562 E24.52115
G0 F6000 X126.339 Y131.996
G1 F1200 X123.657 Y129.314 E24.64731
G0 F6000 X123.657 Y128.748
G1 F1200 X126.339 Y131.43 E24.77346
G0 F6000 X126.339 Y130.864
G1 F1200 X123.657 Y128.182 E24.89961
G0 F6000 X123.657 Y127.617
G1 F1200 X126.339 Y130.299 E25.02576
G0 F6000 X126.339 Y129.733
G1 F1200 X123.657 Y127.051 E25.15192
G0 F6000 X123.657 Y126.485
G1 F1200 X126.339 Y129.167 E25.27807
G0 F6000 X126.339 Y128.602
G1 F1200 X123.658 Y125.92 E25.4042
G0 F6000 X123.658 Y125.355
G1 F1200 X126.339 Y128.036 E25.53031
G0 F6000 X126.339 Y127.47
G1 F1200 X123.658 Y124.789 E25.65641
G0 F6000 X123.658 Y124.223
G1 F1200 X126.339 Y126.905 E25.78254
G0 F6000 X126.339 Y126.339
G1 F1200 X123.658 Y123.658 E25.90865
G0 F6000 X123.658 Y123.092
G1 F1200 X126.339 Y125.773 E26.03475
G0 F6000 X126.339 Y125.208
G1 F1200 X123.658 Y122.526 E26.16088
G0 F6000 X123.658 Y121.961
G1 F1200 X126.339 Y124.642 E26.28699
G0 F6000 X126.339 Y124.076
G1 F1200 X123.658 Y121.395 E26.4131
G0 F6000 X123.658 Y120.829
G1 F1200 X126.339 Y123.511 E26.53922
G0 F6000 X126.339 Y122.945
G1 F1200 X123.658 Y120.264 E26.66533
G0 F6000 X123.658 Y119.699
G1 F1200 X126.339 Y122.379 E26.79141
G0 F6000 X126.339 Y121.813
G1 F1200 X123.658 Y119.133 E26.9175
G0 F6000 X123.658 Y118.567
G1 F1200 X126.339 Y121.248 E27.0436
G0 F6000 X126.339 Y120.682
G1 F1200 X123.658 Y118.001 E27.16971
G0 F6000 X123.658 Y117.436
G1 F1200 X126.339 Y120.116 E27.29579
G0 F6000 X126.339 Y119.551
G1 F1200 X123.658 Y116.87 E27.4219
G0 F6000 X123.658 Y116.304
G1 F1200 X126.339 Y118.985 E27.548
G0 F6000 X126.339 Y118.419
G1 F1200 X123.658 Y115.739 E27.67408
G0 F6000 X123.658 Y115.173
G1 F1200 X126.339 Y117.854 E27.80019
G0 F6000 X126.339 Y117.288
G1 F1200 X123.659 Y114.608 E27.92625
G0 F6000 X123.659 Y114.042
G1 F1200 X126.339 Y116.722 E28.05231
G0 F6000 X126.339 Y116.157
G1 F1200 X123.659 Y113.477 E28.17837
G0 F6000 X123.659 Y112.911
G1 F1200 X126.339 Y115.591 E28.30443
G0 F6000 X126.339 Y115.025
G1 F1200 X123.659 Y112.345 E28.43049
G0 F6000 X123.659 Y111.78
G1 F1200 X126.339 Y114.46 E28.55654
G0 F6000 X126.339 Y113.894
G1 F1200 X123.659 Y111.214 E28.6826
G0 F6000 X123.659 Y110.648
G1 F1200 X126.339 Y113.328 E28.80866
G0 F6000 X126.339 Y112.763
G1 F1200 X123.659 Y110.083 E28.93472
G0 F6000 X123.66 Y109.518
G1 F1200 X126.339 Y112.197 E29.06073
G0 F6000 X126.339 Y111.631
G1 F1200 X123.66 Y108.952 E29.18675
G0 F6000 X123.66 Y108.386
G1 F1200 X126.339 Y111.065 E29.31276
G0 F6000 X126.339 Y110.5
G1 F1200 X123.66 Y107.821 E29.43877
G0 F6000 X123.66 Y107.255
G1 F1200 X126.339 Y109.934 E29.56478
G0 F6000 X126.339 Y109.368
G1 F1200 X123.66 Y106.689 E29.69079
G0 F6000 X123.66 Y106.123
G1 F1200 X126.339 Y108.803 E29.81683
G0 F6000 X126.339 Y108.237
G1 F1200 X123.66 Y105.558 E29.94284
G0 F6000 X123.66 Y104.992
G1 F1200 X126.339 Y107.671 E30.06885
G0 F6000 X126.339 Y107.106
G1 F1200 X123.66 Y104.426 E30.19489
G0 F6000 X123.66 Y103.861
G1 F1200 X126.339 Y106.54 E30.3209
G0 F6000 X126.339 Y105.974
G1 F1200 X123.66 Y103.296 E30.44689
G0 F6000 X123.66 Y102.73
G1 F1200 X126.339 Y105.409 E30.5729
G0 F6000 X126.339 Y104.843
G1 F1200 X123.66 Y102.164 E30.69891
G0 F6000 X123.66 Y101.599
G1 F1200 X126.339 Y104.277 E30.8249
G0 F6000 X126.339 Y103.712
G1 F1200 X123.66 Y101.033 E30.95091
G0 F6000 X123.66 Y100.467
G1 F1200 X126.339 Y103.146 E31.07692
G0 F6000 X126.339 Y102.58
G1 F1200 X123.66 Y99.902 E31.20291
G0 F6000 X123.66 Y99.336
G1 F1200 X126.339 Y102.015 E31.32893
G0 F6000 X126.339 Y101.449
G1 F1200 X123.66 Y98.77 E31.45494
G0 F6000 X124.116 Y98.66
G1 F1200 X126.339 Y100.883 E31.5595
G0 F6000 X126.339 Y100.317
G1 F1200 X124.682 Y98.66 E31.63744
G0 F6000 X125.247 Y98.66
G1 F1200 X126.339 Y99.752 E31.6888
G0 F6000 X126.339 Y99.186
G1 F1200 X125.813 Y98.66 E31.71355
G1 F2700 E26.71355
G0 F6000 X125.813 Y98.2
G0 X122.94 Y98.199
G0 X122.93 Y131.931
G0 X112.069 Y131.931
G0 X112.056 Y98.2
G0 X111.337 Y98.201
G1 F2700 E31.71355
G0 F6000 X111.337 Y98.892
G1 F1200 X111.106 Y98.661 E31.72441
G0 F6000 X110.54 Y98.661
G1 F1200 X111.337 Y99.458 E31.7619
G0 F6000 X111.337 Y100.023
G1 F1200 X109.974 Y98.661 E31.82599
G0 F6000 X109.409 Y98.661
G1 F1200 X111.337 Y100.589 E31.91668
G0 F6000 X111.337 Y101.155
G1 F1200 X108.843 Y98.661 E32.03399
G0 F6000 X108.66 Y99.043
G1 F1200 X111.337 Y101.72 E32.1599
G0 F6000 X111.337 Y102.286
G1 F1200 X108.66 Y99.609 E32.28582
G0 F6000 X108.66 Y100.175
G1 F1200 X111.338 Y102.852 E32.41176
G0 F6000 X111.338 Y103.418
G1 F1200 X108.66 Y100.74 E32.53773
G0 F6000 X108.66 Y101.306
G1 F1200 X111.338 Y103.984 E32.66369
G0 F6000 X111.338 Y104.549
G1 F1200 X108.66 Y101.872 E32.78963
G0 F6000 X108.66 Y102.437
G1 F1200 X111.338 Y105.115 E32.9156
G0 F6000 X111.338 Y105.681
G1 F1200 X108.66 Y103.003 E33.04156
G0 F6000 X108.66 Y103.569
G1 F1200 X111.338 Y106.247 E33.16753
G0 F6000 X111.338 Y106.812
G1 F1200 X108.66 Y104.134 E33.29349
G0 F6000 X108.66 Y104.7
G1 F1200 X111.338 Y107.379 E33.41948
G0 F6000 X111.338 Y107.944
G1 F1200 X108.66 Y105.266 E33.54545
G0 F6000 X108.66 Y105.831
G1 F1200 X111.338 Y108.51 E33.67144
G0 F6000 X111.338 Y109.076
G1 F1200 X108.66 Y106.397 E33.79742
G0 F6000 X108.66 Y106.963
G1 F1200 X111.338 Y109.641 E33.92339
G0 F6000 X111.338 Y110.207
G1 F1200 X108.66 Y107.529 E34.04935
G0 F6000 X108.66 Y108.094
G1 F1200 X111.338 Y110.773 E34.17534
G0 F6000 X111.339 Y111.339
G1 F1200 X108.66 Y108.66 E34.30135
G0 F6000 X108.66 Y109.226
G1 F1200 X111.339 Y111.905 E34.42737
G0 F6000 X111.339 Y112.47
G1 F1200 X108.66 Y109.791 E34.55338
G0 F6000 X108.66 Y110.357
G1 F1200 X111.339 Y113.036 E34.67939
G0 F6000 X111.339 Y113.602
G1 F1200 X108.66 Y110.923 E34.8054
G0 F6000 X108.66 Y111.488
G1 F1200 X111.339 Y114.168 E34.93144
G0 F6000 X111.339 Y114.733
G1 F1200 X108.66 Y112.054 E35.05745
G0 F6000 X108.66 Y112.62
G1 F1200 X111.34 Y115.3 E35.18351
G0 F6000 X111.34 Y115.865
G1 F1200 X108.66 Y113.185 E35.30957
G0 F6000 X108.66 Y113.751
G1 F1200 X111.34 Y116.431 E35.43563
G0 F6000 X111.34 Y116.997
G1 F1200 X108.66 Y114.317 E35.56168
G0 F6000 X108.66 Y114.882
G1 F1200 X111.34 Y117.562 E35.68774
G0 F6000 X111.34 Y118.128
G1 F1200 X108.66 Y115.448 E35.8138
G0 F6000 X108.66 Y116.014
G1 F1200 X111.34 Y118.694 E35.93986
G0 F6000 X111.34 Y119.259
G1 F1200 X108.66 Y116.579 E36.06592
G0 F6000 X108.66 Y117.145
G1 F1200 X111.341 Y119.826 E36.19203
G0 F6000 X111.341 Y120.392
G1 F1200 X108.66 Y117.711 E36.31813
G0 F6000 X108.66 Y118.277
G1 F1200 X111.341 Y120.957 E36.44422
G0 F6000 X111.341 Y121.523
G1 F1200 X108.66 Y118.842 E36.57032
G0 F6000 X108.66 Y119.408
G1 F1200 X111.341 Y122.089 E36.69643
G0 F6000 X111.341 Y122.654
G1 F1200 X108.66 Y119.974 E36.82251
G0 F6000 X108.66 Y120.539
G1 F1200 X111.341 Y123.22 E36.94862
G0 F6000 X111.341 Y123.786
G1 F1200 X108.66 Y121.105 E37.07472
G0 F6000 X108.66 Y121.671
G1 F1200 X111.341 Y124.352 E37.20083
G0 F6000 X111.341 Y124.918
G1 F1200 X108.66 Y122.236 E37.32696
G0 F6000 X108.66 Y122.802
G1 F1200 X111.341 Y125.483 E37.45306
G0 F6000 X111.341 Y126.049
G1 F1200 X108.66 Y123.368 E37.57917
G0 F6000 X108.66 Y123.933
G1 F1200 X111.341 Y126.615 E37.7053
G0 F6000 X111.341 Y127.18
G1 F1200 X108.66 Y124.499 E37.83141
G0 F6000 X108.66 Y125.065
G1 F1200 X111.342 Y127.747 E37.95756
G0 F6000 X111.342 Y128.313
G1 F1200 X108.66 Y125.63 E38.08373
G0 F6000 X108.66 Y126.196
G1 F1200 X111.342 Y128.878 E38.20989
G0 F6000 X111.342 Y129.444
G1 F1200 X108.66 Y126.762 E38.33604
G0 F6000 X108.66 Y127.328
G1 F1200 X111.342 Y130.01 E38.46219
G0 F6000 X111.342 Y130.575
G1 F1200 X108.66 Y127.893 E38.58835
G0 F6000 X108.66 Y128.459
G1 F1200 X111.342 Y131.141 E38.7145
G0 F6000 X111.359 Y131.724
G1 F1200 X108.66 Y129.025 E38.84145
;MESH:NONMESH
G0 F300 X108.66 Y129.025 Z0.4
G0 F6000 X108.201 Y129.025
G0 X108.1 Y136.9
;TIME_ELAPSED:76.431649
;LAYER:1
M106 S85
;TYPE:WALL-INNER
;MESH:LETRA N.stl
G1 F1350 X126.9 Y136.9 E39.46674
G1 X126.9 Y99.999 E40.69408
G1 X126.9 Y98.1 E40.75724
G1 X123.102 Y98.1 E40.88356
G1 X123.102 Y131.578 E41.99704
G1 X122.961 Y131.891 E42.00846
G1 X122.824 Y132.01 E42.01449
G1 X122.62 Y132.103 E42.02195
G1 X112.377 Y132.103 E42.36264
G1 X112.175 Y132.01 E42.37003
G1 X112.038 Y131.891 E42.37607
G1 X111.897 Y131.578 E42.38749
G1 X111.897 Y98.101 E43.50093
G1 X108.101 Y98.101 E43.62719
G1 X108.1 Y136.9 E44.91765
G0 F7500 X107.7 Y137.3
;TYPE:WALL-OUTER
G1 F1350 X127.3 Y137.3 E45.56955
G1 X127.3 Y99.999 E46.81019
G1 X127.3 Y97.7 E46.88665
G1 X122.702 Y97.7 E47.03958
G1 X122.7 Y131.538 E48.16504
G1 X122.655 Y131.633 E48.16853
G1 X122.537 Y131.701 E48.17306
G1 X112.456 Y131.703 E48.50836
G1 X112.344 Y131.633 E48.51275
G1 X112.299 Y131.538 E48.51625
G1 X112.297 Y97.701 E49.64167
G1 X107.701 Y97.701 E49.79453
G1 X107.7 Y137.3 E51.1116
G0 F7500 X107.97 Y137.03
G0 X108.2 Y136.54
G0 X108.46 Y136.54
;TYPE:SKIN
G1 F1350 X126.54 Y136.54 E51.71295
G1 X126.54 Y99.999 E52.9283
G1 X126.54 Y98.46 E52.97949
G1 X123.462 Y98.46 E53.08187
G1 X123.46 Y131.63 E54.1851
G1 X123.386 Y131.874 E54.19359
G1 X123.241 Y132.124 E54.2032
G1 X123.019 Y132.313 E54.21289
G1 X122.752 Y132.431 E54.2226
G1 X122.525 Y132.462 E54.23022
G1 X112.475 Y132.461 E54.56449
G1 X112.191 Y132.412 E54.57407
G1 X111.982 Y132.314 E54.58175
G1 X111.76 Y132.125 E54.59145
G1 X111.601 Y131.852 E54.60196
G1 X111.539 Y131.627 E54.60972
G1 X111.537 Y98.461 E55.71282
G1 X108.461 Y98.461 E55.81513
G1 X108.46 Y136.54 E57.08165
G0 F7500 X108.2 Y136.54
G0 X126.138 Y136.8
G0 X126.138 Y136.339
G1 F1350 X126.339 Y136.138 E57.0911
G0 F7500 X126.339 Y135.572
G1 F1350 X125.572 Y136.339 E57.12718
G0 F7500 X125.007 Y136.339
G1 F1350 X126.339 Y135.007 E57.18983
G0 F7500 X126.339 Y134.441
G1 F1350 X124.441 Y136.339 E57.27911
G0 F7500 X123.875 Y136.339
G1 F1350 X126.339 Y133.875 E57.39501
G0 F7500 X126.339 Y133.31
G1 F1350 X123.31 Y136.339 E57.53748
G0 F7500 X122.744 Y136.339
G1 F1350 X126.339 Y132.744 E57.70658
G0 F7500 X126.339 Y132.178
G1 F1350 X122.178 Y136.339 E57.9023
G0 F7500 X121.613 Y136.339
G1 F1350 X126.339 Y131.613 E58.1246
G0 F7500 X126.339 Y131.047
G1 F1350 X121.047 Y136.339 E58.37351
G0 F7500 X120.481 Y136.339
G1 F1350 X126.339 Y130.481 E58.64906
G0 F7500 X126.339 Y129.916
G1 F1350 X119.916 Y136.339 E58.95118
G0 F7500 X119.35 Y136.339
G1 F1350 X126.339 Y129.35 E59.27992
G0 F7500 X126.339 Y128.784
G1 F1350 X123.658 Y131.465 E59.40602
G0 F7500 X123.658 Y130.9
G1 F1350 X126.339 Y128.218 E59.53215
G0 F7500 X126.339 Y127.653
G1 F1350 X123.658 Y130.334 E59.65826
G0 F7500 X123.658 Y129.768
G1 F1350 X126.339 Y127.087 E59.78436
G0 F7500 X126.339 Y126.521
G1 F1350 X123.658 Y129.203 E59.91049
G0 F7500 X123.658 Y128.637
G1 F1350 X126.339 Y125.956 E60.0366
G0 F7500 X126.339 Y125.39
G1 F1350 X123.658 Y128.071 E60.16271
G0 F7500 X123.658 Y127.506
G1 F1350 X126.339 Y124.824 E60.28884
G0 F7500 X126.339 Y124.259
G1 F1350 X123.658 Y126.94 E60.41494
G0 F7500 X123.658 Y126.374
G1 F1350 X126.339 Y123.693 E60.54105
G0 F7500 X126.339 Y123.127
G1 F1350 X123.658 Y125.808 E60.66715
G0 F7500 X123.658 Y125.242
G1 F1350 X126.339 Y122.562 E60.79324
G0 F7500 X126.339 Y121.996
G1 F1350 X123.658 Y124.677 E60.91934
G0 F7500 X123.658 Y124.111
G1 F1350 X126.339 Y121.43 E61.04545
G0 F7500 X126.339 Y120.865
G1 F1350 X123.658 Y123.545 E61.17153
G0 F7500 X123.658 Y122.98
G1 F1350 X126.339 Y120.299 E61.29764
G0 F7500 X126.339 Y119.733
G1 F1350 X123.658 Y122.414 E61.42374
G0 F7500 X123.658 Y121.848
G1 F1350 X126.339 Y119.167 E61.54985
G0 F7500 X126.339 Y118.602
G1 F1350 X123.658 Y121.282 E61.67593
G0 F7500 X123.658 Y120.717
G1 F1350 X126.339 Y118.036 E61.80204
G0 F7500 X126.339 Y117.47
G1 F1350 X123.659 Y120.15 E61.9281
G0 F7500 X123.659 Y119.585
G1 F1350 X126.339 Y116.905 E62.05415
G0 F7500 X126.339 Y116.339
G1 F1350 X123.659 Y119.019 E62.18021
G0 F7500 X123.659 Y118.453
G1 F1350 X126.339 Y115.773 E62.30627
G0 F7500 X126.339 Y115.208
G1 F1350 X123.659 Y117.888 E62.43233
G0 F7500 X123.659 Y117.322
G1 F1350 X126.339 Y114.642 E62.55839
G0 F7500 X126.339 Y114.076
G1 F1350 X123.659 Y116.756 E62.68445
G0 F7500 X123.659 Y116.191
G1 F1350 X126.339 Y113.511 E62.81051
G0 F7500 X126.339 Y112.945
G1 F1350 X123.659 Y115.625 E62.93657
G0 F7500 X123.66 Y115.059
G1 F1350 X126.339 Y112.379 E63.0626
G0 F7500 X126.339 Y111.814
G1 F1350 X123.66 Y114.493 E63.18862
G0 F7500 X123.66 Y113.927
G1 F1350 X126.339 Y111.248 E63.31463
G0 F7500 X126.339 Y110.682
G1 F1350 X123.66 Y113.361 E63.44064
G0 F7500 X123.66 Y112.796
G1 F1350 X126.339 Y110.117 E63.56665
G0 F7500 X126.339 Y109.551
G1 F1350 X123.66 Y112.23 E63.69266
G0 F7500 X123.66 Y111.664
G1 F1350 X126.339 Y108.985 E63.81867
G0 F7500 X126.339 Y108.419
G1 F1350 X123.66 Y111.099 E63.94471
G0 F7500 X123.66 Y110.533
G1 F1350 X126.339 Y107.854 E64.07072
G0 F7500 X126.339 Y107.288
G1 F1350 X123.66 Y109.967 E64.19673
G0 F7500 X123.66 Y109.401
G1 F1350 X126.339 Y106.722 E64.32275
G0 F7500 X126.339 Y106.157
G1 F1350 X123.66 Y108.835 E64.44873
G0 F7500 X123.66 Y108.27
G1 F1350 X126.339 Y105.591 E64.57475
G0 F7500 X126.339 Y105.025
G1 F1350 X123.66 Y107.704 E64.70076
G0 F7500 X123.66 Y107.138
G1 F1350 X126.339 Y104.46 E64.82675
G0 F7500 X126.339 Y103.894
G1 F1350 X123.66 Y106.573 E64.95276
G0 F7500 X123.66 Y106.007
G1 F1350 X126.339 Y103.328 E65.07877
G0 F7500 X126.339 Y102.763
G1 F1350 X123.66 Y105.441 E65.20476
G0 F7500 X123.66 Y104.875
G1 F1350 X126.339 Y102.197 E65.33075
G0 F7500 X126.339 Y101.631
G1 F1350 X123.66 Y104.31 E65.45676
G0 F7500 X123.661 Y103.743
G1 F1350 X126.339 Y101.066 E65.5827
G0 F7500 X126.339 Y100.5
G1 F1350 X123.661 Y103.178 E65.70867
G0 F7500 X123.661 Y102.612
G1 F1350 X126.339 Y99.934 E65.83463
G0 F7500 X126.339 Y99.369
G1 F1350 X123.661 Y102.046 E65.96057
G0 F7500 X123.661 Y101.481
G1 F1350 X126.339 Y98.803 E66.08654
G0 F7500 X125.917 Y98.659
G1 F1350 X123.661 Y100.915 E66.19265
G0 F7500 X123.661 Y100.349
G1 F1350 X125.351 Y98.659 E66.27214
G0 F7500 X124.785 Y98.659
G1 F1350 X123.661 Y99.784 E66.32504
G0 F7500 X123.661 Y99.218
G1 F1350 X124.22 Y98.659 E66.35133
G1 F2700 E61.35133
G0 F7500 X124.22 Y98.2
G0 X122.94 Y98.199
G0 X122.93 Y131.931
G0 X112.069 Y131.931
G0 X112.056 Y98.2
G0 X111.336 Y98.201
G1 F2700 E66.35133
G0 F7500 X111.336 Y99.098
G1 F1350 X108.66 Y101.774 E66.4772
G0 F7500 X108.66 Y102.34
G1 F1350 X111.336 Y99.663 E66.6031
G0 F7500 X111.336 Y100.229
G1 F1350 X108.66 Y102.905 E66.72897
G0 F7500 X108.66 Y103.471
G1 F1350 X111.336 Y100.795 E66.85484
G0 F7500 X111.336 Y101.36
G1 F1350 X108.66 Y104.037 E66.98073
G0 F7500 X108.66 Y104.603
G1 F1350 X111.336 Y101.926 E67.10663
G0 F7500 X111.336 Y102.492
G1 F1350 X108.66 Y105.168 E67.2325
G0 F7500 X108.66 Y105.734
G1 F1350 X111.337 Y103.057 E67.35842
G0 F7500 X111.337 Y103.622
G1 F1350 X108.66 Y106.3 E67.48436
G0 F7500 X108.66 Y106.865
G1 F1350 X111.337 Y104.188 E67.61028
G0 F7500 X111.337 Y104.754
G1 F1350 X108.66 Y107.431 E67.73619
G0 F7500 X108.66 Y107.997
G1 F1350 X111.337 Y105.32 E67.86211
G0 F7500 X111.337 Y105.885
G1 F1350 X108.66 Y108.562 E67.98803
G0 F7500 X108.66 Y109.128
G1 F1350 X111.337 Y106.451 E68.11395
G0 F7500 X111.338 Y107.016
G1 F1350 X108.66 Y109.694 E68.23991
G0 F7500 X108.66 Y110.259
G1 F1350 X111.338 Y107.582 E68.36585
G0 F7500 X111.338 Y108.147
G1 F1350 X108.66 Y110.825 E68.49182
G0 F7500 X108.66 Y111.391
G1 F1350 X111.338 Y108.713 E68.61778
G0 F7500 X111.338 Y109.279
G1 F1350 X108.66 Y111.956 E68.74372
G0 F7500 X108.66 Y112.522
G1 F1350 X111.338 Y109.844 E68.86969
G0 F7500 X111.338 Y110.41
G1 F1350 X108.66 Y113.088 E68.99565
G0 F7500 X108.66 Y113.653
G1 F1350 X111.338 Y110.976 E69.1216
G0 F7500 X111.338 Y111.541
G1 F1350 X108.66 Y114.219 E69.24756
G0 F7500 X108.66 Y114.785
G1 F1350 X111.338 Y112.106 E69.37355
G0 F7500 X111.338 Y112.672
G1 F1350 X108.66 Y115.351 E69.49954
G0 F7500 X108.66 Y115.916
G1 F1350 X111.338 Y113.238 E69.6255
G0 F7500 X111.338 Y113.803
G1 F1350 X108.66 Y116.482 E69.75149
G0 F7500 X108.66 Y117.048
G1 F1350 X111.338 Y114.369 E69.87748
G0 F7500 X111.338 Y114.935
G1 F1350 X108.66 Y117.613 E70.00344
G0 F7500 X108.66 Y118.179
G1 F1350 X111.339 Y115.5 E70.12946
G0 F7500 X111.339 Y116.065
G1 F1350 X108.66 Y118.745 E70.25549
G0 F7500 X108.66 Y119.31
G1 F1350 X111.339 Y116.631 E70.3815
G0 F7500 X111.339 Y117.197
G1 F1350 X108.66 Y119.876 E70.50752
G0 F7500 X108.66 Y120.442
G1 F1350 X111.339 Y117.762 E70.63355
G0 F7500 X111.339 Y118.328
G1 F1350 X108.66 Y121.007 E70.75956
G0 F7500 X108.66 Y121.573
G1 F1350 X111.339 Y118.894 E70.88557
G0 F7500 X111.34 Y119.459
G1 F1350 X108.66 Y122.139 E71.01163
G0 F7500 X108.66 Y122.704
G1 F1350 X111.34 Y120.025 E71.13767
G0 F7500 X111.34 Y120.59
G1 F1350 X108.66 Y123.27 E71.26373
G0 F7500 X108.66 Y123.836
G1 F1350 X111.34 Y121.156 E71.38979
G0 F7500 X111.34 Y121.722
G1 F1350 X108.66 Y124.402 E71.51585
G0 F7500 X108.66 Y124.967
G1 F1350 X111.34 Y122.287 E71.6419
G0 F7500 X111.34 Y122.853
G1 F1350 X108.66 Y125.533 E71.76796
G0 F7500 X108.66 Y126.099
G1 F1350 X111.341 Y123.418 E71.89407
G0 F7500 X111.341 Y123.984
G1 F1350 X108.66 Y126.664 E72.02015
G0 F7500 X108.66 Y127.23
G1 F1350 X111.341 Y124.549 E72.14626
G0 F7500 X111.341 Y125.115
G1 F1350 X108.66 Y127.796 E72.27236
G0 F7500 X108.66 Y128.361
G1 F1350 X111.341 Y125.681 E72.39845
G0 F7500 X111.341 Y126.246
G1 F1350 X108.66 Y128.927 E72.52455
G0 F7500 X108.66 Y129.493
G1 F1350 X111.341 Y126.812 E72.65066
G0 F7500 X111.341 Y127.378
G1 F1350 X108.66 Y130.058 E72.77674
G0 F7500 X108.66 Y130.624
G1 F1350 X111.341 Y127.943 E72.90285
G0 F7500 X111.341 Y128.508
G1 F1350 X108.66 Y131.19 E73.02898
G0 F7500 X108.66 Y131.755
G1 F1350 X111.341 Y129.074 E73.15508
G0 F7500 X111.341 Y129.64
G1 F1350 X108.66 Y132.321 E73.28119
G0 F7500 X108.66 Y132.887
G1 F1350 X111.341 Y130.205 E73.40732
G0 F7500 X111.341 Y130.771
G1 F1350 X108.66 Y133.452 E73.53342
G0 F7500 X108.66 Y134.018
G1 F1350 X111.341 Y131.337 E73.65953
G0 F7500 X111.392 Y131.852
G1 F1350 X108.66 Y134.584 E73.78804
G0 F7500 X108.66 Y135.15
G1 F1350 X111.585 Y132.224 E73.92564
G0 F7500 X111.887 Y132.488
G1 F1350 X108.66 Y135.715 E74.07743
G0 F7500 X108.66 Y136.281
G1 F1350 X112.305 Y132.636 E74.24888
G0 F7500 X112.845 Y132.661
G1 F1350 X109.168 Y136.339 E74.42186
G0 F7500 X109.733 Y136.339
G1 F1350 X113.411 Y132.661 E74.59486
G0 F7500 X113.977 Y132.661
G1 F1350 X110.299 Y136.339 E74.76786
G0 F7500 X110.865 Y136.339
G1 F1350 X114.542 Y132.661 E74.94084
G0 F7500 X115.109 Y132.661
G1 F1350 X111.43 Y136.339 E75.11387
G0 F7500 X111.996 Y136.339
G1 F1350 X115.674 Y132.661 E75.28687
G0 F7500 X116.24 Y132.661
G1 F1350 X112.562 Y136.339 E75.45987
G0 F7500 X113.127 Y136.339
G1 F1350 X116.806 Y132.661 E75.63289
G0 F7500 X117.371 Y132.661
G1 F1350 X113.693 Y136.339 E75.8059
G0 F7500 X114.259 Y136.339
G1 F1350 X117.938 Y132.66 E75.97895
G0 F7500 X118.504 Y132.66
G1 F1350 X114.824 Y136.339 E76.15202
G0 F7500 X115.39 Y136.339
G1 F1350 X119.069 Y132.66 E76.32507
G0 F7500 X119.635 Y132.66
G1 F1350 X115.956 Y136.339 E76.49812
G0 F7500 X116.522 Y136.339
G1 F1350 X120.201 Y132.659 E76.67119
G0 F7500 X120.767 Y132.659
G1 F1350 X117.087 Y136.339 E76.84428
G0 F7500 X117.653 Y136.339
G1 F1350 X121.333 Y132.659 E77.01738
G0 F7500 X121.898 Y132.659
G1 F1350 X118.219 Y136.339 E77.19045
G0 F7500 X118.784 Y136.339
G1 F1350 X122.464 Y132.659 E77.36355
G1 F2700 E72.36355
G0 F7500 X122.464 Y132.203
G0 X112.069 Y131.931
G0 X111.725 Y98.273
G0 X108.273 Y98.273
G0 X108.201 Y101.208
G1 F2700 E77.36355
G0 F7500 X108.66 Y101.208
G1 F1350 X111.208 Y98.66 E77.4834
G0 F7500 X110.643 Y98.66
G1 F1350 X108.66 Y100.643 E77.57667
G0 F7500 X108.66 Y100.077
G1 F1350 X110.077 Y98.66 E77.64332
G0 F7500 X109.511 Y98.66
G1 F1350 X108.66 Y99.511 E77.68335
G0 F7500 X108.66 Y98.946
G1 F1350 X108.946 Y98.66 E77.6968
G1 F2700 E72.6968
;MESH:NONMESH
G0 F300 X108.946 Y98.66 Z0.6
G0 F7500 X108.946 Y98.201
G0 X108.273 Y98.273
G0 X108.1 Y136.9
;TIME_ELAPSED:145.098086
;LAYER:2
M106 S170
;TYPE:WALL-INNER
;MESH:LETRA N.stl
G1 F2700 E77.6968
G1 F1500 X126.9 Y136.9 E78.3221
G1 X126.9 Y99.999 E79.54943
G1 X126.9 Y98.1 E79.61259
G1 X123.102 Y98.1 E79.73891
G1 X123.102 Y131.578 E80.85239
G1 X122.961 Y131.891 E80.86381
G1 X122.824 Y132.01 E80.86985
G1 X122.62 Y132.103 E80.8773
G1 X112.377 Y132.103 E81.21799
G1 X112.175 Y132.01 E81.22538
G1 X112.038 Y131.891 E81.23142
G1 X111.897 Y131.578 E81.24284
G1 X111.897 Y98.101 E82.35629
G1 X108.101 Y98.101 E82.48254
G1 X108.1 Y136.9 E83.773
G0 F9000 X107.7 Y137.3
;TYPE:WALL-OUTER
G1 F1500 X127.3 Y137.3 E84.4249
G1 X127.3 Y99.999 E85.66554
G1 X127.3 Y97.7 E85.742
G1 X122.702 Y97.7 E85.89493
G1 X122.7 Y131.538 E87.02039
G1 X122.655 Y131.633 E87.02389
G1 X122.537 Y131.701 E87.02841
G1 X112.456 Y131.703 E87.36371
G1 X112.344 Y131.633 E87.3681
G1 X112.299 Y131.538 E87.3716
G1 X112.297 Y97.701 E88.49702
G1 X107.701 Y97.701 E88.64989
G1 X107.7 Y137.3 E89.96695
G0 F9000 X107.97 Y137.03
G0 X108.2 Y136.54
G0 X108.46 Y136.54
;TYPE:SKIN
G1 F1500 X126.54 Y136.54 E90.5683
G1 X126.54 Y99.999 E91.78366
G1 X126.54 Y98.46 E91.83484
G1 X123.462 Y98.46 E91.93722
G1 X123.46 Y131.63 E93.04046
G1 X123.386 Y131.874 E93.04894
G1 X123.241 Y132.124 E93.05855
G1 X123.019 Y132.313 E93.06825
G1 X122.752 Y132.431 E93.07796
G1 X122.525 Y132.462 E93.08558
G1 X112.475 Y132.461 E93.41984
G1 X112.191 Y132.412 E93.42943
G1 X111.982 Y132.314 E93.4371
G1 X111.76 Y132.125 E93.4468
G1 X111.601 Y131.852 E93.45731
G1 X111.539 Y131.627 E93.46507
G1 X111.537 Y98.461 E94.56818
G1 X108.461 Y98.461 E94.67048
G1 X108.46 Y136.54 E95.937
G0 F9000 X109.186 Y136.339
G1 F1500 X108.66 Y135.813 E95.96174
G0 F9000 X108.66 Y135.247
G1 F1500 X109.752 Y136.339 E96.0131
G0 F9000 X110.317 Y136.339
G1 F1500 X108.66 Y134.681 E96.09107
G0 F9000 X108.66 Y134.116
G1 F1500 X110.883 Y136.339 E96.19563
G0 F9000 X111.449 Y136.339
G1 F1500 X108.66 Y133.55 E96.32682
G0 F9000 X108.66 Y132.984
G1 F1500 X112.014 Y136.339 E96.4846
G0 F9000 X112.58 Y136.339
G1 F1500 X108.66 Y132.419 E96.66899
G0 F9000 X108.66 Y131.853
G1 F1500 X113.146 Y136.339 E96.87999
G0 F9000 X113.711 Y136.339
G1 F1500 X108.66 Y131.287 E97.1176
G0 F9000 X108.66 Y130.722
G1 F1500 X114.277 Y136.339 E97.38181
G0 F9000 X114.843 Y136.339
G1 F1500 X108.66 Y130.156 E97.67264
G0 F9000 X108.66 Y129.59
G1 F1500 X115.409 Y136.339 E97.99009
G0 F9000 X115.974 Y136.339
G1 F1500 X112.267 Y132.632 E98.16445
G0 F9000 X112.863 Y132.662
G1 F1500 X116.54 Y136.339 E98.33741
G0 F9000 X117.106 Y136.339
G1 F1500 X113.429 Y132.662 E98.51036
G0 F9000 X113.994 Y132.662
G1 F1500 X117.671 Y136.339 E98.68332
G0 F9000 X118.237 Y136.339
G1 F1500 X114.56 Y132.662 E98.85627
G0 F9000 X115.125 Y132.661
G1 F1500 X118.803 Y136.339 E99.02928
G0 F9000 X119.368 Y136.339
G1 F1500 X115.691 Y132.661 E99.20225
G0 F9000 X116.256 Y132.661
G1 F1500 X119.934 Y136.339 E99.37526
G0 F9000 X120.5 Y136.339
G1 F1500 X116.822 Y132.661 E99.54826
G0 F9000 X117.388 Y132.661
G1 F1500 X121.065 Y136.339 E99.72124
G0 F9000 X121.631 Y136.339
G1 F1500 X117.953 Y132.661 E99.89424
G0 F9000 X118.518 Y132.661
G1 F1500 X122.197 Y136.339 E100.06726
G0 F9000 X122.762 Y136.339
G1 F1500 X119.084 Y132.661 E100.24027
G0 F9000 X119.65 Y132.661
G1 F1500 X123.328 Y136.339 E100.41327
G0 F9000 X123.894 Y136.339
G1 F1500 X120.215 Y132.66 E100.58632
G0 F9000 X120.78 Y132.66
G1 F1500 X124.459 Y136.339 E100.75937
G0 F9000 X125.025 Y136.339
G1 F1500 X121.346 Y132.66 E100.93241
G0 F9000 X121.912 Y132.66
G1 F1500 X125.591 Y136.339 E101.10546
G0 F9000 X126.157 Y136.339
G1 F1500 X122.477 Y132.66 E101.27854
G0 F9000 X122.949 Y132.566
G1 F1500 X126.339 Y135.956 E101.43799
G0 F9000 X126.339 Y135.39
G1 F1500 X123.292 Y132.343 E101.58131
G0 F9000 X123.532 Y132.018
G1 F1500 X126.339 Y134.824 E101.71332
G0 F9000 X126.339 Y134.259
G1 F1500 X123.657 Y131.577 E101.83947
G0 F9000 X123.657 Y131.011
G1 F1500 X126.339 Y133.693 E101.96563
G0 F9000 X126.339 Y133.127
G1 F1500 X123.657 Y130.445 E102.09178
G0 F9000 X123.657 Y129.879
G1 F1500 X126.339 Y132.562 E102.21796
G0 F9000 X126.339 Y131.996
G1 F1500 X123.657 Y129.314 E102.34411
G0 F9000 X123.657 Y128.748
G1 F1500 X126.339 Y131.43 E102.47026
G0 F9000 X126.339 Y130.864
G1 F1500 X123.657 Y128.182 E102.59642
G0 F9000 X123.657 Y127.617
G1 F1500 X126.339 Y130.299 E102.72257
G0 F9000 X126.339 Y129.733
G1 F1500 X123.657 Y127.051 E102.84872
G0 F9000 X123.657 Y126.485
G1 F1500 X126.339 Y129.167 E102.97488
G0 F9000 X126.339 Y128.602
G1 F1500 X123.658 Y125.92 E103.101
G0 F9000 X123.658 Y125.355
G1 F1500 X126.339 Y128.036 E103.22711
G0 F9000 X126.339 Y127.47
G1 F1500 X123.658 Y124.789 E103.35322
G0 F9000 X123.658 Y124.223
G1 F1500 X126.339 Y126.905 E103.47935
G0 F9000 X126.339 Y126.339
G1 F1500 X123.658 Y123.658 E103.60545
G0 F9000 X123.658 Y123.092
G1 F1500 X126.339 Y125.773 E103.73156
G0 F9000 X126.339 Y125.208
G1 F1500 X123.658 Y122.526 E103.85769
G0 F9000 X123.658 Y121.961
G1 F1500 X126.339 Y124.642 E103.98379
G0 F9000 X126.339 Y124.076
G1 F1500 X123.658 Y121.395 E104.1099
G0 F9000 X123.658 Y120.829
G1 F1500 X126.339 Y123.511 E104.23603
G0 F9000 X126.339 Y122.945
G1 F1500 X123.658 Y120.264 E104.36214
G0 F9000 X123.658 Y119.699
G1 F1500 X126.339 Y122.379 E104.48822
G0 F9000 X126.339 Y121.813
G1 F1500 X123.658 Y119.133 E104.6143
G0 F9000 X123.658 Y118.567
G1 F1500 X126.339 Y121.248 E104.74041
G0 F9000 X126.339 Y120.682
G1 F1500 X123.658 Y118.001 E104.86651
G0 F9000 X123.658 Y117.436
G1 F1500 X126.339 Y120.116 E104.9926
G0 F9000 X126.339 Y119.551
G1 F1500 X123.658 Y116.87 E105.1187
G0 F9000 X123.658 Y116.304
G1 F1500 X126.339 Y118.985 E105.24481
G0 F9000 X126.339 Y118.419
G1 F1500 X123.658 Y115.739 E105.37089
G0 F9000 X123.658 Y115.173
G1 F1500 X126.339 Y117.854 E105.497
G0 F9000 X126.339 Y117.288
G1 F1500 X123.659 Y114.608 E105.62305
G0 F9000 X123.659 Y114.042
G1 F1500 X126.339 Y116.722 E105.74911
G0 F9000 X126.339 Y116.157
G1 F1500 X123.659 Y113.477 E105.87517
G0 F9000 X123.659 Y112.911
G1 F1500 X126.339 Y115.591 E106.00123
G0 F9000 X126.339 Y115.025
G1 F1500 X123.659 Y112.345 E106.12729
G0 F9000 X123.659 Y111.78
G1 F1500 X126.339 Y114.46 E106.25335
G0 F9000 X126.339 Y113.894
G1 F1500 X123.659 Y111.214 E106.37941
G0 F9000 X123.659 Y110.648
G1 F1500 X126.339 Y113.328 E106.50547
G0 F9000 X126.339 Y112.763
G1 F1500 X123.659 Y110.083 E106.63153
G0 F9000 X123.66 Y109.518
G1 F1500 X126.339 Y112.197 E106.75754
G0 F9000 X126.339 Y111.631
G1 F1500 X123.66 Y108.952 E106.88355
G0 F9000 X123.66 Y108.386
G1 F1500 X126.339 Y111.065 E107.00956
G0 F9000 X126.339 Y110.5
G1 F1500 X123.66 Y107.821 E107.13557
G0 F9000 X123.66 Y107.255
G1 F1500 X126.339 Y109.934 E107.26159
G0 F9000 X126.339 Y109.368
G1 F1500 X123.66 Y106.689 E107.3876
G0 F9000 X123.66 Y106.123
G1 F1500 X126.339 Y108.803 E107.51363
G0 F9000 X126.339 Y108.237
G1 F1500 X123.66 Y105.558 E107.63965
G0 F9000 X123.66 Y104.992
G1 F1500 X126.339 Y107.671 E107.76566
G0 F9000 X126.339 Y107.106
G1 F1500 X123.66 Y104.426 E107.89169
G0 F9000 X123.66 Y103.861
G1 F1500 X126.339 Y106.54 E108.0177
G0 F9000 X126.339 Y105.974
G1 F1500 X123.66 Y103.296 E108.14369
G0 F9000 X123.66 Y102.73
G1 F1500 X126.339 Y105.409 E108.26971
G0 F9000 X126.339 Y104.843
G1 F1500 X123.66 Y102.164 E108.39572
G0 F9000 X123.66 Y101.599
G1 F1500 X126.339 Y104.277 E108.52171
G0 F9000 X126.339 Y103.712
G1 F1500 X123.66 Y101.033 E108.64772
G0 F9000 X123.66 Y100.467
G1 F1500 X126.339 Y103.146 E108.77373
G0 F9000 X126.339 Y102.58
G1 F1500 X123.66 Y99.902 E108.89972
G0 F9000 X123.66 Y99.336
G1 F1500 X126.339 Y102.015 E109.02573
G0 F9000 X126.339 Y101.449
G1 F1500 X123.66 Y98.77 E109.15174
G0 F9000 X124.116 Y98.66
G1 F1500 X126.339 Y100.883 E109.2563
G0 F9000 X126.339 Y100.317
G1 F1500 X124.682 Y98.66 E109.33425
G0 F9000 X125.247 Y98.66
G1 F1500 X126.339 Y99.752 E109.38561
G0 F9000 X126.339 Y99.186
G1 F1500 X125.813 Y98.66 E109.41035
G1 F2700 E104.41035
G0 F9000 X125.813 Y98.2
G0 X122.94 Y98.199
G0 X122.93 Y131.931
G0 X112.069 Y131.931
G0 X112.056 Y98.2
G0 X111.337 Y98.201
G1 F2700 E109.41035
G0 F9000 X111.337 Y98.892
G1 F1500 X111.106 Y98.661 E109.42122
G0 F9000 X110.54 Y98.661
G1 F1500 X111.337 Y99.458 E109.4587
G0 F9000 X111.337 Y100.023
G1 F1500 X109.974 Y98.661 E109.52279
G0 F9000 X109.409 Y98.661
G1 F1500 X111.337 Y100.589 E109.61348
G0 F9000 X111.337 Y101.155
G1 F1500 X108.843 Y98.661 E109.73079
G0 F9000 X108.66 Y99.043
G1 F1500 X111.337 Y101.72 E109.85671
G0 F9000 X111.337 Y102.286
G1 F1500 X108.66 Y99.609 E109.98263
G0 F9000 X108.66 Y100.175
G1 F1500 X111.338 Y102.852 E110.10857
G0 F9000 X111.338 Y103.418
G1 F1500 X108.66 Y100.74 E110.23453
G0 F9000 X108.66 Y101.306
G1 F1500 X111.338 Y103.984 E110.3605
G0 F9000 X111.338 Y104.549
G1 F1500 X108.66 Y101.872 E110.48644
G0 F9000 X108.66 Y102.437
G1 F1500 X111.338 Y105.115 E110.6124
G0 F9000 X111.338 Y105.681
G1 F1500 X108.66 Y103.003 E110.73837
G0 F9000 X108.66 Y103.569
G1 F1500 X111.338 Y106.247 E110.86433
G0 F9000 X111.338 Y106.812
G1 F1500 X108.66 Y104.134 E110.9903
G0 F9000 X108.66 Y104.7
G1 F1500 X111.338 Y107.379 E111.11629
G0 F9000 X111.338 Y107.944
G1 F1500 X108.66 Y105.266 E111.24225
G0 F9000 X108.66 Y105.831
G1 F1500 X111.338 Y108.51 E111.36824
G0 F9000 X111.338 Y109.076
G1 F1500 X108.66 Y106.397 E111.49423
G0 F9000 X108.66 Y106.963
G1 F1500 X111.338 Y109.641 E111.62019
G0 F9000 X111.338 Y110.207
G1 F1500 X108.66 Y107.529 E111.74616
G0 F9000 X108.66 Y108.094
G1 F1500 X111.338 Y110.773 E111.87215
G0 F9000 X111.339 Y111.339
G1 F1500 X108.66 Y108.66 E111.99816
G0 F9000 X108.66 Y109.226
G1 F1500 X111.339 Y111.905 E112.12417
G0 F9000 X111.339 Y112.47
G1 F1500 X108.66 Y109.791 E112.25018
G0 F9000 X108.66 Y110.357
G1 F1500 X111.339 Y113.036 E112.37619
G0 F9000 X111.339 Y113.602
G1 F1500 X108.66 Y110.923 E112.50221
G0 F9000 X108.66 Y111.488
G1 F1500 X111.339 Y114.168 E112.62824
G0 F9000 X111.339 Y114.733
G1 F1500 X108.66 Y112.054 E112.75425
G0 F9000 X108.66 Y112.62
G1 F1500 X111.34 Y115.3 E112.88031
G0 F9000 X111.34 Y115.865
G1 F1500 X108.66 Y113.185 E113.00637
G0 F9000 X108.66 Y113.751
G1 F1500 X111.34 Y116.431 E113.13243
G0 F9000 X111.34 Y116.997
G1 F1500 X108.66 Y114.317 E113.25849
G0 F9000 X108.66 Y114.882
G1 F1500 X111.34 Y117.562 E113.38455
G0 F9000 X111.34 Y118.128
G1 F1500 X108.66 Y115.448 E113.51061
G0 F9000 X108.66 Y116.014
G1 F1500 X111.34 Y118.694 E113.63667
G0 F9000 X111.34 Y119.259
G1 F1500 X108.66 Y116.579 E113.76273
G0 F9000 X108.66 Y117.145
G1 F1500 X111.341 Y119.826 E113.88883
G0 F9000 X111.341 Y120.392
G1 F1500 X108.66 Y117.711 E114.01494
G0 F9000 X108.66 Y118.277
G1 F1500 X111.341 Y120.957 E114.14102
G0 F9000 X111.341 Y121.523
G1 F1500 X108.66 Y118.842 E114.26713
G0 F9000 X108.66 Y119.408
G1 F1500 X111.341 Y122.089 E114.39323
G0 F9000 X111.341 Y122.654
G1 F1500 X108.66 Y119.974 E114.51931
G0 F9000 X108.66 Y120.539
G1 F1500 X111.341 Y123.22 E114.64542
G0 F9000 X111.341 Y123.786
G1 F1500 X108.66 Y121.105 E114.77153
G0 F9000 X108.66 Y121.671
G1 F1500 X111.341 Y124.352 E114.89763
G0 F9000 X111.341 Y124.918
G1 F1500 X108.66 Y122.236 E115.02376
G0 F9000 X108.66 Y122.802
G1 F1500 X111.341 Y125.483 E115.14987
G0 F9000 X111.341 Y126.049
G1 F1500 X108.66 Y123.368 E115.27597
G0 F9000 X108.66 Y123.933
G1 F1500 X111.341 Y126.615 E115.4021
G0 F9000 X111.341 Y127.18
G1 F1500 X108.66 Y124.499 E115.52821
G0 F9000 X108.66 Y125.065
G1 F1500 X111.342 Y127.747 E115.65436
G0 F9000 X111.342 Y128.313
G1 F1500 X108.66 Y125.63 E115.78054
G0 F9000 X108.66 Y126.196
G1 F1500 X111.342 Y128.878 E115.90669
G0 F9000 X111.342 Y129.444
G1 F1500 X108.66 Y126.762 E116.03285
G0 F9000 X108.66 Y127.328
G1 F1500 X111.342 Y130.01 E116.159
G0 F9000 X111.342 Y130.575
G1 F1500 X108.66 Y127.893 E116.28515
G0 F9000 X108.66 Y128.459
G1 F1500 X111.342 Y131.141 E116.4113
G0 F9000 X111.359 Y131.724
G1 F1500 X108.66 Y129.025 E116.53826
;MESH:NONMESH
G0 F300 X108.66 Y129.025 Z0.8
G0 F9000 X108.201 Y129.025
G0 X108.1 Y136.9
;TIME_ELAPSED:207.336869
;LAYER:3
M106 S255
;TYPE:WALL-INNER
;MESH:LETRA N.stl
G1 F1500 X126.9 Y136.9 E117.16355
G1 X126.9 Y99.999 E118.39088
G1 X126.9 Y98.1 E118.45404
G1 X123.102 Y98.1 E118.58036
G1 X123.102 Y131.578 E119.69385
G1 X122.961 Y131.891 E119.70526
G1 X122.824 Y132.01 E119.7113
G1 X122.62 Y132.103 E119.71876
G1 X112.377 Y132.103 E120.05944
G1 X112.175 Y132.01 E120.06684
G1 X112.038 Y131.891 E120.07287
G1 X111.897 Y131.578 E120.08429
G1 X111.897 Y98.101 E121.19774
G1 X108.101 Y98.101 E121.32399
G1 X108.1 Y136.9 E122.61445
G0 F9000 X107.7 Y137.3
;TYPE:WALL-OUTER
G1 F1500 X127.3 Y137.3 E123.26635
G1 X127.3 Y99.999 E124.50699
G1 X127.3 Y97.7 E124.58345
G1 X122.702 Y97.7 E124.73638
G1 X122.7 Y131.538 E125.86184
G1 X122.655 Y131.633 E125.86534
G1 X122.537 Y131.701 E125.86987
G1 X112.456 Y131.703 E126.20516
G1 X112.344 Y131.633 E126.20956
G1 X112.299 Y131.538 E126.21305
G1 X112.297 Y97.701 E127.33848
G1 X107.701 Y97.701 E127.49134
G1 X107.7 Y137.3 E128.80841
G0 F9000 X107.97 Y137.03
G0 X108.2 Y136.54
G0 X108.46 Y136.54
;TYPE:SKIN
G1 F1500 X126.54 Y136.54 E129.40975
G1 X126.54 Y99.999 E130.62511
G1 X126.54 Y98.46 E130.6763
G1 X123.462 Y98.46 E130.77867
G1 X123.46 Y131.63 E131.88191
G1 X123.386 Y131.874 E131.89039
G1 X123.241 Y132.124 E131.9
G1 X123.019 Y132.313 E131.9097
G1 X122.752 Y132.431 E131.91941
G1 X122.525 Y132.462 E131.92703
G1 X112.475 Y132.461 E132.26129
G1 X112.191 Y132.412 E132.27088
G1 X111.982 Y132.314 E132.27856
G1 X111.76 Y132.125 E132.28825
G1 X111.601 Y131.852 E132.29876
G1 X111.539 Y131.627 E132.30652
G1 X111.537 Y98.461 E133.40963
G1 X108.461 Y98.461 E133.51194
G1 X108.46 Y136.54 E134.77845
G0 F9000 X108.2 Y136.54
G0 X126.138 Y136.8
G0 X126.138 Y136.339
G1 F1500 X126.339 Y136.138 E134.7879
G0 F9000 X126.339 Y135.572
G1 F1500 X125.572 Y136.339 E134.82398
G0 F9000 X125.007 Y136.339
G1 F1500 X126.339 Y135.007 E134.88664
G0 F9000 X126.339 Y134.441
G1 F1500 X124.441 Y136.339 E134.97591
G0 F9000 X123.875 Y136.339
G1 F1500 X126.339 Y133.875 E135.09181
G0 F9000 X126.339 Y133.31
G1 F1500 X123.31 Y136.339 E135.23428
G0 F9000 X122.744 Y136.339
G1 F1500 X126.339 Y132.744 E135.40338
G0 F9000 X126.339 Y132.178
G1 F1500 X122.178 Y136.339 E135.5991
G0 F9000 X121.613 Y136.339
G1 F1500 X126.339 Y131.613 E135.8214
G0 F9000 X126.339 Y131.047
G1 F1500 X121.047 Y136.339 E136.07032
G0 F9000 X120.481 Y136.339
G1 F1500 X126.339 Y130.481 E136.34586
G0 F9000 X126.339 Y129.916
G1 F1500 X119.916 Y136.339 E136.64798
G0 F9000 X119.35 Y136.339
G1 F1500 X126.339 Y129.35 E136.97672
G0 F9000 X126.339 Y128.784
G1 F1500 X123.658 Y131.465 E137.10283
G0 F9000 X123.658 Y130.9
G1 F1500 X126.339 Y128.218 E137.22896
G0 F9000 X126.339 Y127.653
G1 F1500 X123.658 Y130.334 E137.35506
G0 F9000 X123.658 Y129.768
G1 F1500 X126.339 Y127.087 E137.48117
G0 F9000 X126.339 Y126.521
G1 F1500 X123.658 Y129.203 E137.6073
G0 F9000 X123.658 Y128.637
G1 F1500 X126.339 Y125.956 E137.7334
G0 F9000 X126.339 Y125.39
G1 F1500 X123.658 Y128.071 E137.85951
G0 F9000 X123.658 Y127.506
G1 F1500 X126.339 Y124.824 E137.98564
G0 F9000 X126.339 Y124.259
G1 F1500 X123.658 Y126.94 E138.11175
G0 F9000 X123.658 Y126.374
G1 F1500 X126.339 Y123.693 E138.23785
G0 F9000 X126.339 Y123.127
G1 F1500 X123.658 Y125.808 E138.36396
G0 F9000 X123.658 Y125.242
G1 F1500 X126.339 Y122.562 E138.49004
G0 F9000 X126.339 Y121.996
G1 F1500 X123.658 Y124.677 E138.61615
G0 F9000 X123.658 Y124.111
G1 F1500 X126.339 Y121.43 E138.74225
G0 F9000 X126.339 Y120.865
G1 F1500 X123.658 Y123.545 E138.86834
G0 F9000 X123.658 Y122.98
G1 F1500 X126.339 Y120.299 E138.99444
G0 F9000 X126.339 Y119.733
G1 F1500 X123.658 Y122.414 E139.12055
G0 F9000 X123.658 Y121.848
G1 F1500 X126.339 Y119.167 E139.24665
G0 F9000 X126.339 Y118.602
G1 F1500 X123.658 Y121.282 E139.37274
G0 F9000 X123.658 Y120.717
G1 F1500 X126.339 Y118.036 E139.49884
G0 F9000 X126.339 Y117.47
G1 F1500 X123.659 Y120.15 E139.6249
G0 F9000 X123.659 Y119.585
G1 F1500 X126.339 Y116.905 E139.75096
G0 F9000 X126.339 Y116.339
G1 F1500 X123.659 Y119.019 E139.87702
G0 F9000 X123.659 Y118.453
G1 F1500 X126.339 Y115.773 E140.00308
G0 F9000 X126.339 Y115.208
G1 F1500 X123.659 Y117.888 E140.12914
G0 F9000 X123.659 Y117.322
G1 F1500 X126.339 Y114.642 E140.2552
G0 F9000 X126.339 Y114.076
G1 F1500 X123.659 Y116.756 E140.38125
G0 F9000 X123.659 Y116.191
G1 F1500 X126.339 Y113.511 E140.50731
G0 F9000 X126.339 Y112.945
G1 F1500 X123.659 Y115.625 E140.63337
G0 F9000 X123.66 Y115.059
G1 F1500 X126.339 Y112.379 E140.75941
G0 F9000 X126.339 Y111.814
G1 F1500 X123.66 Y114.493 E140.88542
G0 F9000 X123.66 Y113.927
G1 F1500 X126.339 Y111.248 E141.01143
G0 F9000 X126.339 Y110.682
G1 F1500 X123.66 Y113.361 E141.13744
G0 F9000 X123.66 Y112.796
G1 F1500 X126.339 Y110.117 E141.26346
G0 F9000 X126.339 Y109.551
G1 F1500 X123.66 Y112.23 E141.38947
G0 F9000 X123.66 Y111.664
G1 F1500 X126.339 Y108.985 E141.51548
G0 F9000 X126.339 Y108.419
G1 F1500 X123.66 Y111.099 E141.64152
G0 F9000 X123.66 Y110.533
G1 F1500 X126.339 Y107.854 E141.76753
G0 F9000 X126.339 Y107.288
G1 F1500 X123.66 Y109.967 E141.89354
G0 F9000 X123.66 Y109.401
G1 F1500 X126.339 Y106.722 E142.01955
G0 F9000 X126.339 Y106.157
G1 F1500 X123.66 Y108.835 E142.14554
G0 F9000 X123.66 Y108.27
G1 F1500 X126.339 Y105.591 E142.27155
G0 F9000 X126.339 Y105.025
G1 F1500 X123.66 Y107.704 E142.39756
G0 F9000 X123.66 Y107.138
G1 F1500 X126.339 Y104.46 E142.52355
G0 F9000 X126.339 Y103.894
G1 F1500 X123.66 Y106.573 E142.64956
G0 F9000 X123.66 Y106.007
G1 F1500 X126.339 Y103.328 E142.77558
G0 F9000 X126.339 Y102.763
G1 F1500 X123.66 Y105.441 E142.90156
G0 F9000 X123.66 Y104.875
G1 F1500 X126.339 Y102.197 E143.02755
G0 F9000 X126.339 Y101.631
G1 F1500 X123.66 Y104.31 E143.15356
G0 F9000 X123.661 Y103.743
G1 F1500 X126.339 Y101.066 E143.27951
G0 F9000 X126.339 Y100.5
G1 F1500 X123.661 Y103.178 E143.40547
G0 F9000 X123.661 Y102.612
G1 F1500 X126.339 Y99.934 E143.53144
G0 F9000 X126.339 Y99.369
G1 F1500 X123.661 Y102.046 E143.65738
G0 F9000 X123.661 Y101.481
G1 F1500 X126.339 Y98.803 E143.78334
G0 F9000 X125.917 Y98.659
G1 F1500 X123.661 Y100.915 E143.88946
G0 F9000 X123.661 Y100.349
G1 F1500 X125.351 Y98.659 E143.96895
G0 F9000 X124.785 Y98.659
G1 F1500 X123.661 Y99.784 E144.02184
G0 F9000 X123.661 Y99.218
G1 F1500 X124.22 Y98.659 E144.04814
G1 F2700 E139.04814
G0 F9000 X124.22 Y98.2
G0 X122.94 Y98.199
G0 X122.93 Y131.931
G0 X112.069 Y131.931
G0 X112.056 Y98.2
G0 X111.336 Y98.201
G1 F2700 E144.04814
G0 F9000 X111.336 Y99.098
G1 F1500 X108.66 Y101.774 E144.17401
G0 F9000 X108.66 Y102.34
G1 F1500 X111.336 Y99.663 E144.2999
G0 F9000 X111.336 Y100.229
G1 F1500 X108.66 Y102.905 E144.42577
G0 F9000 X108.66 Y103.471
G1 F1500 X111.336 Y100.795 E144.55164
G0 F9000 X111.336 Y101.36
G1 F1500 X108.66 Y104.037 E144.67754
G0 F9000 X108.66 Y104.603
G1 F1500 X111.336 Y101.926 E144.80343
G0 F9000 X111.336 Y102.492
G1 F1500 X108.66 Y105.168 E144.9293
G0 F9000 X108.66 Y105.734
G1 F1500 X111.337 Y103.057 E145.05522
G0 F9000 X111.337 Y103.622
G1 F1500 X108.66 Y106.3 E145.18116
G0 F9000 X108.66 Y106.865
G1 F1500 X111.337 Y104.188 E145.30708
G0 F9000 X111.337 Y104.754
G1 F1500 X108.66 Y107.431 E145.433
G0 F9000 X108.66 Y107.997
G1 F1500 X111.337 Y105.32 E145.55892
G0 F9000 X111.337 Y105.885
G1 F1500 X108.66 Y108.562 E145.68483
G0 F9000 X108.66 Y109.128
G1 F1500 X111.337 Y106.451 E145.81075
G0 F9000 X111.338 Y107.016
G1 F1500 X108.66 Y109.694 E145.93672
G0 F9000 X108.66 Y110.259
G1 F1500 X111.338 Y107.582 E146.06266
G0 F9000 X111.338 Y108.147
G1 F1500 X108.66 Y110.825 E146.18862
G0 F9000 X108.66 Y111.391
G1 F1500 X111.338 Y108.713 E146.31459
G0 F9000 X111.338 Y109.279
G1 F1500 X108.66 Y111.956 E146.44053
G0 F9000 X108.66 Y112.522
G1 F1500 X111.338 Y109.844 E146.56649
G0 F9000 X111.338 Y110.41
G1 F1500 X108.66 Y113.088 E146.69246
G0 F9000 X108.66 Y113.653
G1 F1500 X111.338 Y110.976 E146.8184
G0 F9000 X111.338 Y111.541
G1 F1500 X108.66 Y114.219 E146.94436
G0 F9000 X108.66 Y114.785
G1 F1500 X111.338 Y112.106 E147.07035
G0 F9000 X111.338 Y112.672
G1 F1500 X108.66 Y115.351 E147.19634
G0 F9000 X108.66 Y115.916
G1 F1500 X111.338 Y113.238 E147.32231
G0 F9000 X111.338 Y113.803
G1 F1500 X108.66 Y116.482 E147.4483
G0 F9000 X108.66 Y117.048
G1 F1500 X111.338 Y114.369 E147.57428
G0 F9000 X111.338 Y114.935
G1 F1500 X108.66 Y117.613 E147.70025
G0 F9000 X108.66 Y118.179
G1 F1500 X111.339 Y115.5 E147.82626
G0 F9000 X111.339 Y116.065
G1 F1500 X108.66 Y118.745 E147.9523
G0 F9000 X108.66 Y119.31
G1 F1500 X111.339 Y116.631 E148.07831
G0 F9000 X111.339 Y117.197
G1 F1500 X108.66 Y119.876 E148.20432
G0 F9000 X108.66 Y120.442
G1 F1500 X111.339 Y117.762 E148.33036
G0 F9000 X111.339 Y118.328
G1 F1500 X108.66 Y121.007 E148.45637
G0 F9000 X108.66 Y121.573
G1 F1500 X111.339 Y118.894 E148.58238
G0 F9000 X111.34 Y119.459
G1 F1500 X108.66 Y122.139 E148.70844
G0 F9000 X108.66 Y122.704
G1 F1500 X111.34 Y120.025 E148.83447
G0 F9000 X111.34 Y120.59
G1 F1500 X108.66 Y123.27 E148.96053
G0 F9000 X108.66 Y123.836
G1 F1500 X111.34 Y121.156 E149.08659
G0 F9000 X111.34 Y121.722
G1 F1500 X108.66 Y124.402 E149.21265
G0 F9000 X108.66 Y124.967
G1 F1500 X111.34 Y122.287 E149.33871
G0 F9000 X111.34 Y122.853
G1 F1500 X108.66 Y125.533 E149.46477
G0 F9000 X108.66 Y126.099
G1 F1500 X111.341 Y123.418 E149.59087
G0 F9000 X111.341 Y123.984
G1 F1500 X108.66 Y126.664 E149.71696
G0 F9000 X108.66 Y127.23
G1 F1500 X111.341 Y124.549 E149.84306
G0 F9000 X111.341 Y125.115
G1 F1500 X108.66 Y127.796 E149.96917
G0 F9000 X108.66 Y128.361
G1 F1500 X111.341 Y125.681 E150.09525
G0 F9000 X111.341 Y126.246
G1 F1500 X108.66 Y128.927 E150.22136
G0 F9000 X108.66 Y129.493
G1 F1500 X111.341 Y126.812 E150.34746
G0 F9000 X111.341 Y127.378
G1 F1500 X108.66 Y130.058 E150.47355
G0 F9000 X108.66 Y130.624
G1 F1500 X111.341 Y127.943 E150.59965
G0 F9000 X111.341 Y128.508
G1 F1500 X108.66 Y131.19 E150.72578
G0 F9000 X108.66 Y131.755
G1 F1500 X111.341 Y129.074 E150.85189
G0 F9000 X111.341 Y129.64
G1 F1500 X108.66 Y132.321 E150.97799
G0 F9000 X108.66 Y132.887
G1 F1500 X111.341 Y130.205 E151.10412
G0 F9000 X111.341 Y130.771
G1 F1500 X108.66 Y133.452 E151.23023
G0 F9000 X108.66 Y134.018
G1 F1500 X111.341 Y131.337 E151.35634
G0 F9000 X111.392 Y131.852
G1 F1500 X108.66 Y134.584 E151.48484
G0 F9000 X108.66 Y135.15
G1 F1500 X111.585 Y132.224 E151.62245
G0 F9000 X111.887 Y132.488
G1 F1500 X108.66 Y135.715 E151.77423
G0 F9000 X108.66 Y136.281
G1 F1500 X112.305 Y132.636 E151.94568
G0 F9000 X112.845 Y132.661
G1 F1500 X109.168 Y136.339 E152.11866
G0 F9000 X109.733 Y136.339
G1 F1500 X113.411 Y132.661 E152.29166
G0 F9000 X113.977 Y132.661
G1 F1500 X110.299 Y136.339 E152.46467
G0 F9000 X110.865 Y136.339
G1 F1500 X114.542 Y132.661 E152.63764
G0 F9000 X115.109 Y132.661
G1 F1500 X111.43 Y136.339 E152.81067
G0 F9000 X111.996 Y136.339
G1 F1500 X115.674 Y132.661 E152.98367
G0 F9000 X116.24 Y132.661
G1 F1500 X112.562 Y136.339 E153.15667
G0 F9000 X113.127 Y136.339
G1 F1500 X116.806 Y132.661 E153.3297
G0 F9000 X117.371 Y132.661
G1 F1500 X113.693 Y136.339 E153.5027
G0 F9000 X114.259 Y136.339
G1 F1500 X117.938 Y132.66 E153.67575
G0 F9000 X118.504 Y132.66
G1 F1500 X114.824 Y136.339 E153.84882
G0 F9000 X115.39 Y136.339
G1 F1500 X119.069 Y132.66 E154.02187
G0 F9000 X119.635 Y132.66
G1 F1500 X115.956 Y136.339 E154.19492
G0 F9000 X116.522 Y136.339
G1 F1500 X120.201 Y132.659 E154.36799
G0 F9000 X120.767 Y132.659
G1 F1500 X117.087 Y136.339 E154.54109
G0 F9000 X117.653 Y136.339
G1 F1500 X121.333 Y132.659 E154.71418
G0 F9000 X121.898 Y132.659
G1 F1500 X118.219 Y136.339 E154.88726
G0 F9000 X118.784 Y136.339
G1 F1500 X122.464 Y132.659 E155.06035
G1 F2700 E150.06035
G0 F9000 X122.464 Y132.203
G0 X112.069 Y131.931
G0 X111.725 Y98.273
G0 X108.273 Y98.273
G0 X108.201 Y101.208
G1 F2700 E155.06035
G0 F9000 X108.66 Y101.208
G1 F1500 X111.208 Y98.66 E155.1802
G0 F9000 X110.643 Y98.66
G1 F1500 X108.66 Y100.643 E155.27348
G0 F9000 X108.66 Y100.077
G1 F1500 X110.077 Y98.66 E155.34013
G0 F9000 X109.511 Y98.66
G1 F1500 X108.66 Y99.511 E155.38016
G0 F9000 X108.66 Y98.946
G1 F1500 X108.946 Y98.66 E155.39361
G1 F2700 E150.39361
;MESH:NONMESH
G0 F300 X108.946 Y98.66 Z1
G0 F9000 X108.946 Y98.201
G0 X108.273 Y98.273
G0 X108.1 Y136.9
;TIME_ELAPSED:271.678176
;LAYER:4
;TYPE:WALL-INNER
;MESH:LETRA N.stl
G1 F2700 E155.39361
G1 F1500 X126.9 Y136.9 E156.0189
G1 X126.9 Y99.999 E157.24623
G1 X126.9 Y98.1 E157.30939
G1 X123.102 Y98.1 E157.43572
G1 X123.102 Y131.578 E158.5492
G1 X122.961 Y131.891 E158.56062
G1 X122.824 Y132.01 E158.56665
G1 X122.62 Y132.103 E158.57411
G1 X112.377 Y132.103 E158.91479
G1 X112.175 Y132.01 E158.92219
G1 X112.038 Y131.891 E158.92822
G1 X111.897 Y131.578 E158.93964
G1 X111.897 Y98.101 E160.05309
G1 X108.101 Y98.101 E160.17935
G1 X108.1 Y136.9 E161.46981
G0 F9000 X107.7 Y137.3
;TYPE:WALL-OUTER
G1 F1500 X127.3 Y137.3 E162.12171
G1 X127.3 Y99.999 E163.36234
G1 X127.3 Y97.7 E163.43881
G1 X122.702 Y97.7 E163.59174
G1 X122.7 Y131.538 E164.71719
G1 X122.655 Y131.633 E164.72069
G1 X122.537 Y131.701 E164.72522
G1 X112.456 Y131.703 E165.06051
G1 X112.344 Y131.633 E165.06491
G1 X112.299 Y131.538 E165.0684
G1 X112.297 Y97.701 E166.19383
G1 X107.701 Y97.701 E166.34669
G1 X107.7 Y137.3 E167.66376
G0 F9000 X107.97 Y137.03
G0 X111.59 Y136.6
G0 X111.59 Y136.819
;TYPE:FILL
G1 F3000 X112.833 Y132.182 E167.82343
G0 F9000 X112.154 Y132.087
G1 F3000 X108.18 Y133.151 E167.96026
G0 F9000 X108.18 Y132.636
G1 F3000 X112.363 Y136.819 E168.15702
G0 F9000 X112.363 Y136.6
G0 X117.673 Y136.6
G0 X117.673 Y136.819
G1 F3000 X126.819 Y134.369 E168.47194
G1 X126.819 Y134.305
G1 X123.181 Y130.666 E168.64308
G0 F9000 X123.402 Y130.666
G0 X123.402 Y129.132
G0 X123.182 Y129.132
G1 F3000 X126.818 Y128.157 E168.76829
G0 F9000 X126.6 Y128.157
G0 X126.6 Y126.349
G0 X126.819 Y126.349
G1 F3000 X124.013 Y136.82 E169.12885
G0 F9000 X124.013 Y136.6
G0 X120.848 Y136.6
G0 X120.848 Y136.819
G1 F3000 X116.211 Y132.182 E169.34696
G0 F9000 X116.211 Y132.403
G0 X119.045 Y132.403
G0 X119.045 Y132.182
G1 F3000 X117.802 Y136.819 E169.50663
G0 F9000 X117.802 Y136.6
G0 X111.669 Y132.331
G0 X111.597 Y127.787
G0 X111.816 Y127.787
G1 F3000 X108.18 Y124.15 E169.67768
G0 F9000 X108.4 Y124.15
G0 X108.4 Y126.366
G0 X108.179 Y126.366
G1 F3000 X111.816 Y112.794 E170.14501
G0 F9000 X111.816 Y113.542
G1 F3000 X108.18 Y114.516 E170.27021
G0 F9000 X108.4 Y114.516
G0 X108.4 Y115.665
G0 X108.18 Y115.665
G1 F3000 X111.816 Y119.302 E170.44126
G0 F9000 X111.815 Y119.754
G1 F3000 X108.18 Y120.728 E170.56642
G0 F9000 X108.4 Y120.728
G0 X108.4 Y126.94
G0 X108.18 Y126.94
G1 F3000 X111.815 Y125.966 E170.69159
G0 F9000 X111.597 Y125.966
G0 X111.669 Y132.331
G0 X123.33 Y132.331
G0 X123.402 Y122.92
G0 X123.182 Y122.92
G1 F3000 X126.819 Y121.945 E170.81683
G0 F9000 X126.6 Y121.945
G0 X123.402 Y122.181
G0 X123.181 Y122.181
G1 F3000 X126.819 Y125.819 E170.98795
G0 F9000 X126.6 Y125.819
G0 X126.6 Y117.334
G0 X126.819 Y117.334
G1 F3000 X123.181 Y113.696 E171.15907
G0 F9000 X123.402 Y113.696
G0 X123.402 Y116.708
G0 X123.181 Y116.708
G1 F3000 X126.818 Y115.734 E171.2843
G0 F9000 X126.6 Y115.734
G0 X123.402 Y116.742
G0 X123.182 Y116.742
G1 F3000 X126.819 Y103.167 E171.75173
G1 X126.819 Y103.311
G1 X123.181 Y104.285 E171.87699
G0 F9000 X123.181 Y105.211
G1 F3000 X126.819 Y108.849 E172.04811
G0 F9000 X126.818 Y109.522
G1 F3000 X123.182 Y110.497 E172.17332
G0 F9000 X123.402 Y110.497
G0 X126.6 Y100.363
G0 X126.819 Y100.363
G1 F3000 X124.636 Y98.18 E172.276
G1 F2700 E167.276
G0 F9000 X124.636 Y98.4
G0 X123.33 Y132.331
G0 X111.669 Y132.331
G0 X111.597 Y101.119
G1 F2700 E172.276
G0 F9000 X111.815 Y101.119
G1 F3000 X108.18 Y102.093 E172.40117
G0 F9000 X108.4 Y102.093
G0 X108.4 Y103.183
G0 X108.18 Y103.183
G1 F3000 X109.52 Y98.18 E172.57343
G0 F9000 X109.52 Y98.4
G0 X108.4 Y98.695
G0 X108.18 Y98.695
G1 F3000 X111.816 Y102.331 E172.74446
G0 F9000 X111.597 Y102.331
G0 X111.597 Y107.331
G0 X111.815 Y107.331
G1 F3000 X108.18 Y108.305 E172.86962
G0 F9000 X108.4 Y108.305
G0 X108.4 Y107.18
G0 X108.18 Y107.18
G1 F3000 X111.816 Y110.817 E173.04067
G0 F9000 X111.297 Y110.817
;MESH:NONMESH
G0 F300 X111.297 Y110.817 Z1.2
G0 F9000 X108.37 Y136.63
G0 X108.1 Y136.9
;TIME_ELAPSED:299.437064
;LAYER:5
;TYPE:WALL-INNER
;MESH:LETRA N.stl
G1 F1500 X126.9 Y136.9 E173.66596
G1 X126.9 Y99.999 E174.8933
G1 X126.9 Y98.1 E174.95646
G1 X123.102 Y98.1 E175.08278
G1 X123.102 Y131.578 E176.19626
G1 X122.961 Y131.891 E176.20768
G1 X122.824 Y132.01 E176.21371
G1 X122.62 Y132.103 E176.22117
G1 X112.377 Y132.103 E176.56186
G1 X112.175 Y132.01 E176.56925
G1 X112.038 Y131.891 E176.57529
G1 X111.897 Y131.578 E176.58671
G1 X111.897 Y98.101 E177.70015
G1 X108.101 Y98.101 E177.82641
G1 X108.1 Y136.9 E179.11687
G0 F9000 X107.7 Y137.3
;TYPE:WALL-OUTER
G1 F1500 X127.3 Y137.3 E179.76877
G1 X127.3 Y99.999 E181.00941
G1 X127.3 Y97.7 E181.08587
G1 X122.702 Y97.7 E181.2388
G1 X122.7 Y131.538 E182.36426
G1 X122.655 Y131.633 E182.36775
G1 X122.537 Y131.701 E182.37228
G1 X112.456 Y131.703 E182.70758
G1 X112.344 Y131.633 E182.71197
G1 X112.299 Y131.538 E182.71547
G1 X112.297 Y97.701 E183.84089
G1 X107.701 Y97.701 E183.99375
G1 X107.7 Y137.3 E185.31082
G0 F9000 X107.97 Y137.03
G0 X111.445 Y136.6
G0 X111.445 Y136.819
;TYPE:FILL
G1 F3000 X112.687 Y132.182 E185.47049
G0 F9000 X112.4 Y132.167
G1 F3000 X108.18 Y133.297 E185.61579
G0 F9000 X108.18 Y132.436
G1 F3000 X112.562 Y136.819 E185.82193
G0 F9000 X112.562 Y136.6
G0 X117.656 Y136.6
G0 X117.656 Y136.819
G1 F3000 X118.899 Y132.182 E185.9816
G0 F9000 X118.899 Y132.403
G0 X116.41 Y132.403
G0 X116.41 Y132.182
G1 F3000 X121.048 Y136.819 E186.19973
G0 F9000 X121.048 Y136.6
G0 X123.868 Y136.6
G0 X123.868 Y136.819
G1 F3000 X126.819 Y125.805 E186.57898
G1 X126.819 Y125.62
G1 X123.181 Y121.982 E186.7501
G0 F9000 X123.402 Y121.982
G0 X123.402 Y123.066
G0 X123.182 Y123.066
G1 F3000 X126.818 Y122.092 E186.8753
G0 F9000 X126.6 Y122.092
G0 X126.6 Y117.135
G0 X126.819 Y117.135
G1 F3000 X123.181 Y113.497 E187.04642
G0 F9000 X123.402 Y113.497
G0 X123.402 Y116.198
G0 X123.182 Y116.198
G1 F3000 X126.819 Y102.623 E187.51385
G0 F9000 X126.818 Y103.457
G1 F3000 X123.181 Y104.431 E187.63908
G0 F9000 X123.181 Y105.011
G1 F3000 X126.819 Y108.649 E187.8102
G0 F9000 X126.6 Y108.649
G0 X126.6 Y109.668
G0 X126.818 Y109.668
G1 F3000 X123.181 Y110.643 E187.93544
G0 F9000 X123.402 Y110.643
G0 X123.402 Y116.854
G0 X123.181 Y116.854
G1 F3000 X126.819 Y115.88 E188.0607
G0 F9000 X126.6 Y115.88
G0 X126.6 Y128.303
G0 X126.819 Y128.303
G1 F3000 X123.181 Y129.278 E188.18597
G0 F9000 X123.402 Y129.278
G0 X123.402 Y130.467
G0 X123.181 Y130.467
G1 F3000 X126.819 Y134.105 E188.35709
G0 F9000 X126.819 Y134.515
G1 F3000 X118.217 Y136.82 E188.65329
G0 F9000 X118.217 Y136.6
G0 X111.669 Y132.331
G0 X111.597 Y127.588
G0 X111.816 Y127.588
G1 F3000 X108.18 Y123.951 E188.82434
G0 F9000 X108.4 Y123.951
G0 X108.4 Y125.822
G0 X108.179 Y125.822
G1 F3000 X111.816 Y112.249 E189.2917
G0 F9000 X111.597 Y112.249
G0 X111.597 Y113.688
G0 X111.815 Y113.688
G1 F3000 X108.18 Y114.662 E189.41687
G0 F9000 X108.18 Y115.466
G1 F3000 X111.816 Y119.102 E189.5879
G0 F9000 X111.815 Y119.9
G1 F3000 X108.18 Y120.874 E189.71306
G0 F9000 X108.4 Y120.874
G0 X108.4 Y127.086
G0 X108.18 Y127.086
G1 F3000 X111.816 Y126.111 E189.83827
G0 F9000 X111.597 Y126.111
G0 X111.597 Y110.617
G0 X111.816 Y110.617
G1 F3000 X108.18 Y106.981 E190.00929
G0 F9000 X108.4 Y106.981
G0 X108.4 Y108.451
G0 X108.18 Y108.451
G1 F3000 X111.815 Y107.477 E190.13446
G0 F9000 X111.597 Y107.477
G0 X111.597 Y102.132
G0 X111.816 Y102.132
G1 F3000 X108.18 Y98.495 E190.30551
G0 F9000 X108.4 Y98.495
G0 X109.375 Y98.4
G0 X109.375 Y98.179
G1 F3000 X108.18 Y102.638 E190.45905
G0 F9000 X108.18 Y102.239
G1 F3000 X111.815 Y101.265 E190.58422
G1 F2700 E185.58422
G0 F9000 X111.597 Y101.265
G0 X111.669 Y132.331
G0 X123.33 Y132.331
G0 X123.372 Y98.37
G1 F2700 E190.58422
G0 F9000 X123.181 Y98.22
G1 F3000 X123.332 Y98.179 E190.58942
G0 F9000 X123.332 Y98.4
G0 X124.835 Y98.4
G0 X124.835 Y98.18
G1 F3000 X126.819 Y100.164 E190.68274
G0 F9000 X126.3 Y100.164
G1 F2700 E185.68274
;MESH:NONMESH
G0 F300 X126.3 Y100.164 Z1.4
G0 F9000 X123.33 Y132.331
G0 X108.37 Y136.63
G1 F2700 E190.68274
G0 F9000 X108.1 Y136.9
;TIME_ELAPSED:327.438900
;LAYER:6
;TYPE:WALL-INNER
;MESH:LETRA N.stl
G1 F1500 X126.9 Y136.9 E191.30803
G1 X126.9 Y99.999 E192.53536
G1 X126.9 Y98.1 E192.59853
G1 X123.102 Y98.1 E192.72485
G1 X123.102 Y131.578 E193.83833
G1 X122.961 Y131.891 E193.84975
G1 X122.824 Y132.01 E193.85578
G1 X122.62 Y132.103 E193.86324
G1 X112.377 Y132.103 E194.20392
G1 X112.175 Y132.01 E194.21132
G1 X112.038 Y131.891 E194.21736
G1 X111.897 Y131.578 E194.22877
G1 X111.897 Y98.101 E195.34222
G1 X108.101 Y98.101 E195.46848
G1 X108.1 Y136.9 E196.75894
G0 F9000 X107.7 Y137.3
;TYPE:WALL-OUTER
G1 F1500 X127.3 Y137.3 E197.41084
G1 X127.3 Y99.999 E198.65147
G1 X127.3 Y97.7 E198.72794
G1 X122.702 Y97.7 E198.88087
G1 X122.7 Y131.538 E200.00633
G1 X122.655 Y131.633 E200.00982
G1 X122.537 Y131.701 E200.01435
G1 X112.456 Y131.703 E200.34965
G1 X112.344 Y131.633 E200.35404
G1 X112.299 Y131.538 E200.35754
G1 X112.297 Y97.701 E201.48296
G1 X107.701 Y97.701 E201.63582
G1 X107.7 Y137.3 E202.95289
G0 F9000 X107.97 Y137.03
G0 X108.2 Y136.54
G0 X108.46 Y136.54
;TYPE:SKIN
G1 F1500 X126.54 Y136.54 E203.55423
G1 X126.54 Y99.999 E204.76959
G1 X126.54 Y98.46 E204.82078
G1 X123.462 Y98.46 E204.92315
G1 X123.46 Y131.63 E206.02639
G1 X123.386 Y131.874 E206.03487
G1 X123.241 Y132.124 E206.04449
G1 X123.019 Y132.313 E206.05418
G1 X122.752 Y132.431 E206.06389
G1 X122.525 Y132.462 E206.07151
G1 X112.475 Y132.461 E206.40578
G1 X112.191 Y132.412 E206.41536
G1 X111.982 Y132.314 E206.42304
G1 X111.76 Y132.125 E206.43274
G1 X111.601 Y131.852 E206.44325
G1 X111.539 Y131.627 E206.45101
G1 X111.537 Y98.461 E207.55411
G1 X108.461 Y98.461 E207.65642
G1 X108.46 Y136.54 E208.92293
G0 F9000 X109.186 Y136.339
G1 F1500 X108.66 Y135.813 E208.94768
G0 F9000 X108.66 Y135.247
G1 F1500 X109.752 Y136.339 E208.99904
G0 F9000 X110.317 Y136.339
G1 F1500 X108.66 Y134.681 E209.077
G0 F9000 X108.66 Y134.116
G1 F1500 X110.883 Y136.339 E209.18157
G0 F9000 X111.449 Y136.339
G1 F1500 X108.66 Y133.55 E209.31275
G0 F9000 X108.66 Y132.984
G1 F1500 X112.014 Y136.339 E209.47054
G0 F9000 X112.58 Y136.339
G1 F1500 X108.66 Y132.419 E209.65492
G0 F9000 X108.66 Y131.853
G1 F1500 X113.146 Y136.339 E209.86593
G0 F9000 X113.711 Y136.339
G1 F1500 X108.66 Y131.287 E210.10354
G0 F9000 X108.66 Y130.722
G1 F1500 X114.277 Y136.339 E210.36774
G0 F9000 X114.843 Y136.339
G1 F1500 X108.66 Y130.156 E210.65857
G0 F9000 X108.66 Y129.59
G1 F1500 X115.409 Y136.339 E210.97603
G0 F9000 X115.974 Y136.339
G1 F1500 X112.267 Y132.632 E211.15039
G0 F9000 X112.863 Y132.662
G1 F1500 X116.54 Y136.339 E211.32335
G0 F9000 X117.106 Y136.339
G1 F1500 X113.429 Y132.662 E211.4963
G0 F9000 X113.994 Y132.662
G1 F1500 X117.671 Y136.339 E211.66926
G0 F9000 X118.237 Y136.339
G1 F1500 X114.56 Y132.662 E211.84221
G0 F9000 X115.125 Y132.661
G1 F1500 X118.803 Y136.339 E212.01521
G0 F9000 X119.368 Y136.339
G1 F1500 X115.691 Y132.661 E212.18819
G0 F9000 X116.256 Y132.661
G1 F1500 X119.934 Y136.339 E212.36119
G0 F9000 X120.5 Y136.339
G1 F1500 X116.822 Y132.661 E212.53419
G0 F9000 X117.388 Y132.661
G1 F1500 X121.065 Y136.339 E212.70717
G0 F9000 X121.631 Y136.339
G1 F1500 X117.953 Y132.661 E212.88018
G0 F9000 X118.518 Y132.661
G1 F1500 X122.197 Y136.339 E213.0532
G0 F9000 X122.762 Y136.339
G1 F1500 X119.084 Y132.661 E213.2262
G0 F9000 X119.65 Y132.661
G1 F1500 X123.328 Y136.339 E213.3992
G0 F9000 X123.894 Y136.339
G1 F1500 X120.215 Y132.66 E213.57225
G0 F9000 X120.78 Y132.66
G1 F1500 X124.459 Y136.339 E213.7453
G0 F9000 X125.025 Y136.339
G1 F1500 X121.346 Y132.66 E213.91835
G0 F9000 X121.912 Y132.66
G1 F1500 X125.591 Y136.339 E214.0914
G0 F9000 X126.157 Y136.339
G1 F1500 X122.477 Y132.66 E214.26447
G0 F9000 X122.949 Y132.566
G1 F1500 X126.339 Y135.956 E214.42393
G0 F9000 X126.339 Y135.39
G1 F1500 X123.292 Y132.343 E214.56725
G0 F9000 X123.532 Y132.018
G1 F1500 X126.339 Y134.824 E214.69926
G0 F9000 X126.339 Y134.259
G1 F1500 X123.657 Y131.577 E214.82541
G0 F9000 X123.657 Y131.011
G1 F1500 X126.339 Y133.693 E214.95156
G0 F9000 X126.339 Y133.127
G1 F1500 X123.657 Y130.445 E215.07772
G0 F9000 X123.657 Y129.879
G1 F1500 X126.339 Y132.562 E215.20389
G0 F9000 X126.339 Y131.996
G1 F1500 X123.657 Y129.314 E215.33005
G0 F9000 X123.657 Y128.748
G1 F1500 X126.339 Y131.43 E215.4562
G0 F9000 X126.339 Y130.864
G1 F1500 X123.657 Y128.182 E215.58235
G0 F9000 X123.657 Y127.617
G1 F1500 X126.339 Y130.299 E215.70851
G0 F9000 X126.339 Y129.733
G1 F1500 X123.657 Y127.051 E215.83466
G0 F9000 X123.657 Y126.485
G1 F1500 X126.339 Y129.167 E215.96081
G0 F9000 X126.339 Y128.602
G1 F1500 X123.658 Y125.92 E216.08694
G0 F9000 X123.658 Y125.355
G1 F1500 X126.339 Y128.036 E216.21305
G0 F9000 X126.339 Y127.47
G1 F1500 X123.658 Y124.789 E216.33915
G0 F9000 X123.658 Y124.223
G1 F1500 X126.339 Y126.905 E216.46528
G0 F9000 X126.339 Y126.339
G1 F1500 X123.658 Y123.658 E216.59139
G0 F9000 X123.658 Y123.092
G1 F1500 X126.339 Y125.773 E216.7175
G0 F9000 X126.339 Y125.208
G1 F1500 X123.658 Y122.526 E216.84362
G0 F9000 X123.658 Y121.961
G1 F1500 X126.339 Y124.642 E216.96973
G0 F9000 X126.339 Y124.076
G1 F1500 X123.658 Y121.395 E217.09584
G0 F9000 X123.658 Y120.829
G1 F1500 X126.339 Y123.511 E217.22197
G0 F9000 X126.339 Y122.945
G1 F1500 X123.658 Y120.264 E217.34807
G0 F9000 X123.658 Y119.699
G1 F1500 X126.339 Y122.379 E217.47415
G0 F9000 X126.339 Y121.813
G1 F1500 X123.658 Y119.133 E217.60024
G0 F9000 X123.658 Y118.567
G1 F1500 X126.339 Y121.248 E217.72634
G0 F9000 X126.339 Y120.682
G1 F1500 X123.658 Y118.001 E217.85245
G0 F9000 X123.658 Y117.436
G1 F1500 X126.339 Y120.116 E217.97853
G0 F9000 X126.339 Y119.551
G1 F1500 X123.658 Y116.87 E218.10464
G0 F9000 X123.658 Y116.304
G1 F1500 X126.339 Y118.985 E218.23074
G0 F9000 X126.339 Y118.419
G1 F1500 X123.658 Y115.739 E218.35683
G0 F9000 X123.658 Y115.173
G1 F1500 X126.339 Y117.854 E218.48293
G0 F9000 X126.339 Y117.288
G1 F1500 X123.659 Y114.608 E218.60899
G0 F9000 X123.659 Y114.042
G1 F1500 X126.339 Y116.722 E218.73505
G0 F9000 X126.339 Y116.157
G1 F1500 X123.659 Y113.477 E218.86111
G0 F9000 X123.659 Y112.911
G1 F1500 X126.339 Y115.591 E218.98717
G0 F9000 X126.339 Y115.025
G1 F1500 X123.659 Y112.345 E219.11323
G0 F9000 X123.659 Y111.78
G1 F1500 X126.339 Y114.46 E219.23929
G0 F9000 X126.339 Y113.894
G1 F1500 X123.659 Y111.214 E219.36535
G0 F9000 X123.659 Y110.648
G1 F1500 X126.339 Y113.328 E219.4914
G0 F9000 X126.339 Y112.763
G1 F1500 X123.659 Y110.083 E219.61746
G0 F9000 X123.66 Y109.518
G1 F1500 X126.339 Y112.197 E219.74348
G0 F9000 X126.339 Y111.631
G1 F1500 X123.66 Y108.952 E219.86949
G0 F9000 X123.66 Y108.386
G1 F1500 X126.339 Y111.065 E219.9955
G0 F9000 X126.339 Y110.5
G1 F1500 X123.66 Y107.821 E220.12151
G0 F9000 X123.66 Y107.255
G1 F1500 X126.339 Y109.934 E220.24752
G0 F9000 X126.339 Y109.368
G1 F1500 X123.66 Y106.689 E220.37353
G0 F9000 X123.66 Y106.123
G1 F1500 X126.339 Y108.803 E220.49957
G0 F9000 X126.339 Y108.237
G1 F1500 X123.66 Y105.558 E220.62558
G0 F9000 X123.66 Y104.992
G1 F1500 X126.339 Y107.671 E220.75159
G0 F9000 X126.339 Y107.106
G1 F1500 X123.66 Y104.426 E220.87763
G0 F9000 X123.66 Y103.861
G1 F1500 X126.339 Y106.54 E221.00364
G0 F9000 X126.339 Y105.974
G1 F1500 X123.66 Y103.296 E221.12963
G0 F9000 X123.66 Y102.73
G1 F1500 X126.339 Y105.409 E221.25564
G0 F9000 X126.339 Y104.843
G1 F1500 X123.66 Y102.164 E221.38165
G0 F9000 X123.66 Y101.599
G1 F1500 X126.339 Y104.277 E221.50764
G0 F9000 X126.339 Y103.712
G1 F1500 X123.66 Y101.033 E221.63365
G0 F9000 X123.66 Y100.467
G1 F1500 X126.339 Y103.146 E221.75967
G0 F9000 X126.339 Y102.58
G1 F1500 X123.66 Y99.902 E221.88565
G0 F9000 X123.66 Y99.336
G1 F1500 X126.339 Y102.015 E222.01167
G0 F9000 X126.339 Y101.449
G1 F1500 X123.66 Y98.77 E222.13768
G0 F9000 X124.116 Y98.66
G1 F1500 X126.339 Y100.883 E222.24224
G0 F9000 X126.339 Y100.317
G1 F1500 X124.682 Y98.66 E222.32018
G0 F9000 X125.247 Y98.66
G1 F1500 X126.339 Y99.752 E222.37155
G0 F9000 X126.339 Y99.186
G1 F1500 X125.813 Y98.66 E222.39629
G1 F2700 E217.39629
G0 F9000 X125.813 Y98.2
G0 X122.94 Y98.199
G0 X122.93 Y131.931
G0 X112.069 Y131.931
G0 X112.056 Y98.2
G0 X111.337 Y98.201
G1 F2700 E222.39629
G0 F9000 X111.337 Y98.892
G1 F1500 X111.106 Y98.661 E222.40715
G0 F9000 X110.54 Y98.661
G1 F1500 X111.337 Y99.458 E222.44464
G0 F9000 X111.337 Y100.023
G1 F1500 X109.974 Y98.661 E222.50873
G0 F9000 X109.409 Y98.661
G1 F1500 X111.337 Y100.589 E222.59942
G0 F9000 X111.337 Y101.155
G1 F1500 X108.843 Y98.661 E222.71673
G0 F9000 X108.66 Y99.043
G1 F1500 X111.337 Y101.72 E222.84264
G0 F9000 X111.337 Y102.286
G1 F1500 X108.66 Y99.609 E222.96856
G0 F9000 X108.66 Y100.175
G1 F1500 X111.338 Y102.852 E223.0945
G0 F9000 X111.338 Y103.418
G1 F1500 X108.66 Y100.74 E223.22047
G0 F9000 X108.66 Y101.306
G1 F1500 X111.338 Y103.984 E223.34643
G0 F9000 X111.338 Y104.549
G1 F1500 X108.66 Y101.872 E223.47238
G0 F9000 X108.66 Y102.437
G1 F1500 X111.338 Y105.115 E223.59834
G0 F9000 X111.338 Y105.681
G1 F1500 X108.66 Y103.003 E223.72431
G0 F9000 X108.66 Y103.569
G1 F1500 X111.338 Y106.247 E223.85027
G0 F9000 X111.338 Y106.812
G1 F1500 X108.66 Y104.134 E223.97623
G0 F9000 X108.66 Y104.7
G1 F1500 X111.338 Y107.379 E224.10222
G0 F9000 X111.338 Y107.944
G1 F1500 X108.66 Y105.266 E224.22819
G0 F9000 X108.66 Y105.831
G1 F1500 X111.338 Y108.51 E224.35418
G0 F9000 X111.338 Y109.076
G1 F1500 X108.66 Y106.397 E224.48017
G0 F9000 X108.66 Y106.963
G1 F1500 X111.338 Y109.641 E224.60613
G0 F9000 X111.338 Y110.207
G1 F1500 X108.66 Y107.529 E224.73209
G0 F9000 X108.66 Y108.094
G1 F1500 X111.338 Y110.773 E224.85808
G0 F9000 X111.339 Y111.339
G1 F1500 X108.66 Y108.66 E224.9841
G0 F9000 X108.66 Y109.226
G1 F1500 X111.339 Y111.905 E225.11011
G0 F9000 X111.339 Y112.47
G1 F1500 X108.66 Y109.791 E225.23612
G0 F9000 X108.66 Y110.357
G1 F1500 X111.339 Y113.036 E225.36213
G0 F9000 X111.339 Y113.602
G1 F1500 X108.66 Y110.923 E225.48814
G0 F9000 X108.66 Y111.488
G1 F1500 X111.339 Y114.168 E225.61418
G0 F9000 X111.339 Y114.733
G1 F1500 X108.66 Y112.054 E225.74019
G0 F9000 X108.66 Y112.62
G1 F1500 X111.34 Y115.3 E225.86625
G0 F9000 X111.34 Y115.865
G1 F1500 X108.66 Y113.185 E225.99231
G0 F9000 X108.66 Y113.751
G1 F1500 X111.34 Y116.431 E226.11837
G0 F9000 X111.34 Y116.997
G1 F1500 X108.66 Y114.317 E226.24443
G0 F9000 X108.66 Y114.882
G1 F1500 X111.34 Y117.562 E226.37049
G0 F9000 X111.34 Y118.128
G1 F1500 X108.66 Y115.448 E226.49654
G0 F9000 X108.66 Y116.014
G1 F1500 X111.34 Y118.694 E226.6226
G0 F9000 X111.34 Y119.259
G1 F1500 X108.66 Y116.579 E226.74866
G0 F9000 X108.66 Y117.145
G1 F1500 X111.341 Y119.826 E226.87477
G0 F9000 X111.341 Y120.392
G1 F1500 X108.66 Y117.711 E227.00087
G0 F9000 X108.66 Y118.277
G1 F1500 X111.341 Y120.957 E227.12696
G0 F9000 X111.341 Y121.523
G1 F1500 X108.66 Y118.842 E227.25306
G0 F9000 X108.66 Y119.408
G1 F1500 X111.341 Y122.089 E227.37917
G0 F9000 X111.341 Y122.654
G1 F1500 X108.66 Y119.974 E227.50525
G0 F9000 X108.66 Y120.539
G1 F1500 X111.341 Y123.22 E227.63136
G0 F9000 X111.341 Y123.786
G1 F1500 X108.66 Y121.105 E227.75746
G0 F9000 X108.66 Y121.671
G1 F1500 X111.341 Y124.352 E227.88357
G0 F9000 X111.341 Y124.918
G1 F1500 X108.66 Y122.236 E228.0097
G0 F9000 X108.66 Y122.802
G1 F1500 X111.341 Y125.483 E228.13581
G0 F9000 X111.341 Y126.049
G1 F1500 X108.66 Y123.368 E228.26191
G0 F9000 X108.66 Y123.933
G1 F1500 X111.341 Y126.615 E228.38804
G0 F9000 X111.341 Y127.18
G1 F1500 X108.66 Y124.499 E228.51415
G0 F9000 X108.66 Y125.065
G1 F1500 X111.342 Y127.747 E228.6403
G0 F9000 X111.342 Y128.313
G1 F1500 X108.66 Y125.63 E228.76648
G0 F9000 X108.66 Y126.196
G1 F1500 X111.342 Y128.878 E228.89263
G0 F9000 X111.342 Y129.444
G1 F1500 X108.66 Y126.762 E229.01878
G0 F9000 X108.66 Y127.328
G1 F1500 X111.342 Y130.01 E229.14494
G0 F9000 X111.342 Y130.575
G1 F1500 X108.66 Y127.893 E229.27109
G0 F9000 X108.66 Y128.459
G1 F1500 X111.342 Y131.141 E229.39724
G0 F9000 X111.359 Y131.724
G1 F1500 X108.66 Y129.025 E229.52419
;MESH:NONMESH
G0 F300 X108.66 Y129.025 Z1.6
G0 F9000 X108.201 Y129.025
G0 X108.1 Y136.9
;TIME_ELAPSED:389.483255
;LAYER:7
;TYPE:WALL-INNER
;MESH:LETRA N.stl
G1 F1500 X126.9 Y136.9 E230.14948
G1 X126.9 Y99.999 E231.37682
G1 X126.9 Y98.1 E231.43998
G1 X123.102 Y98.1 E231.5663
G1 X123.102 Y131.578 E232.67978
G1 X122.961 Y131.891 E232.6912
G1 X122.824 Y132.01 E232.69724
G1 X122.62 Y132.103 E232.70469
G1 X112.377 Y132.103 E233.04538
G1 X112.175 Y132.01 E233.05277
G1 X112.038 Y131.891 E233.05881
G1 X111.897 Y131.578 E233.07023
G1 X111.897 Y98.101 E234.18368
G1 X108.101 Y98.101 E234.30993
G1 X108.1 Y136.9 E235.60039
G0 F9000 X107.7 Y137.3
;TYPE:WALL-OUTER
G1 F1500 X127.3 Y137.3 E236.25229
G1 X127.3 Y99.999 E237.49293
G1 X127.3 Y97.7 E237.56939
G1 X122.702 Y97.7 E237.72232
G1 X122.7 Y131.538 E238.84778
G1 X122.655 Y131.633 E238.85127
G1 X122.537 Y131.701 E238.8558
G1 X112.456 Y131.703 E239.1911
G1 X112.344 Y131.633 E239.19549
G1 X112.299 Y131.538 E239.19899
G1 X112.297 Y97.701 E240.32441
G1 X107.701 Y97.701 E240.47728
G1 X107.7 Y137.3 E241.79434
G0 F9000 X107.97 Y137.03
G0 X108.2 Y136.54
G0 X108.46 Y136.54
;TYPE:SKIN
G1 F1500 X126.54 Y136.54 E242.39569
G1 X126.54 Y99.999 E243.61105
G1 X126.54 Y98.46 E243.66223
G1 X123.462 Y98.46 E243.76461
G1 X123.46 Y131.63 E244.86785
G1 X123.386 Y131.874 E244.87633
G1 X123.241 Y132.124 E244.88594
G1 X123.019 Y132.313 E244.89564
G1 X122.752 Y132.431 E244.90535
G1 X122.525 Y132.462 E244.91297
G1 X112.475 Y132.461 E245.24723
G1 X112.191 Y132.412 E245.25682
G1 X111.982 Y132.314 E245.26449
G1 X111.76 Y132.125 E245.27419
G1 X111.601 Y131.852 E245.2847
G1 X111.539 Y131.627 E245.29246
G1 X111.537 Y98.461 E246.39557
G1 X108.461 Y98.461 E246.49787
G1 X108.46 Y136.54 E247.76439
G0 F9000 X108.2 Y136.54
G0 X126.138 Y136.8
G0 X126.138 Y136.339
G1 F1500 X126.339 Y136.138 E247.77384
G0 F9000 X126.339 Y135.572
G1 F1500 X125.572 Y136.339 E247.80992
G0 F9000 X125.007 Y136.339
G1 F1500 X126.339 Y135.007 E247.87257
G0 F9000 X126.339 Y134.441
G1 F1500 X124.441 Y136.339 E247.96185
G0 F9000 X123.875 Y136.339
G1 F1500 X126.339 Y133.875 E248.07775
G0 F9000 X126.339 Y133.31
G1 F1500 X123.31 Y136.339 E248.22022
G0 F9000 X122.744 Y136.339
G1 F1500 X126.339 Y132.744 E248.38932
G0 F9000 X126.339 Y132.178
G1 F1500 X122.178 Y136.339 E248.58504
G0 F9000 X121.613 Y136.339
G1 F1500 X126.339 Y131.613 E248.80734
G0 F9000 X126.339 Y131.047
G1 F1500 X121.047 Y136.339 E249.05626
G0 F9000 X120.481 Y136.339
G1 F1500 X126.339 Y130.481 E249.3318
G0 F9000 X126.339 Y129.916
G1 F1500 X119.916 Y136.339 E249.63392
G0 F9000 X119.35 Y136.339
G1 F1500 X126.339 Y129.35 E249.96266
G0 F9000 X126.339 Y128.784
G1 F1500 X123.658 Y131.465 E250.08876
G0 F9000 X123.658 Y130.9
G1 F1500 X126.339 Y128.218 E250.21489
G0 F9000 X126.339 Y127.653
G1 F1500 X123.658 Y130.334 E250.341
G0 F9000 X123.658 Y129.768
G1 F1500 X126.339 Y127.087 E250.46711
G0 F9000 X126.339 Y126.521
G1 F1500 X123.658 Y129.203 E250.59324
G0 F9000 X123.658 Y128.637
G1 F1500 X126.339 Y125.956 E250.71934
G0 F9000 X126.339 Y125.39
G1 F1500 X123.658 Y128.071 E250.84545
G0 F9000 X123.658 Y127.506
G1 F1500 X126.339 Y124.824 E250.97158
G0 F9000 X126.339 Y124.259
G1 F1500 X123.658 Y126.94 E251.09768
G0 F9000 X123.658 Y126.374
G1 F1500 X126.339 Y123.693 E251.22379
G0 F9000 X126.339 Y123.127
G1 F1500 X123.658 Y125.808 E251.34989
G0 F9000 X123.658 Y125.242
G1 F1500 X126.339 Y122.562 E251.47598
G0 F9000 X126.339 Y121.996
G1 F1500 X123.658 Y124.677 E251.60208
G0 F9000 X123.658 Y124.111
G1 F1500 X126.339 Y121.43 E251.72819
G0 F9000 X126.339 Y120.865
G1 F1500 X123.658 Y123.545 E251.85427
G0 F9000 X123.658 Y122.98
G1 F1500 X126.339 Y120.299 E251.98038
G0 F9000 X126.339 Y119.733
G1 F1500 X123.658 Y122.414 E252.10648
G0 F9000 X123.658 Y121.848
G1 F1500 X126.339 Y119.167 E252.23259
G0 F9000 X126.339 Y118.602
G1 F1500 X123.658 Y121.282 E252.35867
G0 F9000 X123.658 Y120.717
G1 F1500 X126.339 Y118.036 E252.48478
G0 F9000 X126.339 Y117.47
G1 F1500 X123.659 Y120.15 E252.61084
G0 F9000 X123.659 Y119.585
G1 F1500 X126.339 Y116.905 E252.7369
G0 F9000 X126.339 Y116.339
G1 F1500 X123.659 Y119.019 E252.86296
G0 F9000 X123.659 Y118.453
G1 F1500 X126.339 Y115.773 E252.98901
G0 F9000 X126.339 Y115.208
G1 F1500 X123.659 Y117.888 E253.11507
G0 F9000 X123.659 Y117.322
G1 F1500 X126.339 Y114.642 E253.24113
G0 F9000 X126.339 Y114.076
G1 F1500 X123.659 Y116.756 E253.36719
G0 F9000 X123.659 Y116.191
G1 F1500 X126.339 Y113.511 E253.49325
G0 F9000 X126.339 Y112.945
G1 F1500 X123.659 Y115.625 E253.61931
G0 F9000 X123.66 Y115.059
G1 F1500 X126.339 Y112.379 E253.74534
G0 F9000 X126.339 Y111.814
G1 F1500 X123.66 Y114.493 E253.87136
G0 F9000 X123.66 Y113.927
G1 F1500 X126.339 Y111.248 E253.99737
G0 F9000 X126.339 Y110.682
G1 F1500 X123.66 Y113.361 E254.12338
G0 F9000 X123.66 Y112.796
G1 F1500 X126.339 Y110.117 E254.24939
G0 F9000 X126.339 Y109.551
G1 F1500 X123.66 Y112.23 E254.3754
G0 F9000 X123.66 Y111.664
G1 F1500 X126.339 Y108.985 E254.50142
G0 F9000 X126.339 Y108.419
G1 F1500 X123.66 Y111.099 E254.62745
G0 F9000 X123.66 Y110.533
G1 F1500 X126.339 Y107.854 E254.75346
G0 F9000 X126.339 Y107.288
G1 F1500 X123.66 Y109.967 E254.87948
G0 F9000 X123.66 Y109.401
G1 F1500 X126.339 Y106.722 E255.00549
G0 F9000 X126.339 Y106.157
G1 F1500 X123.66 Y108.835 E255.13148
G0 F9000 X123.66 Y108.27
G1 F1500 X126.339 Y105.591 E255.25749
G0 F9000 X126.339 Y105.025
G1 F1500 X123.66 Y107.704 E255.3835
G0 F9000 X123.66 Y107.138
G1 F1500 X126.339 Y104.46 E255.50949
G0 F9000 X126.339 Y103.894
G1 F1500 X123.66 Y106.573 E255.6355
G0 F9000 X123.66 Y106.007
G1 F1500 X126.339 Y103.328 E255.76151
G0 F9000 X126.339 Y102.763
G1 F1500 X123.66 Y105.441 E255.8875
G0 F9000 X123.66 Y104.875
G1 F1500 X126.339 Y102.197 E256.01349
G0 F9000 X126.339 Y101.631
G1 F1500 X123.66 Y104.31 E256.1395
G0 F9000 X123.661 Y103.743
G1 F1500 X126.339 Y101.066 E256.26544
G0 F9000 X126.339 Y100.5
G1 F1500 X123.661 Y103.178 E256.39141
G0 F9000 X123.661 Y102.612
G1 F1500 X126.339 Y99.934 E256.51737
G0 F9000 X126.339 Y99.369
G1 F1500 X123.661 Y102.046 E256.64331
G0 F9000 X123.661 Y101.481
G1 F1500 X126.339 Y98.803 E256.76928
G0 F9000 X125.917 Y98.659
G1 F1500 X123.661 Y100.915 E256.87539
G0 F9000 X123.661 Y100.349
G1 F1500 X125.351 Y98.659 E256.95489
G0 F9000 X124.785 Y98.659
G1 F1500 X123.661 Y99.784 E257.00778
G0 F9000 X123.661 Y99.218
G1 F1500 X124.22 Y98.659 E257.03407
G1 F2700 E252.03407
G0 F9000 X124.22 Y98.2
G0 X122.94 Y98.199
G0 X122.93 Y131.931
G0 X112.069 Y131.931
G0 X112.056 Y98.2
G0 X111.336 Y98.201
G1 F2700 E257.03407
G0 F9000 X111.336 Y99.098
G1 F1500 X108.66 Y101.774 E257.15994
G0 F9000 X108.66 Y102.34
G1 F1500 X111.336 Y99.663 E257.28584
G0 F9000 X111.336 Y100.229
G1 F1500 X108.66 Y102.905 E257.41171
G0 F9000 X108.66 Y103.471
G1 F1500 X111.336 Y100.795 E257.53758
G0 F9000 X111.336 Y101.36
G1 F1500 X108.66 Y104.037 E257.66347
G0 F9000 X108.66 Y104.603
G1 F1500 X111.336 Y101.926 E257.78937
G0 F9000 X111.336 Y102.492
G1 F1500 X108.66 Y105.168 E257.91524
G0 F9000 X108.66 Y105.734
G1 F1500 X111.337 Y103.057 E258.04116
G0 F9000 X111.337 Y103.622
G1 F1500 X108.66 Y106.3 E258.1671
G0 F9000 X108.66 Y106.865
G1 F1500 X111.337 Y104.188 E258.29302
G0 F9000 X111.337 Y104.754
G1 F1500 X108.66 Y107.431 E258.41893
G0 F9000 X108.66 Y107.997
G1 F1500 X111.337 Y105.32 E258.54485
G0 F9000 X111.337 Y105.885
G1 F1500 X108.66 Y108.562 E258.67077
G0 F9000 X108.66 Y109.128
G1 F1500 X111.337 Y106.451 E258.79669
G0 F9000 X111.338 Y107.016
G1 F1500 X108.66 Y109.694 E258.92265
G0 F9000 X108.66 Y110.259
G1 F1500 X111.338 Y107.582 E259.04859
G0 F9000 X111.338 Y108.147
G1 F1500 X108.66 Y110.825 E259.17456
G0 F9000 X108.66 Y111.391
G1 F1500 X111.338 Y108.713 E259.30052
G0 F9000 X111.338 Y109.279
G1 F1500 X108.66 Y111.956 E259.42647
G0 F9000 X108.66 Y112.522
G1 F1500 X111.338 Y109.844 E259.55243
G0 F9000 X111.338 Y110.41
G1 F1500 X108.66 Y113.088 E259.6784
G0 F9000 X108.66 Y113.653
G1 F1500 X111.338 Y110.976 E259.80434
G0 F9000 X111.338 Y111.541
G1 F1500 X108.66 Y114.219 E259.9303
G0 F9000 X108.66 Y114.785
G1 F1500 X111.338 Y112.106 E260.05629
G0 F9000 X111.338 Y112.672
G1 F1500 X108.66 Y115.351 E260.18228
G0 F9000 X108.66 Y115.916
G1 F1500 X111.338 Y113.238 E260.30824
G0 F9000 X111.338 Y113.803
G1 F1500 X108.66 Y116.482 E260.43423
G0 F9000 X108.66 Y117.048
G1 F1500 X111.338 Y114.369 E260.56022
G0 F9000 X111.338 Y114.935
G1 F1500 X108.66 Y117.613 E260.68619
G0 F9000 X108.66 Y118.179
G1 F1500 X111.339 Y115.5 E260.8122
G0 F9000 X111.339 Y116.065
G1 F1500 X108.66 Y118.745 E260.93823
G0 F9000 X108.66 Y119.31
G1 F1500 X111.339 Y116.631 E261.06424
G0 F9000 X111.339 Y117.197
G1 F1500 X108.66 Y119.876 E261.19026
G0 F9000 X108.66 Y120.442
G1 F1500 X111.339 Y117.762 E261.31629
G0 F9000 X111.339 Y118.328
G1 F1500 X108.66 Y121.007 E261.4423
G0 F9000 X108.66 Y121.573
G1 F1500 X111.339 Y118.894 E261.56832
G0 F9000 X111.34 Y119.459
G1 F1500 X108.66 Y122.139 E261.69438
G0 F9000 X108.66 Y122.704
G1 F1500 X111.34 Y120.025 E261.82041
G0 F9000 X111.34 Y120.59
G1 F1500 X108.66 Y123.27 E261.94647
G0 F9000 X108.66 Y123.836
G1 F1500 X111.34 Y121.156 E262.07253
G0 F9000 X111.34 Y121.722
G1 F1500 X108.66 Y124.402 E262.19859
G0 F9000 X108.66 Y124.967
G1 F1500 X111.34 Y122.287 E262.32465
G0 F9000 X111.34 Y122.853
G1 F1500 X108.66 Y125.533 E262.45071
G0 F9000 X108.66 Y126.099
G1 F1500 X111.341 Y123.418 E262.57681
G0 F9000 X111.341 Y123.984
G1 F1500 X108.66 Y126.664 E262.70289
G0 F9000 X108.66 Y127.23
G1 F1500 X111.341 Y124.549 E262.829
G0 F9000 X111.341 Y125.115
G1 F1500 X108.66 Y127.796 E262.95511
G0 F9000 X108.66 Y128.361
G1 F1500 X111.341 Y125.681 E263.08119
G0 F9000 X111.341 Y126.246
G1 F1500 X108.66 Y128.927 E263.20729
G0 F9000 X108.66 Y129.493
G1 F1500 X111.341 Y126.812 E263.3334
G0 F9000 X111.341 Y127.378
G1 F1500 X108.66 Y130.058 E263.45948
G0 F9000 X108.66 Y130.624
G1 F1500 X111.341 Y127.943 E263.58559
G0 F9000 X111.341 Y128.508
G1 F1500 X108.66 Y131.19 E263.71172
G0 F9000 X108.66 Y131.755
G1 F1500 X111.341 Y129.074 E263.83782
G0 F9000 X111.341 Y129.64
G1 F1500 X108.66 Y132.321 E263.96393
G0 F9000 X108.66 Y132.887
G1 F1500 X111.341 Y130.205 E264.09006
G0 F9000 X111.341 Y130.771
G1 F1500 X108.66 Y133.452 E264.21617
G0 F9000 X108.66 Y134.018
G1 F1500 X111.341 Y131.337 E264.34227
G0 F9000 X111.392 Y131.852
G1 F1500 X108.66 Y134.584 E264.47078
G0 F9000 X108.66 Y135.15
G1 F1500 X111.585 Y132.224 E264.60838
G0 F9000 X111.887 Y132.488
G1 F1500 X108.66 Y135.715 E264.76017
G0 F9000 X108.66 Y136.281
G1 F1500 X112.305 Y132.636 E264.93162
G0 F9000 X112.845 Y132.661
G1 F1500 X109.168 Y136.339 E265.1046
G0 F9000 X109.733 Y136.339
G1 F1500 X113.411 Y132.661 E265.2776
G0 F9000 X113.977 Y132.661
G1 F1500 X110.299 Y136.339 E265.4506
G0 F9000 X110.865 Y136.339
G1 F1500 X114.542 Y132.661 E265.62358
G0 F9000 X115.109 Y132.661
G1 F1500 X111.43 Y136.339 E265.79661
G0 F9000 X111.996 Y136.339
G1 F1500 X115.674 Y132.661 E265.96961
G0 F9000 X116.24 Y132.661
G1 F1500 X112.562 Y136.339 E266.14261
G0 F9000 X113.127 Y136.339
G1 F1500 X116.806 Y132.661 E266.31564
G0 F9000 X117.371 Y132.661
G1 F1500 X113.693 Y136.339 E266.48864
G0 F9000 X114.259 Y136.339
G1 F1500 X117.938 Y132.66 E266.66169
G0 F9000 X118.504 Y132.66
G1 F1500 X114.824 Y136.339 E266.83476
G0 F9000 X115.39 Y136.339
G1 F1500 X119.069 Y132.66 E267.00781
G0 F9000 X119.635 Y132.66
G1 F1500 X115.956 Y136.339 E267.18086
G0 F9000 X116.522 Y136.339
G1 F1500 X120.201 Y132.659 E267.35393
G0 F9000 X120.767 Y132.659
G1 F1500 X117.087 Y136.339 E267.52703
G0 F9000 X117.653 Y136.339
G1 F1500 X121.333 Y132.659 E267.70012
G0 F9000 X121.898 Y132.659
G1 F1500 X118.219 Y136.339 E267.87319
G0 F9000 X118.784 Y136.339
G1 F1500 X122.464 Y132.659 E268.04629
G1 F2700 E263.04629
G0 F9000 X122.464 Y132.203
G0 X112.069 Y131.931
G0 X111.725 Y98.273
G0 X108.273 Y98.273
G0 X108.201 Y101.208
G1 F2700 E268.04629
G0 F9000 X108.66 Y101.208
G1 F1500 X111.208 Y98.66 E268.16614
G0 F9000 X110.643 Y98.66
G1 F1500 X108.66 Y100.643 E268.25941
G0 F9000 X108.66 Y100.077
G1 F1500 X110.077 Y98.66 E268.32607
G0 F9000 X109.511 Y98.66
G1 F1500 X108.66 Y99.511 E268.36609
G0 F9000 X108.66 Y98.946
G1 F1500 X108.946 Y98.66 E268.37955
G1 F2700 E263.37955
;MESH:NONMESH
G0 F300 X108.946 Y98.66 Z1.8
G0 F9000 X108.946 Y98.201
G0 X108.273 Y98.273
G0 X108.1 Y136.9
;TIME_ELAPSED:453.824562
;LAYER:8
;TYPE:WALL-INNER
;MESH:LETRA N.stl
G1 F2700 E268.37955
G1 F1500 X126.9 Y136.9 E269.00484
G1 X126.9 Y99.999 E270.23217
G1 X126.9 Y98.1 E270.29533
G1 X123.102 Y98.1 E270.42165
G1 X123.102 Y131.578 E271.53513
G1 X122.961 Y131.891 E271.54655
G1 X122.824 Y132.01 E271.55259
G1 X122.62 Y132.103 E271.56005
G1 X112.377 Y132.103 E271.90073
G1 X112.175 Y132.01 E271.90813
G1 X112.038 Y131.891 E271.91416
G1 X111.897 Y131.578 E271.92558
G1 X111.897 Y98.101 E273.03903
G1 X108.101 Y98.101 E273.16528
G1 X108.1 Y136.9 E274.45574
G0 F9000 X107.7 Y137.3
;TYPE:WALL-OUTER
G1 F1500 X127.3 Y137.3 E275.10764
G1 X127.3 Y99.999 E276.34828
G1 X127.3 Y97.7 E276.42474
G1 X122.702 Y97.7 E276.57767
G1 X122.7 Y131.538 E277.70313
G1 X122.655 Y131.633 E277.70663
G1 X122.537 Y131.701 E277.71116
G1 X112.456 Y131.703 E278.04645
G1 X112.344 Y131.633 E278.05084
G1 X112.299 Y131.538 E278.05434
G1 X112.297 Y97.701 E279.17976
G1 X107.701 Y97.701 E279.33263
G1 X107.7 Y137.3 E280.6497
G0 F9000 X107.97 Y137.03
G0 X108.2 Y136.54
G0 X108.46 Y136.54
;TYPE:SKIN
G1 F1500 X126.54 Y136.54 E281.25104
G1 X126.54 Y99.999 E282.4664
G1 X126.54 Y98.46 E282.51759
G1 X123.462 Y98.46 E282.61996
G1 X123.46 Y131.63 E283.7232
G1 X123.386 Y131.874 E283.73168
G1 X123.241 Y132.124 E283.74129
G1 X123.019 Y132.313 E283.75099
G1 X122.752 Y132.431 E283.7607
G1 X122.525 Y132.462 E283.76832
G1 X112.475 Y132.461 E284.10258
G1 X112.191 Y132.412 E284.11217
G1 X111.982 Y132.314 E284.11985
G1 X111.76 Y132.125 E284.12954
G1 X111.601 Y131.852 E284.14005
G1 X111.539 Y131.627 E284.14781
G1 X111.537 Y98.461 E285.25092
G1 X108.461 Y98.461 E285.35323
G1 X108.46 Y136.54 E286.61974
G0 F9000 X109.186 Y136.339
G1 F1500 X108.66 Y135.813 E286.64448
G0 F9000 X108.66 Y135.247
G1 F1500 X109.752 Y136.339 E286.69584
G0 F9000 X110.317 Y136.339
G1 F1500 X108.66 Y134.681 E286.77381
G0 F9000 X108.66 Y134.116
G1 F1500 X110.883 Y136.339 E286.87837
G0 F9000 X111.449 Y136.339
G1 F1500 X108.66 Y133.55 E287.00956
G0 F9000 X108.66 Y132.984
G1 F1500 X112.014 Y136.339 E287.16734
G0 F9000 X112.58 Y136.339
G1 F1500 X108.66 Y132.419 E287.35173
G0 F9000 X108.66 Y131.853
G1 F1500 X113.146 Y136.339 E287.56274
G0 F9000 X113.711 Y136.339
G1 F1500 X108.66 Y131.287 E287.80034
G0 F9000 X108.66 Y130.722
G1 F1500 X114.277 Y136.339 E288.06455
G0 F9000 X114.843 Y136.339
G1 F1500 X108.66 Y130.156 E288.35538
G0 F9000 X108.66 Y129.59
G1 F1500 X115.409 Y136.339 E288.67283
G0 F9000 X115.974 Y136.339
G1 F1500 X112.267 Y132.632 E288.8472
G0 F9000 X112.863 Y132.662
G1 F1500 X116.54 Y136.339 E289.02015
G0 F9000 X117.106 Y136.339
G1 F1500 X113.429 Y132.662 E289.19311
G0 F9000 X113.994 Y132.662
G1 F1500 X117.671 Y136.339 E289.36606
G0 F9000 X118.237 Y136.339
G1 F1500 X114.56 Y132.662 E289.53902
G0 F9000 X115.125 Y132.661
G1 F1500 X118.803 Y136.339 E289.71202
G0 F9000 X119.368 Y136.339
G1 F1500 X115.691 Y132.661 E289.885
G0 F9000 X116.256 Y132.661
G1 F1500 X119.934 Y136.339 E290.058
G0 F9000 X120.5 Y136.339
G1 F1500 X116.822 Y132.661 E290.231
G0 F9000 X117.388 Y132.661
G1 F1500 X121.065 Y136.339 E290.40398
G0 F9000 X121.631 Y136.339
G1 F1500 X117.953 Y132.661 E290.57698
G0 F9000 X118.518 Y132.661
G1 F1500 X122.197 Y136.339 E290.75001
G0 F9000 X122.762 Y136.339
G1 F1500 X119.084 Y132.661 E290.92301
G0 F9000 X119.65 Y132.661
G1 F1500 X123.328 Y136.339 E291.09601
G0 F9000 X123.894 Y136.339
G1 F1500 X120.215 Y132.66 E291.26906
G0 F9000 X120.78 Y132.66
G1 F1500 X124.459 Y136.339 E291.44211
G0 F9000 X125.025 Y136.339
G1 F1500 X121.346 Y132.66 E291.61516
G0 F9000 X121.912 Y132.66
G1 F1500 X125.591 Y136.339 E291.7882
G0 F9000 X126.157 Y136.339
G1 F1500 X122.477 Y132.66 E291.96128
G0 F9000 X122.949 Y132.566
G1 F1500 X126.339 Y135.956 E292.12073
G0 F9000 X126.339 Y135.39
G1 F1500 X123.292 Y132.343 E292.26405
G0 F9000 X123.532 Y132.018
G1 F1500 X126.339 Y134.824 E292.39606
G0 F9000 X126.339 Y134.259
G1 F1500 X123.657 Y131.577 E292.52222
G0 F9000 X123.657 Y131.011
G1 F1500 X126.339 Y133.693 E292.64837
G0 F9000 X126.339 Y133.127
G1 F1500 X123.657 Y130.445 E292.77452
G0 F9000 X123.657 Y129.879
G1 F1500 X126.339 Y132.562 E292.9007
G0 F9000 X126.339 Y131.996
G1 F1500 X123.657 Y129.314 E293.02685
G0 F9000 X123.657 Y128.748
G1 F1500 X126.339 Y131.43 E293.153
G0 F9000 X126.339 Y130.864
G1 F1500 X123.657 Y128.182 E293.27916
G0 F9000 X123.657 Y127.617
G1 F1500 X126.339 Y130.299 E293.40531
G0 F9000 X126.339 Y129.733
G1 F1500 X123.657 Y127.051 E293.53146
G0 F9000 X123.657 Y126.485
G1 F1500 X126.339 Y129.167 E293.65762
G0 F9000 X126.339 Y128.602
G1 F1500 X123.658 Y125.92 E293.78375
G0 F9000 X123.658 Y125.355
G1 F1500 X126.339 Y128.036 E293.90985
G0 F9000 X126.339 Y127.47
G1 F1500 X123.658 Y124.789 E294.03596
G0 F9000 X123.658 Y124.223
G1 F1500 X126.339 Y126.905 E294.16209
G0 F9000 X126.339 Y126.339
G1 F1500 X123.658 Y123.658 E294.28819
G0 F9000 X123.658 Y123.092
G1 F1500 X126.339 Y125.773 E294.4143
G0 F9000 X126.339 Y125.208
G1 F1500 X123.658 Y122.526 E294.54043
G0 F9000 X123.658 Y121.961
G1 F1500 X126.339 Y124.642 E294.66654
G0 F9000 X126.339 Y124.076
G1 F1500 X123.658 Y121.395 E294.79264
G0 F9000 X123.658 Y120.829
G1 F1500 X126.339 Y123.511 E294.91877
G0 F9000 X126.339 Y122.945
G1 F1500 X123.658 Y120.264 E295.04488
G0 F9000 X123.658 Y119.699
G1 F1500 X126.339 Y122.379 E295.17096
G0 F9000 X126.339 Y121.813
G1 F1500 X123.658 Y119.133 E295.29704
G0 F9000 X123.658 Y118.567
G1 F1500 X126.339 Y121.248 E295.42315
G0 F9000 X126.339 Y120.682
G1 F1500 X123.658 Y118.001 E295.54925
G0 F9000 X123.658 Y117.436
G1 F1500 X126.339 Y120.116 E295.67534
G0 F9000 X126.339 Y119.551
G1 F1500 X123.658 Y116.87 E295.80144
G0 F9000 X123.658 Y116.304
G1 F1500 X126.339 Y118.985 E295.92755
G0 F9000 X126.339 Y118.419
G1 F1500 X123.658 Y115.739 E296.05363
G0 F9000 X123.658 Y115.173
G1 F1500 X126.339 Y117.854 E296.17974
G0 F9000 X126.339 Y117.288
G1 F1500 X123.659 Y114.608 E296.3058
G0 F9000 X123.659 Y114.042
G1 F1500 X126.339 Y116.722 E296.43186
G0 F9000 X126.339 Y116.157
G1 F1500 X123.659 Y113.477 E296.55791
G0 F9000 X123.659 Y112.911
G1 F1500 X126.339 Y115.591 E296.68397
G0 F9000 X126.339 Y115.025
G1 F1500 X123.659 Y112.345 E296.81003
G0 F9000 X123.659 Y111.78
G1 F1500 X126.339 Y114.46 E296.93609
G0 F9000 X126.339 Y113.894
G1 F1500 X123.659 Y111.214 E297.06215
G0 F9000 X123.659 Y110.648
G1 F1500 X126.339 Y113.328 E297.18821
G0 F9000 X126.339 Y112.763
G1 F1500 X123.659 Y110.083 E297.31427
G0 F9000 X123.66 Y109.518
G1 F1500 X126.339 Y112.197 E297.44028
G0 F9000 X126.339 Y111.631
G1 F1500 X123.66 Y108.952 E297.56629
G0 F9000 X123.66 Y108.386
G1 F1500 X126.339 Y111.065 E297.6923
G0 F9000 X126.339 Y110.5
G1 F1500 X123.66 Y107.821 E297.81832
G0 F9000 X123.66 Y107.255
G1 F1500 X126.339 Y109.934 E297.94433
G0 F9000 X126.339 Y109.368
G1 F1500 X123.66 Y106.689 E298.07034
G0 F9000 X123.66 Y106.123
G1 F1500 X126.339 Y108.803 E298.19638
G0 F9000 X126.339 Y108.237
G1 F1500 X123.66 Y105.558 E298.32239
G0 F9000 X123.66 Y104.992
G1 F1500 X126.339 Y107.671 E298.4484
G0 F9000 X126.339 Y107.106
G1 F1500 X123.66 Y104.426 E298.57443
G0 F9000 X123.66 Y103.861
G1 F1500 X126.339 Y106.54 E298.70045
G0 F9000 X126.339 Y105.974
G1 F1500 X123.66 Y103.296 E298.82643
G0 F9000 X123.66 Y102.73
G1 F1500 X126.339 Y105.409 E298.95245
G0 F9000 X126.339 Y104.843
G1 F1500 X123.66 Y102.164 E299.07846
G0 F9000 X123.66 Y101.599
G1 F1500 X126.339 Y104.277 E299.20445
G0 F9000 X126.339 Y103.712
G1 F1500 X123.66 Y101.033 E299.33046
G0 F9000 X123.66 Y100.467
G1 F1500 X126.339 Y103.146 E299.45647
G0 F9000 X126.339 Y102.58
G1 F1500 X123.66 Y99.902 E299.58246
G0 F9000 X123.66 Y99.336
G1 F1500 X126.339 Y102.015 E299.70847
G0 F9000 X126.339 Y101.449
G1 F1500 X123.66 Y98.77 E299.83448
G0 F9000 X124.116 Y98.66
G1 F1500 X126.339 Y100.883 E299.93905
G0 F9000 X126.339 Y100.317
G1 F1500 X124.682 Y98.66 E300.01699
G0 F9000 X125.247 Y98.66
G1 F1500 X126.339 Y99.752 E300.06835
G0 F9000 X126.339 Y99.186
G1 F1500 X125.813 Y98.66 E300.09309
G1 F2700 E295.09309
G0 F9000 X125.813 Y98.2
G0 X122.94 Y98.199
G0 X122.93 Y131.931
G0 X112.069 Y131.931
G0 X112.056 Y98.2
G0 X111.337 Y98.201
G1 F2700 E300.09309
G0 F9000 X111.337 Y98.892
G1 F1500 X111.106 Y98.661 E300.10396
G0 F9000 X110.54 Y98.661
G1 F1500 X111.337 Y99.458 E300.14145
G0 F9000 X111.337 Y100.023
G1 F1500 X109.974 Y98.661 E300.20553
G0 F9000 X109.409 Y98.661
G1 F1500 X111.337 Y100.589 E300.29622
G0 F9000 X111.337 Y101.155
G1 F1500 X108.843 Y98.661 E300.41353
G0 F9000 X108.66 Y99.043
G1 F1500 X111.337 Y101.72 E300.53945
G0 F9000 X111.337 Y102.286
G1 F1500 X108.66 Y99.609 E300.66537
G0 F9000 X108.66 Y100.175
G1 F1500 X111.338 Y102.852 E300.79131
G0 F9000 X111.338 Y103.418
G1 F1500 X108.66 Y100.74 E300.91727
G0 F9000 X108.66 Y101.306
G1 F1500 X111.338 Y103.984 E301.04324
G0 F9000 X111.338 Y104.549
G1 F1500 X108.66 Y101.872 E301.16918
G0 F9000 X108.66 Y102.437
G1 F1500 X111.338 Y105.115 E301.29514
G0 F9000 X111.338 Y105.681
G1 F1500 X108.66 Y103.003 E301.42111
G0 F9000 X108.66 Y103.569
G1 F1500 X111.338 Y106.247 E301.54707
G0 F9000 X111.338 Y106.812
G1 F1500 X108.66 Y104.134 E301.67304
G0 F9000 X108.66 Y104.7
G1 F1500 X111.338 Y107.379 E301.79903
G0 F9000 X111.338 Y107.944
G1 F1500 X108.66 Y105.266 E301.92499
G0 F9000 X108.66 Y105.831
G1 F1500 X111.338 Y108.51 E302.05098
G0 F9000 X111.338 Y109.076
G1 F1500 X108.66 Y106.397 E302.17697
G0 F9000 X108.66 Y106.963
G1 F1500 X111.338 Y109.641 E302.30293
G0 F9000 X111.338 Y110.207
G1 F1500 X108.66 Y107.529 E302.4289
G0 F9000 X108.66 Y108.094
G1 F1500 X111.338 Y110.773 E302.55489
G0 F9000 X111.339 Y111.339
G1 F1500 X108.66 Y108.66 E302.6809
G0 F9000 X108.66 Y109.226
G1 F1500 X111.339 Y111.905 E302.80691
G0 F9000 X111.339 Y112.47
G1 F1500 X108.66 Y109.791 E302.93292
G0 F9000 X108.66 Y110.357
G1 F1500 X111.339 Y113.036 E303.05894
G0 F9000 X111.339 Y113.602
G1 F1500 X108.66 Y110.923 E303.18495
G0 F9000 X108.66 Y111.488
G1 F1500 X111.339 Y114.168 E303.31098
G0 F9000 X111.339 Y114.733
G1 F1500 X108.66 Y112.054 E303.437
G0 F9000 X108.66 Y112.62
G1 F1500 X111.34 Y115.3 E303.56305
G0 F9000 X111.34 Y115.865
G1 F1500 X108.66 Y113.185 E303.68911
G0 F9000 X108.66 Y113.751
G1 F1500 X111.34 Y116.431 E303.81517
G0 F9000 X111.34 Y116.997
G1 F1500 X108.66 Y114.317 E303.94123
G0 F9000 X108.66 Y114.882
G1 F1500 X111.34 Y117.562 E304.06729
G0 F9000 X111.34 Y118.128
G1 F1500 X108.66 Y115.448 E304.19335
G0 F9000 X108.66 Y116.014
G1 F1500 X111.34 Y118.694 E304.31941
G0 F9000 X111.34 Y119.259
G1 F1500 X108.66 Y116.579 E304.44547
G0 F9000 X108.66 Y117.145
G1 F1500 X111.341 Y119.826 E304.57157
G0 F9000 X111.341 Y120.392
G1 F1500 X108.66 Y117.711 E304.69768
G0 F9000 X108.66 Y118.277
G1 F1500 X111.341 Y120.957 E304.82376
G0 F9000 X111.341 Y121.523
G1 F1500 X108.66 Y118.842 E304.94987
G0 F9000 X108.66 Y119.408
G1 F1500 X111.341 Y122.089 E305.07597
G0 F9000 X111.341 Y122.654
G1 F1500 X108.66 Y119.974 E305.20206
G0 F9000 X108.66 Y120.539
G1 F1500 X111.341 Y123.22 E305.32816
G0 F9000 X111.341 Y123.786
G1 F1500 X108.66 Y121.105 E305.45427
G0 F9000 X108.66 Y121.671
G1 F1500 X111.341 Y124.352 E305.58037
G0 F9000 X111.341 Y124.918
G1 F1500 X108.66 Y122.236 E305.7065
G0 F9000 X108.66 Y122.802
G1 F1500 X111.341 Y125.483 E305.83261
G0 F9000 X111.341 Y126.049
G1 F1500 X108.66 Y123.368 E305.95872
G0 F9000 X108.66 Y123.933
G1 F1500 X111.341 Y126.615 E306.08485
G0 F9000 X111.341 Y127.18
G1 F1500 X108.66 Y124.499 E306.21095
G0 F9000 X108.66 Y125.065
G1 F1500 X111.342 Y127.747 E306.3371
G0 F9000 X111.342 Y128.313
G1 F1500 X108.66 Y125.63 E306.46328
G0 F9000 X108.66 Y126.196
G1 F1500 X111.342 Y128.878 E306.58943
G0 F9000 X111.342 Y129.444
G1 F1500 X108.66 Y126.762 E306.71559
G0 F9000 X108.66 Y127.328
G1 F1500 X111.342 Y130.01 E306.84174
G0 F9000 X111.342 Y130.575
G1 F1500 X108.66 Y127.893 E306.96789
G0 F9000 X108.66 Y128.459
G1 F1500 X111.342 Y131.141 E307.09405
G0 F9000 X111.359 Y131.724
G1 F1500 X108.66 Y129.025 E307.221
;MESH:NONMESH
G0 F300 X108.66 Y129.025 Z2
G0 F9000 X108.201 Y129.025
G0 X108.1 Y136.9
;TIME_ELAPSED:516.063345
;LAYER:9
;TYPE:WALL-INNER
;MESH:LETRA N.stl
G1 F1500 X126.9 Y136.9 E307.84629
G1 X126.9 Y99.999 E309.07362
G1 X126.9 Y98.1 E309.13678
G1 X123.102 Y98.1 E309.2631
G1 X123.102 Y131.578 E310.37659
G1 X122.961 Y131.891 E310.38801
G1 X122.824 Y132.01 E310.39404
G1 X122.62 Y132.103 E310.4015
G1 X112.377 Y132.103 E310.74218
G1 X112.175 Y132.01 E310.74958
G1 X112.038 Y131.891 E310.75561
G1 X111.897 Y131.578 E310.76703
G1 X111.897 Y98.101 E311.88048
G1 X108.101 Y98.101 E312.00674
G1 X108.1 Y136.9 E313.2972
G0 F9000 X107.7 Y137.3
;TYPE:WALL-OUTER
G1 F1500 X127.3 Y137.3 E313.9491
G1 X127.3 Y99.999 E315.18973
G1 X127.3 Y97.7 E315.2662
G1 X122.702 Y97.7 E315.41913
G1 X122.7 Y131.538 E316.54458
G1 X122.655 Y131.633 E316.54808
G1 X122.537 Y131.701 E316.55261
G1 X112.456 Y131.703 E316.8879
G1 X112.344 Y131.633 E316.8923
G1 X112.299 Y131.538 E316.89579
G1 X112.297 Y97.701 E318.02122
G1 X107.701 Y97.701 E318.17408
G1 X107.7 Y137.3 E319.49115
G0 F9000 X107.97 Y137.03
G0 X108.2 Y136.54
G0 X108.46 Y136.54
;TYPE:SKIN
G1 F1500 X126.54 Y136.54 E320.09249
G1 X126.54 Y98.46 E321.35904
G1 X123.462 Y98.46 E321.46141
G1 X123.46 Y131.63 E322.56465
G1 X123.386 Y131.874 E322.57313
G1 X123.241 Y132.124 E322.58274
G1 X123.019 Y132.313 E322.59244
G1 X122.752 Y132.431 E322.60215
G1 X122.525 Y132.462 E322.60977
G1 X112.504 Y132.463 E322.94307
G1 X112.217 Y132.424 E322.9527
G1 X111.982 Y132.314 E322.96133
G1 X111.76 Y132.125 E322.97103
G1 X111.601 Y131.852 E322.98154
G1 X111.539 Y131.627 E322.9893
G1 X111.537 Y98.461 E324.09241
G1 X108.461 Y98.461 E324.19471
G1 X108.46 Y136.54 E325.46123
G0 F9000 X108.2 Y136.54
G0 X126.138 Y136.8
G0 X126.138 Y136.339
G1 F1500 X126.339 Y136.138 E325.47068
G0 F9000 X126.339 Y135.572
G1 F1500 X125.572 Y136.339 E325.50676
G0 F9000 X125.007 Y136.339
G1 F1500 X126.339 Y135.007 E325.56941
G0 F9000 X126.339 Y134.441
G1 F1500 X124.441 Y136.339 E325.65869
G0 F9000 X123.875 Y136.339
G1 F1500 X126.339 Y133.875 E325.77459
G0 F9000 X126.339 Y133.31
G1 F1500 X123.31 Y136.339 E325.91706
G0 F9000 X122.744 Y136.339
G1 F1500 X126.339 Y132.744 E326.08616
G0 F9000 X126.339 Y132.178
G1 F1500 X122.178 Y136.339 E326.28188
G0 F9000 X121.613 Y136.339
G1 F1500 X126.339 Y131.613 E326.50418
G0 F9000 X126.339 Y131.047
G1 F1500 X121.047 Y136.339 E326.7531
G0 F9000 X120.481 Y136.339
G1 F1500 X126.339 Y130.481 E327.02864
G0 F9000 X126.339 Y129.916
G1 F1500 X119.916 Y136.339 E327.33076
G0 F9000 X119.35 Y136.339
G1 F1500 X126.339 Y129.35 E327.6595
G0 F9000 X126.339 Y128.784
G1 F1500 X123.658 Y131.465 E327.7856
G0 F9000 X123.658 Y130.9
G1 F1500 X126.339 Y128.218 E327.91173
G0 F9000 X126.339 Y127.653
G1 F1500 X123.658 Y130.334 E328.03784
G0 F9000 X123.658 Y129.768
G1 F1500 X126.339 Y127.087 E328.16395
G0 F9000 X126.339 Y126.521
G1 F1500 X123.658 Y129.203 E328.29008
G0 F9000 X123.658 Y128.637
G1 F1500 X126.339 Y125.956 E328.41618
G0 F9000 X126.339 Y125.39
G1 F1500 X123.658 Y128.071 E328.54229
G0 F9000 X123.658 Y127.506
G1 F1500 X126.339 Y124.824 E328.66842
G0 F9000 X126.339 Y124.259
G1 F1500 X123.658 Y126.94 E328.79452
G0 F9000 X123.658 Y126.374
G1 F1500 X126.339 Y123.693 E328.92063
G0 F9000 X126.339 Y123.127
G1 F1500 X123.658 Y125.808 E329.04674
G0 F9000 X123.658 Y125.242
G1 F1500 X126.339 Y122.562 E329.17282
G0 F9000 X126.339 Y121.996
G1 F1500 X123.658 Y124.677 E329.29892
G0 F9000 X123.658 Y124.111
G1 F1500 X126.339 Y121.43 E329.42503
G0 F9000 X126.339 Y120.865
G1 F1500 X123.658 Y123.545 E329.55111
G0 F9000 X123.658 Y122.98
G1 F1500 X126.339 Y120.299 E329.67722
G0 F9000 X126.339 Y119.733
G1 F1500 X123.658 Y122.414 E329.80332
G0 F9000 X123.658 Y121.848
G1 F1500 X126.339 Y119.167 E329.92943
G0 F9000 X126.339 Y118.602
G1 F1500 X123.658 Y121.282 E330.05551
G0 F9000 X123.658 Y120.717
G1 F1500 X126.339 Y118.036 E330.18162
G0 F9000 X126.339 Y117.47
G1 F1500 X123.659 Y120.15 E330.30768
G0 F9000 X123.659 Y119.585
G1 F1500 X126.339 Y116.905 E330.43374
G0 F9000 X126.339 Y116.339
G1 F1500 X123.659 Y119.019 E330.5598
G0 F9000 X123.659 Y118.453
G1 F1500 X126.339 Y115.773 E330.68585
G0 F9000 X126.339 Y115.208
G1 F1500 X123.659 Y117.888 E330.81191
G0 F9000 X123.659 Y117.322
G1 F1500 X126.339 Y114.642 E330.93797
G0 F9000 X126.339 Y114.076
G1 F1500 X123.659 Y116.756 E331.06403
G0 F9000 X123.659 Y116.191
G1 F1500 X126.339 Y113.511 E331.19009
G0 F9000 X126.339 Y112.945
G1 F1500 X123.659 Y115.625 E331.31615
G0 F9000 X123.66 Y115.059
G1 F1500 X126.339 Y112.379 E331.44219
G0 F9000 X126.339 Y111.814
G1 F1500 X123.66 Y114.493 E331.5682
G0 F9000 X123.66 Y113.927
G1 F1500 X126.339 Y111.248 E331.69421
G0 F9000 X126.339 Y110.682
G1 F1500 X123.66 Y113.361 E331.82022
G0 F9000 X123.66 Y112.796
G1 F1500 X126.339 Y110.117 E331.94623
G0 F9000 X126.339 Y109.551
G1 F1500 X123.66 Y112.23 E332.07225
G0 F9000 X123.66 Y111.664
G1 F1500 X126.339 Y108.985 E332.19826
G0 F9000 X126.339 Y108.419
G1 F1500 X123.66 Y111.099 E332.32429
G0 F9000 X123.66 Y110.533
G1 F1500 X126.339 Y107.854 E332.4503
G0 F9000 X126.339 Y107.288
G1 F1500 X123.66 Y109.967 E332.57632
G0 F9000 X123.66 Y109.401
G1 F1500 X126.339 Y106.722 E332.70233
G0 F9000 X126.339 Y106.157
G1 F1500 X123.66 Y108.835 E332.82832
G0 F9000 X123.66 Y108.27
G1 F1500 X126.339 Y105.591 E332.95433
G0 F9000 X126.339 Y105.025
G1 F1500 X123.66 Y107.704 E333.08034
G0 F9000 X123.66 Y107.138
G1 F1500 X126.339 Y104.46 E333.20633
G0 F9000 X126.339 Y103.894
G1 F1500 X123.66 Y106.573 E333.33234
G0 F9000 X123.66 Y106.007
G1 F1500 X126.339 Y103.328 E333.45835
G0 F9000 X126.339 Y102.763
G1 F1500 X123.66 Y105.441 E333.58434
G0 F9000 X123.66 Y104.875
G1 F1500 X126.339 Y102.197 E333.71033
G0 F9000 X126.339 Y101.631
G1 F1500 X123.66 Y104.31 E333.83634
G0 F9000 X123.661 Y103.743
G1 F1500 X126.339 Y101.066 E333.96228
G0 F9000 X126.339 Y100.5
G1 F1500 X123.661 Y103.178 E334.08825
G0 F9000 X123.661 Y102.612
G1 F1500 X126.339 Y99.934 E334.21421
G0 F9000 X126.339 Y99.369
G1 F1500 X123.661 Y102.046 E334.34015
G0 F9000 X123.661 Y101.481
G1 F1500 X126.339 Y98.803 E334.46612
G0 F9000 X125.917 Y98.659
G1 F1500 X123.661 Y100.915 E334.57223
G0 F9000 X123.661 Y100.349
G1 F1500 X125.351 Y98.659 E334.65173
G0 F9000 X124.785 Y98.659
G1 F1500 X123.661 Y99.784 E334.70462
G0 F9000 X123.661 Y99.218
G1 F1500 X124.22 Y98.659 E334.73091
G1 F2700 E329.73091
G0 F9000 X124.22 Y98.2
G0 X122.94 Y98.199
G0 X122.93 Y131.931
G0 X112.069 Y131.931
G0 X112.056 Y98.2
G0 X111.336 Y98.201
G1 F2700 E334.73091
G0 F9000 X111.336 Y99.098
G1 F1500 X108.66 Y101.774 E334.85678
G0 F9000 X108.66 Y102.34
G1 F1500 X111.336 Y99.663 E334.98268
G0 F9000 X111.336 Y100.229
G1 F1500 X108.66 Y102.905 E335.10855
G0 F9000 X108.66 Y103.471
G1 F1500 X111.336 Y100.795 E335.23442
G0 F9000 X111.336 Y101.36
G1 F1500 X108.66 Y104.037 E335.36031
G0 F9000 X108.66 Y104.603
G1 F1500 X111.336 Y101.926 E335.48621
G0 F9000 X111.336 Y102.492
G1 F1500 X108.66 Y105.168 E335.61208
G0 F9000 X108.66 Y105.734
G1 F1500 X111.337 Y103.057 E335.738
G0 F9000 X111.337 Y103.622
G1 F1500 X108.66 Y106.3 E335.86394
G0 F9000 X108.66 Y106.865
G1 F1500 X111.337 Y104.188 E335.98986
G0 F9000 X111.337 Y104.754
G1 F1500 X108.66 Y107.431 E336.11578
G0 F9000 X108.66 Y107.997
G1 F1500 X111.337 Y105.32 E336.24169
G0 F9000 X111.337 Y105.885
G1 F1500 X108.66 Y108.562 E336.36761
G0 F9000 X108.66 Y109.128
G1 F1500 X111.337 Y106.451 E336.49353
G0 F9000 X111.338 Y107.016
G1 F1500 X108.66 Y109.694 E336.61949
G0 F9000 X108.66 Y110.259
G1 F1500 X111.338 Y107.582 E336.74544
G0 F9000 X111.338 Y108.147
G1 F1500 X108.66 Y110.825 E336.8714
G0 F9000 X108.66 Y111.391
G1 F1500 X111.338 Y108.713 E336.99736
G0 F9000 X111.338 Y109.279
G1 F1500 X108.66 Y111.956 E337.12331
G0 F9000 X108.66 Y112.522
G1 F1500 X111.338 Y109.844 E337.24927
G0 F9000 X111.338 Y110.41
G1 F1500 X108.66 Y113.088 E337.37524
G0 F9000 X108.66 Y113.653
G1 F1500 X111.338 Y110.976 E337.50118
G0 F9000 X111.338 Y111.541
G1 F1500 X108.66 Y114.219 E337.62714
G0 F9000 X108.66 Y114.785
G1 F1500 X111.338 Y112.106 E337.75313
G0 F9000 X111.338 Y112.672
G1 F1500 X108.66 Y115.351 E337.87912
G0 F9000 X108.66 Y115.916
G1 F1500 X111.338 Y113.238 E338.00508
G0 F9000 X111.338 Y113.803
G1 F1500 X108.66 Y116.482 E338.13107
G0 F9000 X108.66 Y117.048
