;FLAVOR:Marlin
;TIME:574
;Filament used: 0.344761m
;Layer height: 0.2
;MINX:107.701
;MINY:97.701
;MINZ:0.2
;MAXX:127.3
;MAXY:137.3
;MAXZ:2
;Generated with Cura_SteamEngine 5.2.2
M140 S50
M105
M190 S50
M104 S200
M105
M109 S200
M82 ;absolute extrusion mode
; Ender 3 Custom Start G-code
G92 E0 ; Reset Extruder
G28 ; Home all axes
G1 Z2.0 F3000 ; Move Z Axis up little to prevent scratching of Heat Bed
G1 X0.1 Y20 Z0.3 F5000.0 ; Move to start position
G1 X0.1 Y200.0 Z0.3 F1500.0 E15 ; Draw the first line
G1 X0.4 Y200.0 Z0.3 F5000.0 ; Move to side a little
G1 X0.4 Y20 Z0.3 F1500.0 E30 ; Draw the second line
G92 E0 ; Reset Extruder
G1 Z2.0 F3000 ; Move Z Axis up little to prevent scratching of Heat Bed
G1 X5 Y20 Z0.3 F5000.0 ; Move over to prevent blob squish
G92 E0
G92 E0
G1 F2700 E-5
;LAYER_COUNT:10
;LAYER:0
M107
;MESH:LETRA P.stl
G0 F6000 X113.189 Y132.019 Z0.2
;TYPE:WALL-INNER
G1 F2700 E0
G1 F1200 X112.981 Y131.811 E0.00978
G1 X112.897 Y131.503 E0.0204
G1 X112.897 Y120.397 E0.38979
G1 X112.967 Y120.215 E0.39627
G1 X113.136 Y120.018 E0.40491
G1 X113.444 Y119.9 E0.41588
G1 X122.621 Y119.898 E0.72111
G1 X122.825 Y119.991 E0.72856
G1 X122.961 Y120.11 E0.73457
G1 X123.064 Y120.285 E0.74133
G1 X123.102 Y120.498 E0.74852
G1 X123.102 Y131.578 E1.11705
G1 X122.961 Y131.891 E1.12846
G1 X122.824 Y132.01 E1.1345
G1 X122.606 Y132.095 E1.14228
G1 X122.502 Y132.103 E1.14575
G1 X113.385 Y132.103 E1.44898
G1 X113.189 Y132.019 E1.45608
G0 F6000 X113.355 Y131.645
;TYPE:WALL-OUTER
G1 F1200 X113.299 Y131.538 E1.46009
G1 X113.297 Y120.464 E1.82842
G1 X113.376 Y120.338 E1.83336
G1 X113.479 Y120.298 E1.83704
G1 X122.543 Y120.298 E2.13851
G1 X122.655 Y120.368 E2.1429
G1 X122.702 Y120.447 E2.14596
G1 X122.7 Y131.538 E2.51485
G1 X122.655 Y131.633 E2.51834
G1 X122.537 Y131.701 E2.52287
G1 X113.454 Y131.703 E2.82497
G1 X113.355 Y131.645 E2.82879
G1 F2700 E-2.17121
G0 F6000 X112.997 Y131.645
G0 X112.945 Y132.055
G0 X108.301 Y133.987
G0 X108.101 Y136.899
;TYPE:WALL-INNER
G1 F2700 E2.82879
G1 F1200 X126.9 Y136.9 E3.45405
G1 X126.9 Y117.755 E4.09081
G1 X126.9 Y115.103 E4.17902
G1 X113.497 Y115.104 E4.6248
G1 X113.286 Y115.066 E4.63193
G1 X113.136 Y114.984 E4.63762
G1 X112.967 Y114.786 E4.64628
G1 X112.897 Y114.604 E4.65276
G1 X112.897 Y98.101 E5.20166
G1 X108.101 Y98.101 E5.36117
G1 X108.101 Y136.899 E6.6516
G0 F6000 X107.701 Y137.299
;TYPE:WALL-OUTER
G1 F1200 X127.3 Y137.3 E7.30346
G1 X127.3 Y117.755 E7.95353
G1 X127.3 Y114.703 E8.05504
G1 X113.479 Y114.703 E8.51473
G1 X113.376 Y114.664 E8.51839
G1 X113.299 Y114.538 E8.52331
G1 X113.297 Y97.701 E9.08331
G1 X107.701 Y97.701 E9.26943
G1 X107.701 Y137.299 E10.58647
G0 F6000 X107.97 Y137.03
G0 X108.201 Y136.538
G0 X108.462 Y136.538
;TYPE:SKIN
G1 F1200 X126.54 Y136.54 E11.18774
G1 X126.54 Y117.755 E11.81253
G1 X126.54 Y115.463 E11.88877
G1 X113.492 Y115.464 E12.32274
G1 X113.182 Y115.41 E12.33321
G1 X112.918 Y115.272 E12.34312
G1 X112.649 Y114.964 E12.35672
G1 X112.539 Y114.666 E12.36728
G1 X112.537 Y98.461 E12.90626
G1 X108.461 Y98.461 E13.04183
G1 X108.462 Y136.538 E14.30828
G1 F2700 E9.30828
G0 F6000 X108.201 Y136.538
G0 X111.052 Y136.7
G0 X113.096 Y132.173
G0 X112.994 Y132.327
G1 F2700 E14.30828
G1 F1200 X112.701 Y132.034 E14.32206
G1 X112.565 Y131.74 E14.33284
G1 X112.538 Y131.529 E14.33991
G1 X112.537 Y120.324 E14.71259
G1 X112.672 Y120.01 E14.72396
G1 X112.92 Y119.727 E14.73647
G1 X113.132 Y119.61 E14.74453
G1 X113.389 Y119.544 E14.75335
G1 X122.524 Y119.54 E15.05718
G1 X122.807 Y119.589 E15.06674
G1 X122.996 Y119.676 E15.07366
G1 X123.241 Y119.875 E15.08415
G1 X123.402 Y120.155 E15.0949
G1 X123.459 Y120.463 E15.10532
G1 X123.46 Y131.631 E15.47676
G1 X123.386 Y131.874 E15.48521
G1 X123.241 Y132.124 E15.49483
G1 X123.019 Y132.313 E15.50452
G1 X122.752 Y132.431 E15.51423
G1 X122.525 Y132.462 E15.52185
G1 X113.476 Y132.462 E15.82282
G1 X113.263 Y132.434 E15.82997
G1 X112.994 Y132.327 E15.8396
G1 F2700 E10.8396
G0 F6000 X113.137 Y132.105
G0 X111.013 Y136.699
G0 X109.184 Y136.337
G1 F2700 E15.8396
G1 F1200 X108.661 Y135.814 E15.8642
G0 F6000 X108.661 Y135.249
G1 F1200 X109.75 Y136.337 E15.9154
G0 F6000 X110.315 Y136.337
G1 F1200 X108.661 Y134.683 E15.9932
G0 F6000 X108.661 Y134.117
G1 F1200 X110.881 Y136.337 E16.09762
G0 F6000 X111.447 Y136.337
G1 F1200 X108.661 Y133.551 E16.22866
G0 F6000 X108.661 Y132.986
G1 F1200 X112.012 Y136.337 E16.38628
G0 F6000 X112.578 Y136.337
G1 F1200 X108.661 Y132.42 E16.57053
G0 F6000 X108.661 Y131.854
G1 F1200 X113.144 Y136.337 E16.78139
G0 F6000 X113.709 Y136.337
G1 F1200 X108.661 Y131.289 E17.01884
G0 F6000 X108.661 Y130.723
G1 F1200 X114.275 Y136.337 E17.2829
G0 F6000 X114.841 Y136.337
G1 F1200 X108.661 Y130.157 E17.57359
G0 F6000 X108.661 Y129.592
G1 F1200 X115.407 Y136.337 E17.89088
G0 F6000 X115.973 Y136.337
G1 F1200 X108.661 Y129.026 E18.23479
G0 F6000 X108.661 Y128.46
G1 F1200 X116.538 Y136.337 E18.6053
G0 F6000 X117.104 Y136.337
G1 F1200 X113.422 Y132.656 E18.77846
G0 F6000 X113.991 Y132.659
G1 F1200 X117.67 Y136.337 E18.95149
G0 F6000 X118.236 Y136.337
G1 F1200 X114.557 Y132.659 E19.12452
G0 F6000 X115.123 Y132.659
G1 F1200 X118.801 Y136.337 E19.29752
G0 F6000 X119.367 Y136.337
G1 F1200 X115.689 Y132.659 E19.47052
G0 F6000 X116.254 Y132.659
G1 F1200 X119.933 Y136.337 E19.64354
G0 F6000 X120.499 Y136.338
G1 F1200 X116.82 Y132.659 E19.81659
G0 F6000 X117.386 Y132.659
G1 F1200 X121.065 Y136.338 E19.98964
G0 F6000 X121.63 Y136.338
G1 F1200 X117.951 Y132.659 E20.16269
G0 F6000 X118.517 Y132.659
G1 F1200 X122.196 Y136.338 E20.33574
G0 F6000 X122.762 Y136.338
G1 F1200 X119.083 Y132.659 E20.50879
G0 F6000 X119.648 Y132.659
G1 F1200 X123.327 Y136.338 E20.68184
G0 F6000 X123.893 Y136.338
G1 F1200 X120.214 Y132.659 E20.85489
G0 F6000 X120.78 Y132.659
G1 F1200 X124.459 Y136.338 E21.02794
G0 F6000 X125.024 Y136.338
G1 F1200 X121.345 Y132.659 E21.20098
G0 F6000 X121.911 Y132.659
G1 F1200 X125.59 Y136.338 E21.37403
G0 F6000 X126.156 Y136.338
G1 F1200 X122.477 Y132.659 E21.54708
G0 F6000 X122.949 Y132.566
G1 F1200 X126.339 Y135.956 E21.70654
G0 F6000 X126.339 Y135.39
G1 F1200 X123.292 Y132.343 E21.84986
G0 F6000 X123.532 Y132.017
G1 F1200 X126.339 Y134.824 E21.98189
G0 F6000 X126.339 Y134.259
G1 F1200 X123.656 Y131.576 E22.10809
G0 F6000 X123.656 Y131.01
G1 F1200 X126.339 Y133.693 E22.23429
G0 F6000 X126.339 Y133.127
G1 F1200 X123.656 Y130.444 E22.36049
G0 F6000 X123.656 Y129.879
G1 F1200 X126.339 Y132.562 E22.48669
G0 F6000 X126.339 Y131.996
G1 F1200 X123.657 Y129.314 E22.61284
G0 F6000 X123.657 Y128.748
G1 F1200 X126.339 Y131.43 E22.739
G0 F6000 X126.339 Y130.864
G1 F1200 X123.657 Y128.182 E22.86515
G0 F6000 X123.658 Y127.617
G1 F1200 X126.339 Y130.299 E22.99128
G0 F6000 X126.339 Y129.733
G1 F1200 X123.658 Y127.052 E23.11739
G0 F6000 X123.658 Y126.486
G1 F1200 X126.339 Y129.167 E23.24349
G0 F6000 X126.339 Y128.602
G1 F1200 X123.658 Y125.921 E23.3696
G0 F6000 X123.658 Y125.355
G1 F1200 X126.339 Y128.036 E23.4957
G0 F6000 X126.339 Y127.47
G1 F1200 X123.658 Y124.79 E23.62179
G0 F6000 X123.658 Y124.224
G1 F1200 X126.339 Y126.905 E23.74789
G0 F6000 X126.339 Y126.339
G1 F1200 X123.659 Y123.659 E23.87395
G0 F6000 X123.659 Y123.093
G1 F1200 X126.339 Y125.773 E24.00001
G0 F6000 X126.339 Y125.208
G1 F1200 X123.659 Y122.528 E24.12607
G0 F6000 X123.66 Y121.963
G1 F1200 X126.339 Y124.642 E24.25208
G0 F6000 X126.339 Y124.076
G1 F1200 X123.66 Y121.397 E24.37809
G0 F6000 X123.66 Y120.831
G1 F1200 X126.339 Y123.511 E24.50413
G0 F6000 X126.339 Y122.945
G1 F1200 X123.617 Y120.223 E24.63216
G0 F6000 X123.165 Y120.303
G0 X122.701 Y119.827
G0 X122.767 Y119.373
G1 F1200 X119.057 Y115.663 E24.80667
G0 F6000 X118.492 Y115.663
G1 F1200 X122.166 Y119.337 E24.97948
G0 F6000 X121.6 Y119.337
G1 F1200 X117.926 Y115.663 E25.1523
G0 F6000 X117.36 Y115.663
G1 F1200 X121.035 Y119.338 E25.32516
G0 F6000 X120.469 Y119.338
G1 F1200 X116.794 Y115.663 E25.49802
G0 F6000 X116.229 Y115.663
G1 F1200 X119.904 Y119.339 E25.6709
G0 F6000 X119.339 Y119.339
G1 F1200 X115.663 Y115.663 E25.84381
G0 F6000 X115.097 Y115.663
G1 F1200 X118.774 Y119.339 E26.01674
G0 F6000 X118.208 Y119.339
G1 F1200 X114.532 Y115.663 E26.18965
G0 F6000 X113.966 Y115.663
G1 F1200 X117.643 Y119.34 E26.36261
G0 F6000 X117.077 Y119.34
G1 F1200 X113.383 Y115.646 E26.53636
G0 F6000 X113.579 Y115.204
G0 X113.166 Y114.984
G0 X112.803 Y114.569
G0 X112.341 Y114.604
G1 F1200 X108.66 Y110.923 E26.7095
G0 F6000 X108.66 Y110.357
G1 F1200 X112.341 Y114.038 E26.88265
G0 F6000 X112.341 Y113.472
G1 F1200 X108.66 Y109.791 E27.05579
G0 F6000 X108.66 Y109.226
G1 F1200 X112.341 Y112.907 E27.22893
G0 F6000 X112.34 Y112.34
G1 F1200 X108.66 Y108.66 E27.40203
G0 F6000 X108.66 Y108.094
G1 F1200 X112.34 Y111.775 E27.57515
G0 F6000 X112.34 Y111.209
G1 F1200 X108.66 Y107.529 E27.74824
G0 F6000 X108.66 Y106.963
G1 F1200 X112.34 Y110.643 E27.92134
G0 F6000 X112.34 Y110.077
G1 F1200 X108.66 Y106.397 E28.09444
G0 F6000 X108.66 Y105.831
G1 F1200 X112.34 Y109.511 E28.26753
G0 F6000 X112.34 Y108.946
G1 F1200 X108.66 Y105.266 E28.44063
G0 F6000 X108.66 Y104.7
G1 F1200 X112.34 Y108.38 E28.61372
G0 F6000 X112.339 Y107.813
G1 F1200 X108.66 Y104.134 E28.78677
G0 F6000 X108.66 Y103.569
G1 F1200 X112.339 Y107.248 E28.95982
G0 F6000 X112.339 Y106.682
G1 F1200 X108.66 Y103.003 E29.13287
G0 F6000 X108.66 Y102.437
G1 F1200 X112.339 Y106.116 E29.30592
G0 F6000 X112.339 Y105.551
G1 F1200 X108.66 Y101.872 E29.47897
G0 F6000 X108.66 Y101.306
G1 F1200 X112.338 Y104.984 E29.65197
G0 F6000 X112.338 Y104.419
G1 F1200 X108.66 Y100.74 E29.82499
G0 F6000 X108.66 Y100.175
G1 F1200 X112.338 Y103.853 E29.998
G0 F6000 X112.338 Y103.287
G1 F1200 X108.66 Y99.609 E30.171
G0 F6000 X108.66 Y99.043
G1 F1200 X112.338 Y102.721 E30.344
G0 F6000 X112.338 Y102.155
G1 F1200 X108.843 Y98.661 E30.50837
G0 F6000 X109.409 Y98.661
G1 F1200 X112.338 Y101.59 E30.64614
G0 F6000 X112.338 Y101.024
G1 F1200 X109.974 Y98.661 E30.75731
G0 F6000 X110.54 Y98.661
G1 F1200 X112.337 Y100.457 E30.84182
G0 F6000 X112.337 Y99.892
G1 F1200 X111.106 Y98.661 E30.89972
G0 F6000 X111.671 Y98.661
G1 F1200 X112.337 Y99.326 E30.93102
G0 F6000 X112.337 Y98.76
G1 F1200 X112.237 Y98.661 E30.9357
G0 F6000 X112.237 Y98.201
G0 X108.273 Y98.273
G0 X108.201 Y111.489
G0 X108.661 Y111.489
G1 F1200 X116.512 Y119.341 E31.30501
G0 F6000 X115.947 Y119.341
G1 F1200 X108.661 Y112.055 E31.64772
G0 F6000 X108.661 Y112.62
G1 F1200 X115.382 Y119.341 E31.96386
G0 F6000 X114.816 Y119.341
G1 F1200 X108.661 Y113.186 E32.25337
G0 F6000 X108.661 Y113.752
G1 F1200 X114.251 Y119.342 E32.51631
G0 F6000 X113.685 Y119.342
G1 F1200 X108.661 Y114.317 E32.75264
G0 F6000 X108.661 Y114.883
G1 F1200 X113.168 Y119.391 E32.96466
G0 F6000 X112.785 Y119.573
G1 F1200 X108.661 Y115.449 E33.15864
G0 F6000 X108.661 Y116.015
G1 F1200 X112.522 Y119.876 E33.34025
G0 F6000 X112.353 Y120.273
G1 F1200 X108.661 Y116.58 E33.51394
G0 F6000 X108.661 Y117.146
G1 F1200 X112.337 Y120.822 E33.68684
G0 F6000 X112.337 Y121.388
G1 F1200 X108.661 Y117.712 E33.85975
G0 F6000 X108.661 Y118.277
G1 F1200 X112.337 Y121.953 E34.03266
G0 F6000 X112.337 Y122.519
G1 F1200 X108.661 Y118.843 E34.20557
G0 F6000 X108.661 Y119.409
G1 F1200 X112.337 Y123.085 E34.37848
G0 F6000 X112.338 Y123.651
G1 F1200 X108.661 Y119.974 E34.55143
G0 F6000 X108.661 Y120.54
G1 F1200 X112.338 Y124.217 E34.72439
G0 F6000 X112.338 Y124.783
G1 F1200 X108.661 Y121.106 E34.89734
G0 F6000 X108.661 Y121.671
G1 F1200 X112.338 Y125.348 E35.07029
G0 F6000 X112.338 Y125.914
G1 F1200 X108.661 Y122.237 E35.24325
G0 F6000 X108.661 Y122.803
G1 F1200 X112.338 Y126.48 E35.4162
G0 F6000 X112.338 Y127.046
G1 F1200 X108.661 Y123.368 E35.58918
G0 F6000 X108.661 Y123.935
G1 F1200 X112.338 Y127.612 E35.76214
G0 F6000 X112.338 Y128.177
G1 F1200 X108.661 Y124.5 E35.93509
G0 F6000 X108.661 Y125.066
G1 F1200 X112.338 Y128.743 E36.10805
G0 F6000 X112.339 Y129.31
G1 F1200 X108.661 Y125.632 E36.28105
G0 F6000 X108.661 Y126.198
G1 F1200 X112.339 Y129.875 E36.45403
G0 F6000 X112.339 Y130.441
G1 F1200 X108.661 Y126.763 E36.62703
G0 F6000 X108.661 Y127.329
G1 F1200 X112.339 Y131.007 E36.80003
G0 F6000 X112.342 Y131.575
G1 F1200 X108.661 Y127.895 E36.97315
G1 F2700 E31.97315
G0 F6000 X108.201 Y127.895
G0 X108.273 Y136.727
G0 X126.728 Y136.728
G0 X126.728 Y115.275
G0 X119.623 Y115.204
G1 F2700 E36.97315
G0 F6000 X119.623 Y115.663
G1 F1200 X126.339 Y122.379 E37.28905
G0 F6000 X126.339 Y121.813
G1 F1200 X120.189 Y115.663 E37.57833
G0 F6000 X120.754 Y115.663
G1 F1200 X126.339 Y121.248 E37.84103
G0 F6000 X126.339 Y120.682
G1 F1200 X121.32 Y115.663 E38.07711
G0 F6000 X121.886 Y115.663
G1 F1200 X126.339 Y120.116 E38.28656
G0 F6000 X126.339 Y119.551
G1 F1200 X122.451 Y115.663 E38.46944
G0 F6000 X123.017 Y115.663
G1 F1200 X126.339 Y118.985 E38.6257
G0 F6000 X126.339 Y118.419
G1 F1200 X123.583 Y115.663 E38.75533
G0 F6000 X124.148 Y115.663
G1 F1200 X126.339 Y117.854 E38.85839
G0 F6000 X126.339 Y117.288
G1 F1200 X124.714 Y115.663 E38.93483
G0 F6000 X125.28 Y115.663
G1 F1200 X126.339 Y116.722 E38.98464
G0 F6000 X126.339 Y116.157
G1 F1200 X125.845 Y115.663 E39.00787
G1 F2700 E34.00787
;MESH:NONMESH
G0 F300 X125.845 Y115.663 Z0.4
G0 F6000 X125.845 Y115.203
G0 X123.375 Y115.303
G0 X122.501 Y119.717
G0 X113.189 Y132.019
;TIME_ELAPSED:78.339293
;LAYER:1
M106 S85
;TYPE:WALL-INNER
;MESH:LETRA P.stl
G1 F2700 E39.00787
G1 F1350 X112.981 Y131.811 E39.01766
G1 X112.897 Y131.503 E39.02828
G1 X112.897 Y120.397 E39.39766
G1 X112.967 Y120.215 E39.40415
G1 X113.136 Y120.018 E39.41278
G1 X113.444 Y119.9 E39.42375
G1 X122.621 Y119.898 E39.72898
G1 X122.825 Y119.991 E39.73644
G1 X122.961 Y120.11 E39.74245
G1 X123.064 Y120.285 E39.7492
G1 X123.102 Y120.498 E39.7564
G1 X123.102 Y131.578 E40.12492
G1 X122.961 Y131.891 E40.13634
G1 X122.824 Y132.01 E40.14237
G1 X122.606 Y132.095 E40.15016
G1 X122.502 Y132.103 E40.15363
G1 X113.385 Y132.103 E40.45686
G1 X113.189 Y132.019 E40.46395
G0 F7500 X113.355 Y131.645
;TYPE:WALL-OUTER
G1 F1350 X113.299 Y131.538 E40.46797
G1 X113.297 Y120.464 E40.83629
G1 X113.376 Y120.338 E40.84124
G1 X113.479 Y120.298 E40.84491
G1 X122.543 Y120.298 E41.14638
G1 X122.655 Y120.368 E41.15077
G1 X122.702 Y120.447 E41.15383
G1 X122.7 Y131.538 E41.52272
G1 X122.655 Y131.633 E41.52622
G1 X122.537 Y131.701 E41.53075
G1 X113.454 Y131.703 E41.83285
G1 X113.355 Y131.645 E41.83666
G1 F2700 E36.83666
G0 F7500 X112.997 Y131.645
G0 X112.945 Y132.055
G0 X108.301 Y133.987
G0 X108.101 Y136.899
;TYPE:WALL-INNER
G1 F2700 E41.83666
G1 F1350 X126.9 Y136.9 E42.46192
G1 X126.9 Y117.755 E43.09869
G1 X126.9 Y115.103 E43.18689
G1 X113.497 Y115.104 E43.63268
G1 X113.286 Y115.066 E43.63981
G1 X113.136 Y114.984 E43.64549
G1 X112.967 Y114.786 E43.65415
G1 X112.897 Y114.604 E43.66064
G1 X112.897 Y98.101 E44.20953
G1 X108.101 Y98.101 E44.36905
G1 X108.101 Y136.899 E45.65947
G0 F7500 X107.701 Y137.299
;TYPE:WALL-OUTER
G1 F1350 X127.3 Y137.3 E46.31134
G1 X127.3 Y117.755 E46.96141
G1 X127.3 Y114.703 E47.06292
G1 X113.479 Y114.703 E47.52261
G1 X113.376 Y114.664 E47.52627
G1 X113.299 Y114.538 E47.53118
G1 X113.297 Y97.701 E48.09118
G1 X107.701 Y97.701 E48.2773
G1 X107.701 Y137.299 E49.59434
G0 F7500 X107.97 Y137.03
G0 X108.201 Y136.538
G0 X108.462 Y136.538
;TYPE:SKIN
G1 F1350 X126.54 Y136.54 E50.19562
G1 X126.54 Y117.755 E50.82041
G1 X126.54 Y115.463 E50.89664
G1 X113.492 Y115.464 E51.33062
G1 X113.182 Y115.41 E51.34108
G1 X112.918 Y115.272 E51.35099
G1 X112.649 Y114.964 E51.36459
G1 X112.539 Y114.666 E51.37516
G1 X112.537 Y98.461 E51.91414
G1 X108.461 Y98.461 E52.04971
G1 X108.462 Y136.538 E53.31615
G1 F2700 E48.31615
G0 F7500 X108.201 Y136.538
G0 X111.052 Y136.7
G0 X113.096 Y132.173
G0 X112.994 Y132.327
G1 F2700 E53.31615
G1 F1350 X112.701 Y132.034 E53.32994
G1 X112.565 Y131.74 E53.34071
G1 X112.538 Y131.529 E53.34778
G1 X112.537 Y120.324 E53.72046
G1 X112.672 Y120.01 E53.73183
G1 X112.92 Y119.727 E53.74435
G1 X113.132 Y119.61 E53.7524
G1 X113.389 Y119.544 E53.76123
G1 X122.524 Y119.54 E54.06506
G1 X122.807 Y119.589 E54.07461
G1 X122.996 Y119.676 E54.08153
G1 X123.241 Y119.875 E54.09203
G1 X123.402 Y120.155 E54.10277
G1 X123.459 Y120.463 E54.11319
G1 X123.46 Y131.631 E54.48464
G1 X123.386 Y131.874 E54.49309
G1 X123.241 Y132.124 E54.5027
G1 X123.019 Y132.313 E54.5124
G1 X122.752 Y132.431 E54.52211
G1 X122.525 Y132.462 E54.52973
G1 X113.476 Y132.462 E54.8307
G1 X113.263 Y132.434 E54.83784
G1 X112.994 Y132.327 E54.84747
G1 F2700 E49.84747
G0 F7500 X113.137 Y132.105
G0 X122.502 Y132.284
G0 X126.7 Y132.284
G0 X126.338 Y136.139
G1 F2700 E54.84747
G1 F1350 X126.138 Y136.339 E54.85688
G0 F7500 X125.572 Y136.339
G1 F1350 X126.338 Y135.573 E54.89291
G0 F7500 X126.338 Y135.007
G1 F1350 X125.007 Y136.339 E54.95554
G0 F7500 X124.441 Y136.339
G1 F1350 X126.338 Y134.442 E55.04477
G0 F7500 X126.338 Y133.876
G1 F1350 X123.875 Y136.339 E55.16062
G0 F7500 X123.31 Y136.339
G1 F1350 X126.338 Y133.31 E55.30307
G0 F7500 X126.338 Y132.745
G1 F1350 X122.744 Y136.339 E55.47212
G0 F7500 X122.178 Y136.339
G1 F1350 X126.338 Y132.179 E55.6678
G0 F7500 X126.338 Y131.613
G1 F1350 X121.613 Y136.339 E55.89007
G0 F7500 X121.047 Y136.339
G1 F1350 X126.338 Y131.048 E56.13894
G0 F7500 X126.338 Y130.482
G1 F1350 X120.481 Y136.339 E56.41444
G0 F7500 X119.916 Y136.338
G1 F1350 X126.338 Y129.916 E56.71651
G0 F7500 X126.338 Y129.351
G1 F1350 X119.351 Y136.338 E57.04515
G0 F7500 X118.785 Y136.338
G1 F1350 X122.464 Y132.659 E57.2182
G0 F7500 X121.898 Y132.659
G1 F1350 X118.219 Y136.338 E57.39125
G0 F7500 X117.654 Y136.338
G1 F1350 X121.333 Y132.659 E57.5643
G0 F7500 X120.767 Y132.659
G1 F1350 X117.088 Y136.338 E57.73735
G0 F7500 X116.522 Y136.338
G1 F1350 X120.201 Y132.659 E57.9104
G0 F7500 X119.636 Y132.659
G1 F1350 X115.957 Y136.338 E58.08345
G0 F7500 X115.391 Y136.338
G1 F1350 X119.07 Y132.659 E58.2565
G0 F7500 X118.504 Y132.659
G1 F1350 X114.825 Y136.338 E58.42955
G0 F7500 X114.26 Y136.337
G1 F1350 X117.939 Y132.659 E58.60257
G0 F7500 X117.373 Y132.659
G1 F1350 X113.694 Y136.337 E58.7756
G0 F7500 X113.129 Y136.337
G1 F1350 X116.807 Y132.659 E58.9486
G0 F7500 X116.241 Y132.659
G1 F1350 X112.563 Y136.337 E59.1216
G0 F7500 X111.997 Y136.337
G1 F1350 X115.676 Y132.659 E59.29463
G0 F7500 X115.11 Y132.659
G1 F1350 X111.432 Y136.337 E59.46763
G0 F7500 X110.866 Y136.337
G1 F1350 X114.544 Y132.659 E59.64063
G0 F7500 X113.979 Y132.659
G1 F1350 X110.3 Y136.337 E59.81365
G0 F7500 X109.735 Y136.337
G1 F1350 X113.418 Y132.654 E59.98689
G0 F7500 X112.975 Y132.532
G1 F1350 X109.169 Y136.337 E60.16589
G0 F7500 X108.662 Y136.279
G1 F1350 X112.664 Y132.277 E60.35413
G0 F7500 X112.432 Y131.943
G1 F1350 X108.662 Y135.713 E60.53146
G0 F7500 X108.662 Y135.147
G1 F1350 X112.338 Y131.471 E60.70437
G0 F7500 X112.338 Y130.905
G1 F1350 X108.662 Y134.582 E60.8773
G0 F7500 X108.662 Y134.016
G1 F1350 X112.338 Y130.34 E61.05021
G0 F7500 X112.338 Y129.774
G1 F1350 X108.662 Y133.45 E61.22312
G0 F7500 X108.662 Y132.885
G1 F1350 X112.338 Y129.208 E61.39605
G0 F7500 X112.338 Y128.643
G1 F1350 X108.662 Y132.319 E61.56896
G0 F7500 X108.662 Y131.753
G1 F1350 X112.338 Y128.078 E61.74184
G0 F7500 X112.338 Y127.512
G1 F1350 X108.662 Y131.188 E61.91475
G0 F7500 X108.662 Y130.622
G1 F1350 X112.338 Y126.946 E62.08765
G0 F7500 X112.338 Y126.381
G1 F1350 X108.662 Y130.056 E62.26054
G0 F7500 X108.662 Y129.491
G1 F1350 X112.337 Y125.816 E62.4334
G0 F7500 X112.337 Y125.25
G1 F1350 X108.662 Y128.925 E62.60626
G0 F7500 X108.662 Y128.359
G1 F1350 X112.337 Y124.684 E62.77912
G0 F7500 X112.337 Y124.119
G1 F1350 X108.662 Y127.793 E62.95196
G0 F7500 X108.662 Y127.228
G1 F1350 X112.337 Y123.553 E63.12482
G0 F7500 X112.336 Y122.988
G1 F1350 X108.662 Y126.662 E63.29763
G0 F7500 X108.662 Y126.096
G1 F1350 X112.336 Y122.422 E63.47045
G0 F7500 X112.336 Y121.857
G1 F1350 X108.662 Y125.531 E63.64326
G0 F7500 X108.662 Y124.965
G1 F1350 X112.336 Y121.291 E63.81607
G0 F7500 X112.336 Y120.725
G1 F1350 X108.662 Y124.399 E63.98889
G0 F7500 X108.662 Y123.834
G1 F1350 X112.437 Y120.059 E64.16645
G0 F7500 X113.084 Y119.412
G1 F1350 X116.833 Y115.662 E64.34282
G0 F7500 X116.268 Y115.662
G1 F1350 X108.661 Y123.269 E64.70063
G0 F7500 X108.661 Y122.703
G1 F1350 X115.702 Y115.662 E65.03181
G0 F7500 X115.136 Y115.662
G1 F1350 X108.661 Y122.137 E65.33638
G0 F7500 X108.661 Y121.572
G1 F1350 X114.571 Y115.662 E65.61437
G0 F7500 X114.005 Y115.662
G1 F1350 X108.661 Y121.006 E65.86573
G0 F7500 X108.661 Y120.44
G1 F1350 X113.446 Y115.656 E66.09078
G0 F7500 X112.994 Y115.541
G1 F1350 X108.661 Y119.875 E66.29461
G0 F7500 X108.661 Y119.309
G1 F1350 X112.671 Y115.299 E66.48323
G0 F7500 X112.437 Y114.967
G1 F1350 X108.661 Y118.743 E66.66084
G0 F7500 X108.661 Y118.178
G1 F1350 X112.34 Y114.498 E66.83392
G0 F7500 X112.34 Y113.933
G1 F1350 X108.661 Y117.612 E67.00697
G0 F7500 X108.661 Y117.046
G1 F1350 X112.34 Y113.367 E67.18001
G0 F7500 X112.34 Y112.801
G1 F1350 X108.661 Y116.48 E67.35306
G0 F7500 X108.661 Y115.915
G1 F1350 X112.34 Y112.236 E67.52611
G0 F7500 X112.34 Y111.671
G1 F1350 X108.661 Y115.349 E67.69914
G0 F7500 X108.661 Y114.783
G1 F1350 X112.34 Y111.105 E67.87216
G0 F7500 X112.34 Y110.539
G1 F1350 X108.661 Y114.218 E68.04521
G0 F7500 X108.661 Y113.652
G1 F1350 X112.339 Y109.974 E68.21821
G0 F7500 X112.339 Y109.409
G1 F1350 X108.661 Y113.086 E68.39119
G0 F7500 X108.661 Y112.521
G1 F1350 X112.339 Y108.843 E68.56419
G0 F7500 X112.339 Y108.277
G1 F1350 X108.661 Y111.955 E68.7372
G0 F7500 X108.661 Y111.389
G1 F1350 X112.338 Y107.712 E68.91015
G0 F7500 X112.338 Y107.147
G1 F1350 X108.661 Y110.824 E69.08311
G0 F7500 X108.661 Y110.259
G1 F1350 X112.338 Y106.581 E69.25608
G0 F7500 X112.338 Y106.015
G1 F1350 X108.661 Y109.693 E69.42906
G0 F7500 X108.661 Y109.127
G1 F1350 X112.338 Y105.45 E69.60202
G0 F7500 X112.338 Y104.885
G1 F1350 X108.661 Y108.562 E69.77497
G0 F7500 X108.661 Y107.996
G1 F1350 X112.338 Y104.319 E69.94793
G0 F7500 X112.338 Y103.753
G1 F1350 X108.661 Y107.43 E70.12088
G0 F7500 X108.661 Y106.865
G1 F1350 X112.337 Y103.188 E70.29381
G0 F7500 X112.337 Y102.623
G1 F1350 X108.661 Y106.299 E70.46672
G0 F7500 X108.661 Y105.733
G1 F1350 X112.337 Y102.057 E70.63963
G0 F7500 X112.337 Y101.491
G1 F1350 X108.661 Y105.167 E70.81254
G0 F7500 X108.661 Y104.602
G1 F1350 X112.336 Y100.926 E70.98542
G0 F7500 X112.336 Y100.361
G1 F1350 X108.661 Y104.036 E71.15828
G0 F7500 X108.661 Y103.47
G1 F1350 X112.336 Y99.795 E71.33114
G0 F7500 X112.336 Y99.229
G1 F1350 X108.661 Y102.905 E71.50403
G0 F7500 X108.661 Y102.339
G1 F1350 X112.336 Y98.664 E71.67689
G0 F7500 X111.774 Y98.66
G1 F1350 X108.661 Y101.773 E71.82331
G0 F7500 X108.661 Y101.208
G1 F1350 X111.208 Y98.66 E71.94314
G0 F7500 X110.643 Y98.66
G1 F1350 X108.661 Y100.642 E72.03637
G0 F7500 X108.661 Y100.076
G1 F1350 X110.077 Y98.66 E72.10297
G0 F7500 X109.511 Y98.66
G1 F1350 X108.661 Y99.511 E72.14298
G0 F7500 X108.661 Y98.945
G1 F1350 X108.946 Y98.66 E72.15638
G0 F7500 X108.946 Y98.201
G0 X112.725 Y98.273
G0 X113.069 Y114.931
G0 X117.399 Y115.204
G0 X117.399 Y115.662
G1 F1350 X113.719 Y119.343 E72.3295
G0 F7500 X114.284 Y119.343
G1 F1350 X117.965 Y115.662 E72.50264
G0 F7500 X118.53 Y115.662
G1 F1350 X114.851 Y119.342 E72.67572
G0 F7500 X115.416 Y119.342
G1 F1350 X119.096 Y115.662 E72.84881
G0 F7500 X119.662 Y115.662
G1 F1350 X115.983 Y119.341 E73.02186
G0 F7500 X116.548 Y119.341
G1 F1350 X120.227 Y115.662 E73.19491
G0 F7500 X120.793 Y115.662
G1 F1350 X117.115 Y119.341 E73.36793
G0 F7500 X117.68 Y119.341
G1 F1350 X121.359 Y115.662 E73.54098
G0 F7500 X121.925 Y115.662
G1 F1350 X118.247 Y119.34 E73.71399
G0 F7500 X118.813 Y119.34
G1 F1350 X122.49 Y115.662 E73.88696
G0 F7500 X123.056 Y115.662
G1 F1350 X119.379 Y119.339 E74.05992
G0 F7500 X119.945 Y119.339
G1 F1350 X123.622 Y115.662 E74.23287
G0 F7500 X124.187 Y115.662
G1 F1350 X120.511 Y119.339 E74.4058
G0 F7500 X121.077 Y119.339
G1 F1350 X124.753 Y115.662 E74.57874
G0 F7500 X125.319 Y115.662
G1 F1350 X121.643 Y119.338 E74.75164
G0 F7500 X122.209 Y119.338
G1 F1350 X125.884 Y115.662 E74.92453
G0 F7500 X126.338 Y115.774
G1 F1350 X122.742 Y119.37 E75.09367
G0 F7500 X123.143 Y119.535
G1 F1350 X126.338 Y116.34 E75.24396
G0 F7500 X126.338 Y116.905
G1 F1350 X123.433 Y119.81 E75.3806
G0 F7500 X123.613 Y120.196
G1 F1350 X126.338 Y117.471 E75.50877
G0 F7500 X126.338 Y118.037
G1 F1350 X123.66 Y120.715 E75.63474
G0 F7500 X123.66 Y121.28
G1 F1350 X126.338 Y118.603 E75.76068
G0 F7500 X126.338 Y119.168
G1 F1350 X123.66 Y121.846 E75.88665
G0 F7500 X123.66 Y122.412
G1 F1350 X126.338 Y119.734 E76.01261
G0 F7500 X126.338 Y120.3
G1 F1350 X123.66 Y122.978 E76.13857
G0 F7500 X123.66 Y123.544
G1 F1350 X126.338 Y120.865 E76.26456
G0 F7500 X126.338 Y121.431
G1 F1350 X123.66 Y124.109 E76.39053
G0 F7500 X123.659 Y124.676
G1 F1350 X126.338 Y121.997 E76.51654
G0 F7500 X126.338 Y122.562
G1 F1350 X123.659 Y125.242 E76.64258
G0 F7500 X123.659 Y125.807
G1 F1350 X126.338 Y123.128 E76.76859
G0 F7500 X126.338 Y123.694
G1 F1350 X123.658 Y126.374 E76.89465
G0 F7500 X123.658 Y126.939
G1 F1350 X126.338 Y124.259 E77.02071
G0 F7500 X126.338 Y124.825
G1 F1350 X123.658 Y127.505 E77.14676
G0 F7500 X123.658 Y128.071
G1 F1350 X126.338 Y125.391 E77.27282
G0 F7500 X126.338 Y125.956
G1 F1350 X123.658 Y128.637 E77.39891
G0 F7500 X123.658 Y129.203
G1 F1350 X126.338 Y126.522 E77.52499
G0 F7500 X126.338 Y127.088
G1 F1350 X123.658 Y129.768 E77.65105
G0 F7500 X123.657 Y130.335
G1 F1350 X126.338 Y127.653 E77.77718
G0 F7500 X126.338 Y128.219
G1 F1350 X123.657 Y130.901 E77.90331
G0 F7500 X123.657 Y131.466
G1 F1350 X126.338 Y128.785 E78.02941
G1 F2700 E73.02941
;MESH:NONMESH
G0 F300 X126.338 Y128.785 Z0.6
G0 F7500 X126.8 Y128.785
G0 X126.7 Y132.019
G0 X123.233 Y131.78
G0 X113.189 Y132.019
;TIME_ELAPSED:145.383801
;LAYER:2
M106 S170
;TYPE:WALL-INNER
;MESH:LETRA P.stl
G1 F2700 E78.02941
G1 F1500 X112.981 Y131.811 E78.0392
G1 X112.897 Y131.503 E78.04981
G1 X112.897 Y120.397 E78.4192
G1 X112.967 Y120.215 E78.42569
G1 X113.136 Y120.018 E78.43432
G1 X113.444 Y119.9 E78.44529
G1 X122.621 Y119.898 E78.75052
G1 X122.825 Y119.991 E78.75798
G1 X122.961 Y120.11 E78.76399
G1 X123.064 Y120.285 E78.77074
G1 X123.102 Y120.498 E78.77794
G1 X123.102 Y131.578 E79.14646
G1 X122.961 Y131.891 E79.15788
G1 X122.824 Y132.01 E79.16391
G1 X122.606 Y132.095 E79.17169
G1 X122.502 Y132.103 E79.17516
G1 X113.385 Y132.103 E79.4784
G1 X113.189 Y132.019 E79.48549
G0 F9000 X113.355 Y131.645
;TYPE:WALL-OUTER
G1 F1500 X113.299 Y131.538 E79.48951
G1 X113.297 Y120.464 E79.85783
G1 X113.376 Y120.338 E79.86277
G1 X113.479 Y120.298 E79.86645
G1 X122.543 Y120.298 E80.16792
G1 X122.655 Y120.368 E80.17231
G1 X122.702 Y120.447 E80.17537
G1 X122.7 Y131.538 E80.54426
G1 X122.655 Y131.633 E80.54775
G1 X122.537 Y131.701 E80.55228
G1 X113.454 Y131.703 E80.85439
G1 X113.355 Y131.645 E80.8582
G1 F2700 E75.8582
G0 F9000 X112.997 Y131.645
G0 X112.945 Y132.055
G0 X108.301 Y133.987
G0 X108.101 Y136.899
;TYPE:WALL-INNER
G1 F2700 E80.8582
G1 F1500 X126.9 Y136.9 E81.48346
G1 X126.9 Y117.755 E82.12022
G1 X126.9 Y115.103 E82.20843
G1 X113.497 Y115.104 E82.65422
G1 X113.286 Y115.066 E82.66135
G1 X113.136 Y114.984 E82.66703
G1 X112.967 Y114.786 E82.67569
G1 X112.897 Y114.604 E82.68218
G1 X112.897 Y98.101 E83.23107
G1 X108.101 Y98.101 E83.39058
G1 X108.101 Y136.899 E84.68101
G0 F9000 X107.701 Y137.299
;TYPE:WALL-OUTER
G1 F1500 X127.3 Y137.3 E85.33288
G1 X127.3 Y117.755 E85.98295
G1 X127.3 Y114.703 E86.08446
G1 X113.479 Y114.703 E86.54414
G1 X113.376 Y114.664 E86.54781
G1 X113.299 Y114.538 E86.55272
G1 X113.297 Y97.701 E87.11272
G1 X107.701 Y97.701 E87.29884
G1 X107.701 Y137.299 E88.61588
G0 F9000 X107.97 Y137.03
G0 X108.201 Y136.538
G0 X108.462 Y136.538
;TYPE:SKIN
G1 F1500 X126.54 Y136.54 E89.21715
G1 X126.54 Y117.755 E89.84195
G1 X126.54 Y115.463 E89.91818
G1 X113.492 Y115.464 E90.35216
G1 X113.182 Y115.41 E90.36262
G1 X112.918 Y115.272 E90.37253
G1 X112.649 Y114.964 E90.38613
G1 X112.539 Y114.666 E90.3967
G1 X112.537 Y98.461 E90.93568
G1 X108.461 Y98.461 E91.07125
G1 X108.462 Y136.538 E92.33769
G1 F2700 E87.33769
G0 F9000 X108.201 Y136.538
G0 X111.052 Y136.7
G0 X113.096 Y132.173
G0 X112.994 Y132.327
G1 F2700 E92.33769
G1 F1500 X112.701 Y132.034 E92.35147
G1 X112.565 Y131.74 E92.36225
G1 X112.538 Y131.529 E92.36932
G1 X112.537 Y120.324 E92.742
G1 X112.672 Y120.01 E92.75337
G1 X112.92 Y119.727 E92.76589
G1 X113.132 Y119.61 E92.77394
G1 X113.389 Y119.544 E92.78276
G1 X122.524 Y119.54 E93.0866
G1 X122.807 Y119.589 E93.09615
G1 X122.996 Y119.676 E93.10307
G1 X123.241 Y119.875 E93.11357
G1 X123.402 Y120.155 E93.12431
G1 X123.459 Y120.463 E93.13473
G1 X123.46 Y131.631 E93.50618
G1 X123.386 Y131.874 E93.51463
G1 X123.241 Y132.124 E93.52424
G1 X123.019 Y132.313 E93.53394
G1 X122.752 Y132.431 E93.54364
G1 X122.525 Y132.462 E93.55126
G1 X113.476 Y132.462 E93.85224
G1 X113.263 Y132.434 E93.85938
G1 X112.994 Y132.327 E93.86901
G1 F2700 E88.86901
G0 F9000 X113.137 Y132.105
G0 X111.013 Y136.699
G0 X109.184 Y136.337
G1 F2700 E93.86901
G1 F1500 X108.661 Y135.814 E93.89361
G0 F9000 X108.661 Y135.249
G1 F1500 X109.75 Y136.337 E93.94481
G0 F9000 X110.315 Y136.337
G1 F1500 X108.661 Y134.683 E94.02261
G0 F9000 X108.661 Y134.117
G1 F1500 X110.881 Y136.337 E94.12703
G0 F9000 X111.447 Y136.337
G1 F1500 X108.661 Y133.551 E94.25808
G0 F9000 X108.661 Y132.986
G1 F1500 X112.012 Y136.337 E94.4157
G0 F9000 X112.578 Y136.337
G1 F1500 X108.661 Y132.42 E94.59994
G0 F9000 X108.661 Y131.854
G1 F1500 X113.144 Y136.337 E94.81081
G0 F9000 X113.709 Y136.337
G1 F1500 X108.661 Y131.289 E95.04825
G0 F9000 X108.661 Y130.723
G1 F1500 X114.275 Y136.337 E95.31231
G0 F9000 X114.841 Y136.337
G1 F1500 X108.661 Y130.157 E95.603
G0 F9000 X108.661 Y129.592
G1 F1500 X115.407 Y136.337 E95.92029
G0 F9000 X115.973 Y136.337
G1 F1500 X108.661 Y129.026 E96.2642
G0 F9000 X108.661 Y128.46
G1 F1500 X116.538 Y136.337 E96.63471
G0 F9000 X117.104 Y136.337
G1 F1500 X113.422 Y132.656 E96.80788
G0 F9000 X113.991 Y132.659
G1 F1500 X117.67 Y136.337 E96.9809
G0 F9000 X118.236 Y136.337
G1 F1500 X114.557 Y132.659 E97.15393
G0 F9000 X115.123 Y132.659
G1 F1500 X118.801 Y136.337 E97.32693
G0 F9000 X119.367 Y136.337
G1 F1500 X115.689 Y132.659 E97.49993
G0 F9000 X116.254 Y132.659
G1 F1500 X119.933 Y136.337 E97.67296
G0 F9000 X120.499 Y136.338
G1 F1500 X116.82 Y132.659 E97.84601
G0 F9000 X117.386 Y132.659
G1 F1500 X121.065 Y136.338 E98.01905
G0 F9000 X121.63 Y136.338
G1 F1500 X117.951 Y132.659 E98.1921
G0 F9000 X118.517 Y132.659
G1 F1500 X122.196 Y136.338 E98.36515
G0 F9000 X122.762 Y136.338
G1 F1500 X119.083 Y132.659 E98.5382
G0 F9000 X119.648 Y132.659
G1 F1500 X123.327 Y136.338 E98.71125
G0 F9000 X123.893 Y136.338
G1 F1500 X120.214 Y132.659 E98.8843
G0 F9000 X120.78 Y132.659
G1 F1500 X124.459 Y136.338 E99.05735
G0 F9000 X125.024 Y136.338
G1 F1500 X121.345 Y132.659 E99.2304
G0 F9000 X121.911 Y132.659
G1 F1500 X125.59 Y136.338 E99.40345
G0 F9000 X126.156 Y136.338
G1 F1500 X122.477 Y132.659 E99.57649
G0 F9000 X122.949 Y132.566
G1 F1500 X126.339 Y135.956 E99.73595
G0 F9000 X126.339 Y135.39
G1 F1500 X123.292 Y132.343 E99.87927
G0 F9000 X123.532 Y132.017
G1 F1500 X126.339 Y134.824 E100.0113
G0 F9000 X126.339 Y134.259
G1 F1500 X123.656 Y131.576 E100.1375
G0 F9000 X123.656 Y131.01
G1 F1500 X126.339 Y133.693 E100.2637
G0 F9000 X126.339 Y133.127
G1 F1500 X123.656 Y130.444 E100.3899
G0 F9000 X123.656 Y129.879
G1 F1500 X126.339 Y132.562 E100.5161
G0 F9000 X126.339 Y131.996
G1 F1500 X123.657 Y129.314 E100.64226
G0 F9000 X123.657 Y128.748
G1 F1500 X126.339 Y131.43 E100.76841
G0 F9000 X126.339 Y130.864
G1 F1500 X123.657 Y128.182 E100.89456
G0 F9000 X123.658 Y127.617
G1 F1500 X126.339 Y130.299 E101.02069
G0 F9000 X126.339 Y129.733
G1 F1500 X123.658 Y127.052 E101.1468
G0 F9000 X123.658 Y126.486
G1 F1500 X126.339 Y129.167 E101.27291
G0 F9000 X126.339 Y128.602
G1 F1500 X123.658 Y125.921 E101.39901
G0 F9000 X123.658 Y125.355
G1 F1500 X126.339 Y128.036 E101.52512
G0 F9000 X126.339 Y127.47
G1 F1500 X123.658 Y124.79 E101.6512
G0 F9000 X123.658 Y124.224
G1 F1500 X126.339 Y126.905 E101.77731
G0 F9000 X126.339 Y126.339
G1 F1500 X123.659 Y123.659 E101.90336
G0 F9000 X123.659 Y123.093
G1 F1500 X126.339 Y125.773 E102.02942
G0 F9000 X126.339 Y125.208
G1 F1500 X123.659 Y122.528 E102.15548
G0 F9000 X123.66 Y121.963
G1 F1500 X126.339 Y124.642 E102.28149
G0 F9000 X126.339 Y124.076
G1 F1500 X123.66 Y121.397 E102.40751
G0 F9000 X123.66 Y120.831
G1 F1500 X126.339 Y123.511 E102.53354
G0 F9000 X126.339 Y122.945
G1 F1500 X123.617 Y120.223 E102.66158
G0 F9000 X123.165 Y120.303
G0 X122.701 Y119.827
G0 X122.767 Y119.373
G1 F1500 X119.057 Y115.663 E102.83608
G0 F9000 X118.492 Y115.663
G1 F1500 X122.166 Y119.337 E103.0089
G0 F9000 X121.6 Y119.337
G1 F1500 X117.926 Y115.663 E103.18171
G0 F9000 X117.36 Y115.663
G1 F1500 X121.035 Y119.338 E103.35457
G0 F9000 X120.469 Y119.338
G1 F1500 X116.794 Y115.663 E103.52743
G0 F9000 X116.229 Y115.663
G1 F1500 X119.904 Y119.339 E103.70032
G0 F9000 X119.339 Y119.339
G1 F1500 X115.663 Y115.663 E103.87322
G0 F9000 X115.097 Y115.663
G1 F1500 X118.774 Y119.339 E104.04616
G0 F9000 X118.208 Y119.339
G1 F1500 X114.532 Y115.663 E104.21906
G0 F9000 X113.966 Y115.663
G1 F1500 X117.643 Y119.34 E104.39202
G0 F9000 X117.077 Y119.34
G1 F1500 X113.383 Y115.646 E104.56577
G0 F9000 X113.579 Y115.204
G0 X113.166 Y114.984
G0 X112.803 Y114.569
G0 X112.341 Y114.604
G1 F1500 X108.66 Y110.923 E104.73892
G0 F9000 X108.66 Y110.357
G1 F1500 X112.341 Y114.038 E104.91206
G0 F9000 X112.341 Y113.472
G1 F1500 X108.66 Y109.791 E105.0852
G0 F9000 X108.66 Y109.226
G1 F1500 X112.341 Y112.907 E105.25834
G0 F9000 X112.34 Y112.34
G1 F1500 X108.66 Y108.66 E105.43144
G0 F9000 X108.66 Y108.094
G1 F1500 X112.34 Y111.775 E105.60456
G0 F9000 X112.34 Y111.209
G1 F1500 X108.66 Y107.529 E105.77766
G0 F9000 X108.66 Y106.963
G1 F1500 X112.34 Y110.643 E105.95075
G0 F9000 X112.34 Y110.077
G1 F1500 X108.66 Y106.397 E106.12385
G0 F9000 X108.66 Y105.831
G1 F1500 X112.34 Y109.511 E106.29694
G0 F9000 X112.34 Y108.946
G1 F1500 X108.66 Y105.266 E106.47004
G0 F9000 X108.66 Y104.7
G1 F1500 X112.34 Y108.38 E106.64314
G0 F9000 X112.339 Y107.813
G1 F1500 X108.66 Y104.134 E106.81618
G0 F9000 X108.66 Y103.569
G1 F1500 X112.339 Y107.248 E106.98923
G0 F9000 X112.339 Y106.682
G1 F1500 X108.66 Y103.003 E107.16228
G0 F9000 X108.66 Y102.437
G1 F1500 X112.339 Y106.116 E107.33533
G0 F9000 X112.339 Y105.551
G1 F1500 X108.66 Y101.872 E107.50838
G0 F9000 X108.66 Y101.306
G1 F1500 X112.338 Y104.984 E107.68138
G0 F9000 X112.338 Y104.419
G1 F1500 X108.66 Y100.74 E107.85441
G0 F9000 X108.66 Y100.175
G1 F1500 X112.338 Y103.853 E108.02741
G0 F9000 X112.338 Y103.287
G1 F1500 X108.66 Y99.609 E108.20041
G0 F9000 X108.66 Y99.043
G1 F1500 X112.338 Y102.721 E108.37341
G0 F9000 X112.338 Y102.155
G1 F1500 X108.843 Y98.661 E108.53778
G0 F9000 X109.409 Y98.661
G1 F1500 X112.338 Y101.59 E108.67555
G0 F9000 X112.338 Y101.024
G1 F1500 X109.974 Y98.661 E108.78673
G0 F9000 X110.54 Y98.661
G1 F1500 X112.337 Y100.457 E108.87123
G0 F9000 X112.337 Y99.892
G1 F1500 X111.106 Y98.661 E108.92913
G0 F9000 X111.671 Y98.661
G1 F1500 X112.337 Y99.326 E108.96043
G0 F9000 X112.337 Y98.76
G1 F1500 X112.237 Y98.661 E108.96511
G0 F9000 X112.237 Y98.201
G0 X108.273 Y98.273
G0 X108.201 Y111.489
G0 X108.661 Y111.489
G1 F1500 X116.512 Y119.341 E109.33442
G0 F9000 X115.947 Y119.341
G1 F1500 X108.661 Y112.055 E109.67714
G0 F9000 X108.661 Y112.62
G1 F1500 X115.382 Y119.341 E109.99327
G0 F9000 X114.816 Y119.341
G1 F1500 X108.661 Y113.186 E110.28278
G0 F9000 X108.661 Y113.752
G1 F1500 X114.251 Y119.342 E110.54572
G0 F9000 X113.685 Y119.342
G1 F1500 X108.661 Y114.317 E110.78206
G0 F9000 X108.661 Y114.883
G1 F1500 X113.168 Y119.391 E110.99408
G0 F9000 X112.785 Y119.573
G1 F1500 X108.661 Y115.449 E111.18806
G0 F9000 X108.661 Y116.015
G1 F1500 X112.522 Y119.876 E111.36967
G0 F9000 X112.353 Y120.273
G1 F1500 X108.661 Y116.58 E111.54335
G0 F9000 X108.661 Y117.146
G1 F1500 X112.337 Y120.822 E111.71626
G0 F9000 X112.337 Y121.388
G1 F1500 X108.661 Y117.712 E111.88916
G0 F9000 X108.661 Y118.277
G1 F1500 X112.337 Y121.953 E112.06207
G0 F9000 X112.337 Y122.519
G1 F1500 X108.661 Y118.843 E112.23498
G0 F9000 X108.661 Y119.409
G1 F1500 X112.337 Y123.085 E112.40789
G0 F9000 X112.338 Y123.651
G1 F1500 X108.661 Y119.974 E112.58084
G0 F9000 X108.661 Y120.54
G1 F1500 X112.338 Y124.217 E112.7538
G0 F9000 X112.338 Y124.783
G1 F1500 X108.661 Y121.106 E112.92675
G0 F9000 X108.661 Y121.671
G1 F1500 X112.338 Y125.348 E113.09971
G0 F9000 X112.338 Y125.914
G1 F1500 X108.661 Y122.237 E113.27266
G0 F9000 X108.661 Y122.803
G1 F1500 X112.338 Y126.48 E113.44562
G0 F9000 X112.338 Y127.046
G1 F1500 X108.661 Y123.368 E113.6186
G0 F9000 X108.661 Y123.935
G1 F1500 X112.338 Y127.612 E113.79155
G0 F9000 X112.338 Y128.177
G1 F1500 X108.661 Y124.5 E113.9645
G0 F9000 X108.661 Y125.066
G1 F1500 X112.338 Y128.743 E114.13746
G0 F9000 X112.339 Y129.31
G1 F1500 X108.661 Y125.632 E114.31046
G0 F9000 X108.661 Y126.198
G1 F1500 X112.339 Y129.875 E114.48344
G0 F9000 X112.339 Y130.441
G1 F1500 X108.661 Y126.763 E114.65644
G0 F9000 X108.661 Y127.329
G1 F1500 X112.339 Y131.007 E114.82944
G0 F9000 X112.342 Y131.575
G1 F1500 X108.661 Y127.895 E115.00256
G1 F2700 E110.00256
G0 F9000 X108.201 Y127.895
G0 X108.273 Y136.727
G0 X126.728 Y136.728
G0 X126.728 Y115.275
G0 X119.623 Y115.204
G1 F2700 E115.00256
G0 F9000 X119.623 Y115.663
G1 F1500 X126.339 Y122.379 E115.31846
G0 F9000 X126.339 Y121.813
G1 F1500 X120.189 Y115.663 E115.60774
G0 F9000 X120.754 Y115.663
G1 F1500 X126.339 Y121.248 E115.87044
G0 F9000 X126.339 Y120.682
G1 F1500 X121.32 Y115.663 E116.10652
G0 F9000 X121.886 Y115.663
G1 F1500 X126.339 Y120.116 E116.31598
G0 F9000 X126.339 Y119.551
G1 F1500 X122.451 Y115.663 E116.49885
G0 F9000 X123.017 Y115.663
G1 F1500 X126.339 Y118.985 E116.65511
G0 F9000 X126.339 Y118.419
G1 F1500 X123.583 Y115.663 E116.78475
G0 F9000 X124.148 Y115.663
G1 F1500 X126.339 Y117.854 E116.8878
G0 F9000 X126.339 Y117.288
G1 F1500 X124.714 Y115.663 E116.96424
G0 F9000 X125.28 Y115.663
G1 F1500 X126.339 Y116.722 E117.01405
G0 F9000 X126.339 Y116.157
G1 F1500 X125.845 Y115.663 E117.03729
G1 F2700 E112.03729
;MESH:NONMESH
G0 F300 X125.845 Y115.663 Z0.8
G0 F9000 X125.845 Y115.203
G0 X123.375 Y115.303
G0 X122.501 Y119.717
G0 X113.189 Y132.019
;TIME_ELAPSED:209.349178
;LAYER:3
M106 S255
;TYPE:WALL-INNER
;MESH:LETRA P.stl
G1 F2700 E117.03729
G1 F1500 X112.981 Y131.811 E117.04707
G1 X112.897 Y131.503 E117.05769
G1 X112.897 Y120.397 E117.42708
G1 X112.967 Y120.215 E117.43356
G1 X113.136 Y120.018 E117.44219
G1 X113.444 Y119.9 E117.45316
G1 X122.621 Y119.898 E117.75839
G1 X122.825 Y119.991 E117.76585
G1 X122.961 Y120.11 E117.77186
G1 X123.064 Y120.285 E117.77861
G1 X123.102 Y120.498 E117.78581
G1 X123.102 Y131.578 E118.15433
G1 X122.961 Y131.891 E118.16575
G1 X122.824 Y132.01 E118.17179
G1 X122.606 Y132.095 E118.17957
G1 X122.502 Y132.103 E118.18304
G1 X113.385 Y132.103 E118.48627
G1 X113.189 Y132.019 E118.49336
G0 F9000 X113.355 Y131.645
;TYPE:WALL-OUTER
G1 F1500 X113.299 Y131.538 E118.49738
G1 X113.297 Y120.464 E118.8657
G1 X113.376 Y120.338 E118.87065
G1 X113.479 Y120.298 E118.87432
G1 X122.543 Y120.298 E119.17579
G1 X122.655 Y120.368 E119.18019
G1 X122.702 Y120.447 E119.18324
G1 X122.7 Y131.538 E119.55213
G1 X122.655 Y131.633 E119.55563
G1 X122.537 Y131.701 E119.56016
G1 X113.454 Y131.703 E119.86226
G1 X113.355 Y131.645 E119.86608
G1 F2700 E114.86608
G0 F9000 X112.997 Y131.645
G0 X112.945 Y132.055
G0 X108.301 Y133.987
G0 X108.101 Y136.899
;TYPE:WALL-INNER
G1 F2700 E119.86608
G1 F1500 X126.9 Y136.9 E120.49133
G1 X126.9 Y117.755 E121.1281
G1 X126.9 Y115.103 E121.2163
G1 X113.497 Y115.104 E121.66209
G1 X113.286 Y115.066 E121.66922
G1 X113.136 Y114.984 E121.67491
G1 X112.967 Y114.786 E121.68357
G1 X112.897 Y114.604 E121.69005
G1 X112.897 Y98.101 E122.23894
G1 X108.101 Y98.101 E122.39846
G1 X108.101 Y136.899 E123.68888
G0 F9000 X107.701 Y137.299
;TYPE:WALL-OUTER
G1 F1500 X127.3 Y137.3 E124.34075
G1 X127.3 Y117.755 E124.99082
G1 X127.3 Y114.703 E125.09233
G1 X113.479 Y114.703 E125.55202
G1 X113.376 Y114.664 E125.55568
G1 X113.299 Y114.538 E125.56059
G1 X113.297 Y97.701 E126.12059
G1 X107.701 Y97.701 E126.30672
G1 X107.701 Y137.299 E127.62375
G0 F9000 X107.97 Y137.03
G0 X108.201 Y136.538
G0 X108.462 Y136.538
;TYPE:SKIN
G1 F1500 X126.54 Y136.54 E128.22503
G1 X126.54 Y117.755 E128.84982
G1 X126.54 Y115.463 E128.92605
G1 X113.492 Y115.464 E129.36003
G1 X113.182 Y115.41 E129.3705
G1 X112.918 Y115.272 E129.3804
G1 X112.649 Y114.964 E129.39401
G1 X112.539 Y114.666 E129.40457
G1 X112.537 Y98.461 E129.94355
G1 X108.461 Y98.461 E130.07912
G1 X108.462 Y136.538 E131.34557
G1 F2700 E126.34557
G0 F9000 X108.201 Y136.538
G0 X111.052 Y136.7
G0 X113.096 Y132.173
G0 X112.994 Y132.327
G1 F2700 E131.34557
G1 F1500 X112.701 Y132.034 E131.35935
G1 X112.565 Y131.74 E131.37012
G1 X112.538 Y131.529 E131.3772
G1 X112.537 Y120.324 E131.74988
G1 X112.672 Y120.01 E131.76124
G1 X112.92 Y119.727 E131.77376
G1 X113.132 Y119.61 E131.78181
G1 X113.389 Y119.544 E131.79064
G1 X122.524 Y119.54 E132.09447
G1 X122.807 Y119.589 E132.10402
G1 X122.996 Y119.676 E132.11094
G1 X123.241 Y119.875 E132.12144
G1 X123.402 Y120.155 E132.13218
G1 X123.459 Y120.463 E132.1426
G1 X123.46 Y131.631 E132.51405
G1 X123.386 Y131.874 E132.5225
G1 X123.241 Y132.124 E132.53211
G1 X123.019 Y132.313 E132.54181
G1 X122.752 Y132.431 E132.55152
G1 X122.525 Y132.462 E132.55914
G1 X113.476 Y132.462 E132.86011
G1 X113.263 Y132.434 E132.86725
G1 X112.994 Y132.327 E132.87688
G1 F2700 E127.87688
G0 F9000 X113.137 Y132.105
G0 X122.502 Y132.284
G0 X126.7 Y132.284
G0 X126.338 Y136.139
G1 F2700 E132.87688
G1 F1500 X126.138 Y136.339 E132.88629
G0 F9000 X125.572 Y136.339
G1 F1500 X126.338 Y135.573 E132.92232
G0 F9000 X126.338 Y135.007
G1 F1500 X125.007 Y136.339 E132.98495
G0 F9000 X124.441 Y136.339
G1 F1500 X126.338 Y134.442 E133.07418
G0 F9000 X126.338 Y133.876
G1 F1500 X123.875 Y136.339 E133.19003
G0 F9000 X123.31 Y136.339
G1 F1500 X126.338 Y133.31 E133.33248
G0 F9000 X126.338 Y132.745
G1 F1500 X122.744 Y136.339 E133.50153
G0 F9000 X122.178 Y136.339
G1 F1500 X126.338 Y132.179 E133.69721
G0 F9000 X126.338 Y131.613
G1 F1500 X121.613 Y136.339 E133.91948
G0 F9000 X121.047 Y136.339
G1 F1500 X126.338 Y131.048 E134.16835
G0 F9000 X126.338 Y130.482
G1 F1500 X120.481 Y136.339 E134.44385
G0 F9000 X119.916 Y136.338
G1 F1500 X126.338 Y129.916 E134.74592
G0 F9000 X126.338 Y129.351
G1 F1500 X119.351 Y136.338 E135.07457
G0 F9000 X118.785 Y136.338
G1 F1500 X122.464 Y132.659 E135.24762
G0 F9000 X121.898 Y132.659
G1 F1500 X118.219 Y136.338 E135.42066
G0 F9000 X117.654 Y136.338
G1 F1500 X121.333 Y132.659 E135.59371
G0 F9000 X120.767 Y132.659
G1 F1500 X117.088 Y136.338 E135.76676
G0 F9000 X116.522 Y136.338
G1 F1500 X120.201 Y132.659 E135.93981
G0 F9000 X119.636 Y132.659
G1 F1500 X115.957 Y136.338 E136.11286
G0 F9000 X115.391 Y136.338
G1 F1500 X119.07 Y132.659 E136.28591
G0 F9000 X118.504 Y132.659
G1 F1500 X114.825 Y136.338 E136.45896
G0 F9000 X114.26 Y136.337
G1 F1500 X117.939 Y132.659 E136.63198
G0 F9000 X117.373 Y132.659
G1 F1500 X113.694 Y136.337 E136.80501
G0 F9000 X113.129 Y136.337
G1 F1500 X116.807 Y132.659 E136.97801
G0 F9000 X116.241 Y132.659
G1 F1500 X112.563 Y136.337 E137.15101
G0 F9000 X111.997 Y136.337
G1 F1500 X115.676 Y132.659 E137.32404
G0 F9000 X115.11 Y132.659
G1 F1500 X111.432 Y136.337 E137.49704
G0 F9000 X110.866 Y136.337
G1 F1500 X114.544 Y132.659 E137.67004
G0 F9000 X113.979 Y132.659
G1 F1500 X110.3 Y136.337 E137.84307
G0 F9000 X109.735 Y136.337
G1 F1500 X113.418 Y132.654 E138.0163
G0 F9000 X112.975 Y132.532
G1 F1500 X109.169 Y136.337 E138.1953
G0 F9000 X108.662 Y136.279
G1 F1500 X112.664 Y132.277 E138.38354
G0 F9000 X112.432 Y131.943
G1 F1500 X108.662 Y135.713 E138.56087
G0 F9000 X108.662 Y135.147
G1 F1500 X112.338 Y131.471 E138.73378
G0 F9000 X112.338 Y130.905
G1 F1500 X108.662 Y134.582 E138.90671
G0 F9000 X108.662 Y134.016
G1 F1500 X112.338 Y130.34 E139.07962
G0 F9000 X112.338 Y129.774
G1 F1500 X108.662 Y133.45 E139.25253
G0 F9000 X108.662 Y132.885
G1 F1500 X112.338 Y129.208 E139.42546
G0 F9000 X112.338 Y128.643
G1 F1500 X108.662 Y132.319 E139.59837
G0 F9000 X108.662 Y131.753
G1 F1500 X112.338 Y128.078 E139.77125
G0 F9000 X112.338 Y127.512
G1 F1500 X108.662 Y131.188 E139.94416
G0 F9000 X108.662 Y130.622
G1 F1500 X112.338 Y126.946 E140.11707
G0 F9000 X112.338 Y126.381
G1 F1500 X108.662 Y130.056 E140.28995
G0 F9000 X108.662 Y129.491
G1 F1500 X112.337 Y125.816 E140.46281
G0 F9000 X112.337 Y125.25
G1 F1500 X108.662 Y128.925 E140.63567
G0 F9000 X108.662 Y128.359
G1 F1500 X112.337 Y124.684 E140.80853
G0 F9000 X112.337 Y124.119
G1 F1500 X108.662 Y127.793 E140.98137
G0 F9000 X108.662 Y127.228
G1 F1500 X112.337 Y123.553 E141.15423
G0 F9000 X112.336 Y122.988
G1 F1500 X108.662 Y126.662 E141.32705
G0 F9000 X108.662 Y126.096
G1 F1500 X112.336 Y122.422 E141.49986
G0 F9000 X112.336 Y121.857
G1 F1500 X108.662 Y125.531 E141.67267
G0 F9000 X108.662 Y124.965
G1 F1500 X112.336 Y121.291 E141.84549
G0 F9000 X112.336 Y120.725
G1 F1500 X108.662 Y124.399 E142.0183
G0 F9000 X108.662 Y123.834
G1 F1500 X112.437 Y120.059 E142.19586
G0 F9000 X113.084 Y119.412
G1 F1500 X116.833 Y115.662 E142.37223
G0 F9000 X116.268 Y115.662
G1 F1500 X108.661 Y123.269 E142.73004
G0 F9000 X108.661 Y122.703
G1 F1500 X115.702 Y115.662 E143.06123
G0 F9000 X115.136 Y115.662
G1 F1500 X108.661 Y122.137 E143.36579
G0 F9000 X108.661 Y121.572
G1 F1500 X114.571 Y115.662 E143.64378
G0 F9000 X114.005 Y115.662
G1 F1500 X108.661 Y121.006 E143.89514
G0 F9000 X108.661 Y120.44
G1 F1500 X113.446 Y115.656 E144.12019
G0 F9000 X112.994 Y115.541
G1 F1500 X108.661 Y119.875 E144.32403
G0 F9000 X108.661 Y119.309
G1 F1500 X112.671 Y115.299 E144.51265
G0 F9000 X112.437 Y114.967
G1 F1500 X108.661 Y118.743 E144.69026
G0 F9000 X108.661 Y118.178
G1 F1500 X112.34 Y114.498 E144.86333
G0 F9000 X112.34 Y113.933
G1 F1500 X108.661 Y117.612 E145.03638
G0 F9000 X108.661 Y117.046
G1 F1500 X112.34 Y113.367 E145.20943
G0 F9000 X112.34 Y112.801
G1 F1500 X108.661 Y116.48 E145.38248
G0 F9000 X108.661 Y115.915
G1 F1500 X112.34 Y112.236 E145.55552
G0 F9000 X112.34 Y111.671
G1 F1500 X108.661 Y115.349 E145.72855
G0 F9000 X108.661 Y114.783
G1 F1500 X112.34 Y111.105 E145.90158
G0 F9000 X112.34 Y110.539
G1 F1500 X108.661 Y114.218 E146.07462
G0 F9000 X108.661 Y113.652
G1 F1500 X112.339 Y109.974 E146.24763
G0 F9000 X112.339 Y109.409
G1 F1500 X108.661 Y113.086 E146.4206
G0 F9000 X108.661 Y112.521
G1 F1500 X112.339 Y108.843 E146.59361
G0 F9000 X112.339 Y108.277
G1 F1500 X108.661 Y111.955 E146.76661
G0 F9000 X108.661 Y111.389
G1 F1500 X112.338 Y107.712 E146.93956
G0 F9000 X112.338 Y107.147
G1 F1500 X108.661 Y110.824 E147.11252
G0 F9000 X108.661 Y110.259
G1 F1500 X112.338 Y106.581 E147.2855
G0 F9000 X112.338 Y106.015
G1 F1500 X108.661 Y109.693 E147.45847
G0 F9000 X108.661 Y109.127
G1 F1500 X112.338 Y105.45 E147.63143
G0 F9000 X112.338 Y104.885
G1 F1500 X108.661 Y108.562 E147.80438
G0 F9000 X108.661 Y107.996
G1 F1500 X112.338 Y104.319 E147.97734
G0 F9000 X112.338 Y103.753
G1 F1500 X108.661 Y107.43 E148.15029
G0 F9000 X108.661 Y106.865
G1 F1500 X112.337 Y103.188 E148.32322
G0 F9000 X112.337 Y102.623
G1 F1500 X108.661 Y106.299 E148.49613
G0 F9000 X108.661 Y105.733
G1 F1500 X112.337 Y102.057 E148.66904
G0 F9000 X112.337 Y101.491
G1 F1500 X108.661 Y105.167 E148.84195
G0 F9000 X108.661 Y104.602
G1 F1500 X112.336 Y100.926 E149.01483
G0 F9000 X112.336 Y100.361
G1 F1500 X108.661 Y104.036 E149.18769
G0 F9000 X108.661 Y103.47
G1 F1500 X112.336 Y99.795 E149.36055
G0 F9000 X112.336 Y99.229
G1 F1500 X108.661 Y102.905 E149.53344
G0 F9000 X108.661 Y102.339
G1 F1500 X112.336 Y98.664 E149.7063
G0 F9000 X111.774 Y98.66
G1 F1500 X108.661 Y101.773 E149.85272
G0 F9000 X108.661 Y101.208
G1 F1500 X111.208 Y98.66 E149.97255
G0 F9000 X110.643 Y98.66
G1 F1500 X108.661 Y100.642 E150.06578
G0 F9000 X108.661 Y100.076
G1 F1500 X110.077 Y98.66 E150.13238
G0 F9000 X109.511 Y98.66
G1 F1500 X108.661 Y99.511 E150.17239
G0 F9000 X108.661 Y98.945
G1 F1500 X108.946 Y98.66 E150.18579
G0 F9000 X108.946 Y98.201
G0 X112.725 Y98.273
G0 X113.069 Y114.931
G0 X117.399 Y115.204
G0 X117.399 Y115.662
G1 F1500 X113.719 Y119.343 E150.35891
G0 F9000 X114.284 Y119.343
G1 F1500 X117.965 Y115.662 E150.53206
G0 F9000 X118.53 Y115.662
G1 F1500 X114.851 Y119.342 E150.70513
G0 F9000 X115.416 Y119.342
G1 F1500 X119.096 Y115.662 E150.87822
G0 F9000 X119.662 Y115.662
G1 F1500 X115.983 Y119.341 E151.05127
G0 F9000 X116.548 Y119.341
G1 F1500 X120.227 Y115.662 E151.22432
G0 F9000 X120.793 Y115.662
G1 F1500 X117.115 Y119.341 E151.39735
G0 F9000 X117.68 Y119.341
G1 F1500 X121.359 Y115.662 E151.5704
G0 F9000 X121.925 Y115.662
G1 F1500 X118.247 Y119.34 E151.7434
G0 F9000 X118.813 Y119.34
G1 F1500 X122.49 Y115.662 E151.91638
G0 F9000 X123.056 Y115.662
G1 F1500 X119.379 Y119.339 E152.08933
G0 F9000 X119.945 Y119.339
G1 F1500 X123.622 Y115.662 E152.26229
G0 F9000 X124.187 Y115.662
G1 F1500 X120.511 Y119.339 E152.43522
G0 F9000 X121.077 Y119.339
G1 F1500 X124.753 Y115.662 E152.60815
G0 F9000 X125.319 Y115.662
G1 F1500 X121.643 Y119.338 E152.78106
G0 F9000 X122.209 Y119.338
G1 F1500 X125.884 Y115.662 E152.95394
G0 F9000 X126.338 Y115.774
G1 F1500 X122.742 Y119.37 E153.12309
G0 F9000 X123.143 Y119.535
G1 F1500 X126.338 Y116.34 E153.27337
G0 F9000 X126.338 Y116.905
G1 F1500 X123.433 Y119.81 E153.41001
G0 F9000 X123.613 Y120.196
G1 F1500 X126.338 Y117.471 E153.53819
G0 F9000 X126.338 Y118.037
G1 F1500 X123.66 Y120.715 E153.66415
G0 F9000 X123.66 Y121.28
G1 F1500 X126.338 Y118.603 E153.79009
G0 F9000 X126.338 Y119.168
G1 F1500 X123.66 Y121.846 E153.91606
G0 F9000 X123.66 Y122.412
G1 F1500 X126.338 Y119.734 E154.04202
G0 F9000 X126.338 Y120.3
G1 F1500 X123.66 Y122.978 E154.16799
G0 F9000 X123.66 Y123.544
G1 F1500 X126.338 Y120.865 E154.29398
G0 F9000 X126.338 Y121.431
G1 F1500 X123.66 Y124.109 E154.41994
G0 F9000 X123.659 Y124.676
G1 F1500 X126.338 Y121.997 E154.54595
G0 F9000 X126.338 Y122.562
G1 F1500 X123.659 Y125.242 E154.67199
G0 F9000 X123.659 Y125.807
G1 F1500 X126.338 Y123.128 E154.798
G0 F9000 X126.338 Y123.694
G1 F1500 X123.658 Y126.374 E154.92406
G0 F9000 X123.658 Y126.939
G1 F1500 X126.338 Y124.259 E155.05012
G0 F9000 X126.338 Y124.825
G1 F1500 X123.658 Y127.505 E155.17618
G0 F9000 X123.658 Y128.071
G1 F1500 X126.338 Y125.391 E155.30224
G0 F9000 X126.338 Y125.956
G1 F1500 X123.658 Y128.637 E155.42832
G0 F9000 X123.658 Y129.203
G1 F1500 X126.338 Y126.522 E155.5544
G0 F9000 X126.338 Y127.088
G1 F1500 X123.658 Y129.768 E155.68046
G0 F9000 X123.657 Y130.335
G1 F1500 X126.338 Y127.653 E155.80659
G0 F9000 X126.338 Y128.219
G1 F1500 X123.657 Y130.901 E155.93272
G0 F9000 X123.657 Y131.466
G1 F1500 X126.338 Y128.785 E156.05883
G1 F2700 E151.05883
;MESH:NONMESH
G0 F300 X126.338 Y128.785 Z1
G0 F9000 X126.8 Y128.785
G0 X126.7 Y132.019
G0 X123.233 Y131.78
G0 X113.189 Y132.019
;TIME_ELAPSED:271.972894
;LAYER:4
;TYPE:WALL-INNER
;MESH:LETRA P.stl
G1 F2700 E156.05883
G1 F1500 X112.981 Y131.811 E156.06861
G1 X112.897 Y131.503 E156.07923
G1 X112.897 Y120.397 E156.44861
G1 X112.967 Y120.215 E156.4551
G1 X113.136 Y120.018 E156.46373
G1 X113.444 Y119.9 E156.4747
G1 X122.621 Y119.898 E156.77993
G1 X122.825 Y119.991 E156.78739
G1 X122.961 Y120.11 E156.7934
G1 X123.064 Y120.285 E156.80015
G1 X123.102 Y120.498 E156.80735
G1 X123.102 Y131.578 E157.17587
G1 X122.961 Y131.891 E157.18729
G1 X122.824 Y132.01 E157.19332
G1 X122.606 Y132.095 E157.20111
G1 X122.502 Y132.103 E157.20458
G1 X113.385 Y132.103 E157.50781
G1 X113.189 Y132.019 E157.5149
G0 F9000 X113.355 Y131.645
;TYPE:WALL-OUTER
G1 F1500 X113.299 Y131.538 E157.51892
G1 X113.297 Y120.464 E157.88724
G1 X113.376 Y120.338 E157.89219
G1 X113.479 Y120.298 E157.89586
G1 X122.543 Y120.298 E158.19733
G1 X122.655 Y120.368 E158.20172
G1 X122.702 Y120.447 E158.20478
G1 X122.7 Y131.538 E158.57367
G1 X122.655 Y131.633 E158.57717
G1 X122.537 Y131.701 E158.5817
G1 X113.454 Y131.703 E158.8838
G1 X113.355 Y131.645 E158.88761
G0 F9000 X112.597 Y131.645
G0 X108.37 Y136.63
G0 X108.101 Y136.899
;TYPE:WALL-INNER
G1 F1500 X126.9 Y136.9 E159.51287
G1 X126.9 Y117.755 E160.14964
G1 X126.9 Y115.103 E160.23784
G1 X113.497 Y115.104 E160.68363
G1 X113.286 Y115.066 E160.69076
G1 X113.136 Y114.984 E160.69645
G1 X112.967 Y114.786 E160.7051
G1 X112.897 Y114.604 E160.71159
G1 X112.897 Y98.101 E161.26048
G1 X108.101 Y98.101 E161.42
G1 X108.101 Y136.899 E162.71042
G0 F9000 X107.701 Y137.299
;TYPE:WALL-OUTER
G1 F1500 X127.3 Y137.3 E163.36229
G1 X127.3 Y117.755 E164.01236
G1 X127.3 Y114.703 E164.11387
G1 X113.479 Y114.703 E164.57356
G1 X113.376 Y114.664 E164.57722
G1 X113.299 Y114.538 E164.58213
G1 X113.297 Y97.701 E165.14213
G1 X107.701 Y97.701 E165.32826
G1 X107.701 Y137.299 E166.64529
G0 F9000 X107.97 Y137.03
G0 X111.591 Y136.6
G0 X111.591 Y136.818
;TYPE:FILL
G1 F3000 X112.92 Y131.858 E166.81608
G1 X112.939 Y131.876
G1 X108.181 Y133.151 E166.97991
G0 F9000 X108.18 Y132.636
G1 F3000 X112.362 Y136.818 E167.17662
G0 F9000 X112.362 Y136.6
G0 X117.675 Y136.6
G0 X117.675 Y136.819
G1 F3000 X126.819 Y134.369 E167.49148
G1 X126.819 Y134.305
G1 X123.18 Y130.666 E167.66265
G0 F9000 X123.402 Y130.666
G0 X123.402 Y129.132
G0 X123.182 Y129.132
G1 F3000 X126.818 Y128.157 E167.78786
G0 F9000 X126.6 Y128.157
G0 X126.6 Y126.348
G0 X126.819 Y126.348
G1 F3000 X124.014 Y136.819 E168.1484
G0 F9000 X124.014 Y136.6
G0 X120.848 Y136.6
G0 X120.848 Y136.818
G1 F3000 X116.211 Y132.182 E168.36649
G0 F9000 X116.211 Y132.403
G0 X119.045 Y132.403
G0 X119.045 Y132.182
G1 F3000 X117.802 Y136.819 E168.52616
G0 F9000 X117.802 Y136.6
G0 X112.669 Y132.331
G0 X112.597 Y128.788
G0 X112.817 Y128.788
G1 F3000 X108.18 Y124.15 E168.74429
G0 F9000 X108.4 Y124.15
G0 X108.4 Y126.363
G0 X108.181 Y126.363
G1 F3000 X112.816 Y109.063 E169.33999
G0 F9000 X112.597 Y109.063
G0 X112.597 Y107.063
G0 X112.816 Y107.063
G1 F3000 X108.18 Y108.305 E169.49962
G0 F9000 X108.4 Y108.305
G0 X108.4 Y107.18
G0 X108.18 Y107.18
G1 F3000 X112.817 Y111.817 E169.71773
G0 F9000 X112.597 Y111.817
G0 X112.597 Y113.274
G0 X112.815 Y113.274
G1 F3000 X108.18 Y114.516 E169.87733
G0 F9000 X108.4 Y114.516
G0 X108.4 Y115.665
G0 X108.18 Y115.665
G1 F3000 X112.84 Y120.325 E170.09652
G0 F9000 X112.597 Y120.325
G0 X112.669 Y119.67
G0 X116.145 Y119.598
G0 X116.145 Y119.819
G1 F3000 X117.388 Y115.183 E170.25616
G0 F9000 X117.388 Y115.403
G0 X116.182 Y115.403
G0 X116.182 Y115.182
G1 F3000 X120.818 Y119.818 E170.47422
G0 F9000 X120.818 Y119.598
G0 X122.357 Y119.598
G0 X122.357 Y119.818
G1 F3000 X123.6 Y115.181 E170.6339
G0 F9000 X123.6 Y115.403
G0 X124.667 Y115.403
G0 X124.667 Y115.182
G1 F3000 X126.819 Y117.334 E170.73512
G0 F9000 X126.6 Y117.334
G0 X126.6 Y115.734
G0 X126.819 Y115.734
G1 F3000 X108.18 Y120.728 E171.37692
G0 F9000 X108.4 Y120.728
G0 X108.4 Y126.94
G0 X108.18 Y126.94
G1 F3000 X112.816 Y125.698 E171.53655
G0 F9000 X112.597 Y125.698
G0 X112.669 Y119.67
G0 X123.33 Y119.67
G0 X123.402 Y122.92
G0 X123.181 Y122.92
G1 F3000 X126.819 Y121.945 E171.66182
G0 F9000 X126.6 Y121.945
G0 X123.402 Y122.18
G0 X123.18 Y122.18
G1 F3000 X126.819 Y125.819 E171.83299
G1 F2700 E166.83299
G0 F9000 X126.6 Y125.819
G0 X123.33 Y119.67
G0 X112.669 Y115.331
G0 X112.597 Y103.332
G1 F2700 E171.83299
G0 F9000 X112.817 Y103.332
G1 F3000 X108.18 Y98.695 E172.0511
G0 F9000 X108.4 Y98.695
G0 X109.521 Y98.4
G0 X109.521 Y98.179
G1 F3000 X108.18 Y103.183 E172.22341
G0 F9000 X108.4 Y103.183
G0 X108.4 Y102.093
G0 X108.18 Y102.093
G1 F3000 X112.815 Y100.851 E172.38301
G0 F9000 X112.297 Y100.851
G1 F2700 E167.38301
;MESH:NONMESH
G0 F300 X112.297 Y100.851 Z1.2
G0 F9000 X112.669 Y132.331
G0 X113.189 Y132.403
G1 F2700 E172.38301
G0 F9000 X113.189 Y132.019
;TIME_ELAPSED:297.477615
;LAYER:5
;TYPE:WALL-INNER
;MESH:LETRA P.stl
G1 F1500 X112.981 Y131.811 E172.39279
G1 X112.897 Y131.503 E172.40341
G1 X112.897 Y120.498 E172.76944
G1 X112.915 Y120.35 E172.7744
G1 X112.967 Y120.215 E172.77921
G1 X113.136 Y120.018 E172.78784
G1 X113.444 Y119.9 E172.79881
G1 X122.621 Y119.898 E173.10404
G1 X122.825 Y119.991 E173.1115
G1 X122.961 Y120.11 E173.11751
G1 X123.064 Y120.285 E173.12426
G1 X123.102 Y120.498 E173.13146
G1 X123.102 Y131.578 E173.49998
G1 X122.961 Y131.891 E173.5114
G1 X122.824 Y132.01 E173.51743
G1 X122.62 Y132.103 E173.52489
G1 X113.385 Y132.103 E173.83205
G1 X113.189 Y132.019 E173.83914
G0 F9000 X113.355 Y131.645
;TYPE:WALL-OUTER
G1 F1500 X113.299 Y131.538 E173.84316
G1 X113.297 Y120.498 E174.21035
G1 X113.303 Y120.448 E174.21202
G1 X113.376 Y120.338 E174.21641
G1 X113.479 Y120.298 E174.22009
G1 X122.543 Y120.298 E174.52156
G1 X122.655 Y120.368 E174.52595
G1 X122.702 Y120.447 E174.52901
G1 X122.7 Y131.538 E174.8979
G1 X122.655 Y131.633 E174.90139
G1 X122.537 Y131.701 E174.90592
G1 X113.454 Y131.703 E175.20803
G1 X113.355 Y131.645 E175.21184
G0 F9000 X112.597 Y131.645
G0 X108.37 Y136.63
G0 X108.101 Y136.899
;TYPE:WALL-INNER
G1 F1500 X126.9 Y136.9 E175.8371
G1 X126.9 Y117.755 E176.47386
G1 X126.9 Y115.103 E176.56207
G1 X113.497 Y115.104 E177.00786
G1 X113.286 Y115.066 E177.01499
G1 X113.136 Y114.984 E177.02067
G1 X112.967 Y114.786 E177.02933
G1 X112.897 Y114.604 E177.03582
G1 X112.897 Y98.101 E177.58471
G1 X108.101 Y98.101 E177.74422
G1 X108.101 Y136.899 E179.03465
G0 F9000 X107.701 Y137.299
;TYPE:WALL-OUTER
G1 F1500 X127.3 Y137.3 E179.68652
G1 X127.3 Y117.755 E180.33659
G1 X127.3 Y114.703 E180.4381
G1 X113.479 Y114.703 E180.89778
G1 X113.376 Y114.664 E180.90145
G1 X113.299 Y114.538 E180.90636
G1 X113.297 Y97.701 E181.46636
G1 X107.701 Y97.701 E181.65248
G1 X107.701 Y137.299 E182.96952
G0 F9000 X107.97 Y137.03
G0 X111.445 Y136.6
G0 X111.445 Y136.819
;TYPE:FILL
G1 F3000 X112.828 Y131.655 E183.14733
G0 F9000 X113.054 Y131.991
G1 F3000 X108.181 Y133.297 E183.31512
G0 F9000 X108.18 Y132.436
G1 F3000 X112.562 Y136.818 E183.52124
G0 F9000 X112.562 Y136.6
G0 X117.656 Y136.6
G0 X117.656 Y136.819
G1 F3000 X118.899 Y132.182 E183.68091
G0 F9000 X118.899 Y132.403
G0 X116.41 Y132.403
G0 X116.41 Y132.182
G1 F3000 X121.047 Y136.818 E183.899
G0 F9000 X121.047 Y136.6
G0 X123.868 Y136.6
G0 X123.868 Y136.819
G1 F3000 X126.819 Y125.804 E184.27828
G1 X126.819 Y125.62
G1 X123.18 Y121.981 E184.44944
G0 F9000 X123.402 Y121.981
G0 X123.402 Y123.066
G0 X123.181 Y123.066
G1 F3000 X126.818 Y122.092 E184.57467
G0 F9000 X126.6 Y122.092
G0 X126.6 Y117.135
G0 X126.819 Y117.135
G1 F3000 X124.867 Y115.182 E184.66651
G0 F9000 X124.867 Y115.403
G0 X123.454 Y115.403
G0 X123.454 Y115.182
G1 F3000 X122.211 Y119.818 E184.82615
G0 F9000 X122.211 Y119.598
G0 X121.017 Y119.598
G0 X121.017 Y119.818
G1 F3000 X116.381 Y115.182 E185.04422
G0 F9000 X117.242 Y115.182
G1 F3000 X115.999 Y119.819 E185.20389
G0 F9000 X115.999 Y119.598
G0 X112.669 Y119.67
G0 X112.597 Y120.181
G0 X112.895 Y120.181
G1 F3000 X108.18 Y115.466 E185.42567
G0 F9000 X108.181 Y114.662
G1 F3000 X112.815 Y113.42 E185.58524
G0 F9000 X112.597 Y113.42
G0 X112.597 Y111.618
G0 X112.817 Y111.618
G1 F3000 X108.18 Y106.981 E185.80335
G0 F9000 X108.4 Y106.981
G0 X108.4 Y108.451
G0 X108.18 Y108.451
G1 F3000 X112.815 Y107.209 E185.96295
G0 F9000 X112.597 Y107.209
G0 X112.597 Y108.517
G0 X112.816 Y108.517
G1 F3000 X108.18 Y125.818 E186.55868
G0 F9000 X108.4 Y125.818
G0 X108.4 Y127.086
G0 X108.18 Y127.086
G1 F3000 X112.815 Y125.844 E186.71828
G0 F9000 X112.597 Y125.844
G0 X112.597 Y128.588
G0 X112.817 Y128.588
G1 F3000 X108.18 Y123.951 E186.93639
G0 F9000 X108.4 Y123.951
G0 X108.4 Y120.874
G0 X108.18 Y120.874
G1 F3000 X126.819 Y115.88 E187.57819
G0 F9000 X126.6 Y115.88
G0 X126.6 Y128.303
G0 X126.819 Y128.303
G1 F3000 X123.181 Y129.278 E187.70346
G0 F9000 X123.402 Y129.278
G0 X123.402 Y130.466
G0 X123.18 Y130.466
G1 F3000 X126.819 Y134.105 E187.87463
G0 F9000 X126.819 Y134.515
G1 F3000 X118.219 Y136.819 E188.17075
G1 F2700 E183.17075
G0 F9000 X118.219 Y136.6
G0 X112.669 Y132.331
G0 X112.597 Y103.132
G1 F2700 E188.17075
G0 F9000 X112.817 Y103.132
G1 F3000 X108.18 Y98.495 E188.38886
G0 F9000 X108.4 Y98.495
G0 X109.375 Y98.4
G0 X109.375 Y98.179
G1 F3000 X108.18 Y102.638 E188.54241
G0 F9000 X108.18 Y102.239
G1 F3000 X112.815 Y100.997 E188.702
G0 F9000 X112.297 Y100.997
G1 F2700 E183.702
;MESH:NONMESH
G0 F300 X112.297 Y100.997 Z1.4
G0 F9000 X112.669 Y132.331
G0 X113.189 Y132.403
G1 F2700 E188.702
G0 F9000 X113.189 Y132.019
;TIME_ELAPSED:321.808550
;LAYER:6
;TYPE:WALL-INNER
;MESH:LETRA P.stl
G1 F1500 X112.981 Y131.811 E188.71179
G1 X112.897 Y131.503 E188.72241
G1 X112.897 Y120.397 E189.09179
G1 X112.967 Y120.215 E189.09828
G1 X113.136 Y120.018 E189.10691
G1 X113.444 Y119.9 E189.11788
G1 X122.621 Y119.898 E189.42311
G1 X122.825 Y119.991 E189.43057
G1 X122.961 Y120.11 E189.43658
G1 X123.064 Y120.285 E189.44333
G1 X123.102 Y120.498 E189.45053
G1 X123.102 Y131.578 E189.81905
G1 X122.961 Y131.891 E189.83047
G1 X122.824 Y132.01 E189.8365
G1 X122.62 Y132.103 E189.84396
G1 X113.385 Y132.103 E190.15112
G1 X113.189 Y132.019 E190.15821
G0 F9000 X113.394 Y131.675
;TYPE:WALL-OUTER
G1 F1500 X113.299 Y131.538 E190.16376
G1 X113.297 Y120.464 E190.53208
G1 X113.376 Y120.338 E190.53702
G1 X113.479 Y120.298 E190.5407
G1 X122.543 Y120.298 E190.84217
G1 X122.655 Y120.368 E190.84656
G1 X122.702 Y120.447 E190.84962
G1 X122.7 Y131.538 E191.21851
G1 X122.655 Y131.633 E191.222
G1 X122.537 Y131.701 E191.22653
G1 X113.458 Y131.703 E191.5285
G1 X113.394 Y131.675 E191.53083
G1 F2700 E186.53083
G0 F9000 X113.394 Y132.003
G0 X112.945 Y132.055
G0 X108.301 Y133.987
G0 X108.101 Y136.899
;TYPE:WALL-INNER
G1 F2700 E191.53083
G1 F1500 X126.9 Y136.9 E192.15608
G1 X126.9 Y117.755 E192.79285
G1 X126.9 Y115.103 E192.88105
G1 X113.497 Y115.104 E193.32684
G1 X113.286 Y115.066 E193.33397
G1 X113.136 Y114.984 E193.33966
G1 X112.967 Y114.786 E193.34832
G1 X112.897 Y114.604 E193.3548
G1 X112.897 Y98.101 E193.90369
G1 X108.101 Y98.101 E194.06321
G1 X108.101 Y136.899 E195.35364
G0 F9000 X107.701 Y137.299
;TYPE:WALL-OUTER
G1 F1500 X127.3 Y137.3 E196.0055
G1 X127.3 Y117.755 E196.65557
G1 X127.3 Y114.703 E196.75708
G1 X113.479 Y114.703 E197.21677
G1 X113.376 Y114.664 E197.22043
G1 X113.299 Y114.538 E197.22534
G1 X113.297 Y97.701 E197.78534
G1 X107.701 Y97.701 E197.97147
G1 X107.701 Y137.299 E199.2885
G0 F9000 X107.97 Y137.03
G0 X108.201 Y136.538
G0 X108.462 Y136.538
;TYPE:SKIN
G1 F1500 X111.023 Y136.538 E199.37368
G1 X126.54 Y136.54 E199.88978
G1 X126.54 Y115.463 E200.5908
G1 X113.492 Y115.464 E201.02478
G1 X113.182 Y115.41 E201.03525
G1 X112.918 Y115.272 E201.04515
G1 X112.649 Y114.964 E201.05876
G1 X112.539 Y114.666 E201.06932
G1 X112.537 Y98.461 E201.6083
G1 X108.461 Y98.461 E201.74387
G1 X108.462 Y136.538 E203.01032
G1 F2700 E198.01032
G0 F9000 X108.201 Y136.538
G0 X111.052 Y136.7
G0 X113.096 Y132.173
G0 X112.994 Y132.327
G1 F2700 E203.01032
G1 F1500 X112.701 Y132.034 E203.0241
G1 X112.565 Y131.74 E203.03487
G1 X112.538 Y131.529 E203.04195
G1 X112.537 Y120.324 E203.41463
G1 X112.672 Y120.01 E203.42599
G1 X112.92 Y119.727 E203.43851
G1 X113.132 Y119.61 E203.44656
G1 X113.389 Y119.544 E203.45539
G1 X122.524 Y119.54 E203.75922
G1 X122.807 Y119.589 E203.76877
G1 X122.996 Y119.676 E203.77569
G1 X123.241 Y119.875 E203.78619
G1 X123.402 Y120.155 E203.79693
G1 X123.459 Y120.463 E203.80735
G1 X123.46 Y131.631 E204.1788
G1 X123.386 Y131.874 E204.18725
G1 X123.241 Y132.124 E204.19686
G1 X123.019 Y132.313 E204.20656
G1 X122.752 Y132.431 E204.21627
G1 X122.525 Y132.462 E204.22389
G1 X113.476 Y132.462 E204.52486
G1 X113.263 Y132.434 E204.53201
G1 X112.994 Y132.327 E204.54163
G1 F2700 E199.54163
G0 F9000 X113.137 Y132.105
G0 X111.013 Y136.699
G0 X109.184 Y136.337
G1 F2700 E204.54163
G1 F1500 X108.661 Y135.814 E204.56623
G0 F9000 X108.661 Y135.249
G1 F1500 X109.75 Y136.337 E204.61743
G0 F9000 X110.315 Y136.337
G1 F1500 X108.661 Y134.683 E204.69523
G0 F9000 X108.661 Y134.117
G1 F1500 X110.881 Y136.337 E204.79965
G0 F9000 X111.447 Y136.337
G1 F1500 X108.661 Y133.551 E204.9307
G0 F9000 X108.661 Y132.986
G1 F1500 X112.012 Y136.337 E205.08832
G0 F9000 X112.578 Y136.337
G1 F1500 X108.661 Y132.42 E205.27256
G0 F9000 X108.661 Y131.854
G1 F1500 X113.144 Y136.337 E205.48343
G0 F9000 X113.709 Y136.337
G1 F1500 X108.661 Y131.289 E205.72087
G0 F9000 X108.661 Y130.723
G1 F1500 X114.275 Y136.337 E205.98494
G0 F9000 X114.841 Y136.337
G1 F1500 X108.661 Y130.157 E206.27563
G0 F9000 X108.661 Y129.592
G1 F1500 X115.407 Y136.337 E206.59291
G0 F9000 X115.973 Y136.337
G1 F1500 X108.661 Y129.026 E206.93683
G0 F9000 X108.661 Y128.46
G1 F1500 X116.538 Y136.337 E207.30734
G0 F9000 X117.104 Y136.337
G1 F1500 X113.422 Y132.656 E207.4805
G0 F9000 X113.991 Y132.659
G1 F1500 X117.67 Y136.337 E207.65353
G0 F9000 X118.236 Y136.337
G1 F1500 X114.557 Y132.659 E207.82655
G0 F9000 X115.123 Y132.659
G1 F1500 X118.801 Y136.337 E207.99955
G0 F9000 X119.367 Y136.337
G1 F1500 X115.689 Y132.659 E208.17256
G0 F9000 X116.254 Y132.659
G1 F1500 X119.933 Y136.337 E208.34558
G0 F9000 X120.499 Y136.338
G1 F1500 X116.82 Y132.659 E208.51863
G0 F9000 X117.386 Y132.659
G1 F1500 X121.065 Y136.338 E208.69168
G0 F9000 X121.63 Y136.338
G1 F1500 X117.951 Y132.659 E208.86473
G0 F9000 X118.517 Y132.659
G1 F1500 X122.196 Y136.338 E209.03778
G0 F9000 X122.762 Y136.338
G1 F1500 X119.083 Y132.659 E209.21083
G0 F9000 X119.648 Y132.659
G1 F1500 X123.327 Y136.338 E209.38387
G0 F9000 X123.893 Y136.338
G1 F1500 X120.214 Y132.659 E209.55692
G0 F9000 X120.78 Y132.659
G1 F1500 X124.459 Y136.338 E209.72997
G0 F9000 X125.024 Y136.338
G1 F1500 X121.345 Y132.659 E209.90302
G0 F9000 X121.911 Y132.659
G1 F1500 X125.59 Y136.338 E210.07607
G0 F9000 X126.156 Y136.338
G1 F1500 X122.477 Y132.659 E210.24912
G0 F9000 X122.949 Y132.566
G1 F1500 X126.339 Y135.956 E210.40857
G0 F9000 X126.339 Y135.39
G1 F1500 X123.292 Y132.343 E210.5519
G0 F9000 X123.532 Y132.017
G1 F1500 X126.339 Y134.824 E210.68393
G0 F9000 X126.339 Y134.259
G1 F1500 X123.656 Y131.576 E210.81013
G0 F9000 X123.656 Y131.01
G1 F1500 X126.339 Y133.693 E210.93633
G0 F9000 X126.339 Y133.127
G1 F1500 X123.656 Y130.444 E211.06253
G0 F9000 X123.656 Y129.879
G1 F1500 X126.339 Y132.562 E211.18873
G0 F9000 X126.339 Y131.996
G1 F1500 X123.657 Y129.314 E211.31488
G0 F9000 X123.657 Y128.748
G1 F1500 X126.339 Y131.43 E211.44103
G0 F9000 X126.339 Y130.864
G1 F1500 X123.657 Y128.182 E211.56719
G0 F9000 X123.658 Y127.617
G1 F1500 X126.339 Y130.299 E211.69332
G0 F9000 X126.339 Y129.733
G1 F1500 X123.658 Y127.052 E211.81942
G0 F9000 X123.658 Y126.486
G1 F1500 X126.339 Y129.167 E211.94553
G0 F9000 X126.339 Y128.602
G1 F1500 X123.658 Y125.921 E212.07164
G0 F9000 X123.658 Y125.355
G1 F1500 X126.339 Y128.036 E212.19774
G0 F9000 X126.339 Y127.47
G1 F1500 X123.658 Y124.79 E212.32382
G0 F9000 X123.658 Y124.224
G1 F1500 X126.339 Y126.905 E212.44993
G0 F9000 X126.339 Y126.339
G1 F1500 X123.659 Y123.659 E212.57599
G0 F9000 X123.659 Y123.093
G1 F1500 X126.339 Y125.773 E212.70205
G0 F9000 X126.339 Y125.208
G1 F1500 X123.659 Y122.528 E212.82811
G0 F9000 X123.66 Y121.963
G1 F1500 X126.339 Y124.642 E212.95412
G0 F9000 X126.339 Y124.076
G1 F1500 X123.66 Y121.397 E213.08013
G0 F9000 X123.66 Y120.831
G1 F1500 X126.339 Y123.511 E213.20617
G0 F9000 X126.339 Y122.945
G1 F1500 X123.617 Y120.223 E213.3342
G0 F9000 X123.165 Y120.303
G0 X122.701 Y119.827
G0 X122.767 Y119.373
G1 F1500 X119.057 Y115.663 E213.50871
G0 F9000 X118.492 Y115.663
G1 F1500 X122.166 Y119.337 E213.68152
G0 F9000 X121.6 Y119.337
G1 F1500 X117.926 Y115.663 E213.85434
G0 F9000 X117.36 Y115.663
G1 F1500 X121.035 Y119.338 E214.0272
G0 F9000 X120.469 Y119.338
G1 F1500 X116.794 Y115.663 E214.20006
G0 F9000 X116.229 Y115.663
G1 F1500 X119.904 Y119.339 E214.37294
G0 F9000 X119.339 Y119.339
G1 F1500 X115.663 Y115.663 E214.54585
G0 F9000 X115.097 Y115.663
G1 F1500 X118.774 Y119.339 E214.71878
G0 F9000 X118.208 Y119.339
G1 F1500 X114.532 Y115.663 E214.89169
G0 F9000 X113.966 Y115.663
G1 F1500 X117.643 Y119.34 E215.06464
G0 F9000 X117.077 Y119.34
G1 F1500 X113.383 Y115.646 E215.2384
G0 F9000 X113.579 Y115.204
G0 X113.166 Y114.984
G0 X112.803 Y114.569
G0 X112.341 Y114.604
G1 F1500 X108.66 Y110.923 E215.41154
G0 F9000 X108.66 Y110.357
G1 F1500 X112.341 Y114.038 E215.58468
G0 F9000 X112.341 Y113.472
G1 F1500 X108.66 Y109.791 E215.75783
G0 F9000 X108.66 Y109.226
G1 F1500 X112.341 Y112.907 E215.93097
G0 F9000 X112.34 Y112.34
G1 F1500 X108.66 Y108.66 E216.10406
G0 F9000 X108.66 Y108.094
G1 F1500 X112.34 Y111.775 E216.27718
G0 F9000 X112.34 Y111.209
G1 F1500 X108.66 Y107.529 E216.45028
G0 F9000 X108.66 Y106.963
G1 F1500 X112.34 Y110.643 E216.62338
G0 F9000 X112.34 Y110.077
G1 F1500 X108.66 Y106.397 E216.79647
G0 F9000 X108.66 Y105.831
G1 F1500 X112.34 Y109.511 E216.96957
G0 F9000 X112.34 Y108.946
G1 F1500 X108.66 Y105.266 E217.14266
G0 F9000 X108.66 Y104.7
G1 F1500 X112.34 Y108.38 E217.31576
G0 F9000 X112.339 Y107.813
G1 F1500 X108.66 Y104.134 E217.48881
G0 F9000 X108.66 Y103.569
G1 F1500 X112.339 Y107.248 E217.66186
G0 F9000 X112.339 Y106.682
G1 F1500 X108.66 Y103.003 E217.83491
G0 F9000 X108.66 Y102.437
G1 F1500 X112.339 Y106.116 E218.00796
G0 F9000 X112.339 Y105.551
G1 F1500 X108.66 Y101.872 E218.181
G0 F9000 X108.66 Y101.306
G1 F1500 X112.338 Y104.984 E218.35401
G0 F9000 X112.338 Y104.419
G1 F1500 X108.66 Y100.74 E218.52703
G0 F9000 X108.66 Y100.175
G1 F1500 X112.338 Y103.853 E218.70003
G0 F9000 X112.338 Y103.287
G1 F1500 X108.66 Y99.609 E218.87304
G0 F9000 X108.66 Y99.043
G1 F1500 X112.338 Y102.721 E219.04604
G0 F9000 X112.338 Y102.155
G1 F1500 X108.843 Y98.661 E219.21041
G0 F9000 X109.409 Y98.661
G1 F1500 X112.338 Y101.59 E219.34818
G0 F9000 X112.338 Y101.024
G1 F1500 X109.974 Y98.661 E219.45935
G0 F9000 X110.54 Y98.661
G1 F1500 X112.337 Y100.457 E219.54385
G0 F9000 X112.337 Y99.892
G1 F1500 X111.106 Y98.661 E219.60175
G0 F9000 X111.671 Y98.661
G1 F1500 X112.337 Y99.326 E219.63306
G0 F9000 X112.337 Y98.76
G1 F1500 X112.237 Y98.661 E219.63774
G0 F9000 X112.237 Y98.201
G0 X108.273 Y98.273
G0 X108.201 Y111.489
G0 X108.661 Y111.489
G1 F1500 X116.512 Y119.341 E220.00705
G0 F9000 X115.947 Y119.341
G1 F1500 X108.661 Y112.055 E220.34976
G0 F9000 X108.661 Y112.62
G1 F1500 X115.382 Y119.341 E220.66589
G0 F9000 X114.816 Y119.341
G1 F1500 X108.661 Y113.186 E220.95541
G0 F9000 X108.661 Y113.752
G1 F1500 X114.251 Y119.342 E221.21834
G0 F9000 X113.685 Y119.342
G1 F1500 X108.661 Y114.317 E221.45468
G0 F9000 X108.661 Y114.883
G1 F1500 X113.168 Y119.391 E221.6667
G0 F9000 X112.785 Y119.573
G1 F1500 X108.661 Y115.449 E221.86068
G0 F9000 X108.661 Y116.015
G1 F1500 X112.522 Y119.876 E222.04229
G0 F9000 X112.353 Y120.273
G1 F1500 X108.661 Y116.58 E222.21597
G0 F9000 X108.661 Y117.146
G1 F1500 X112.337 Y120.822 E222.38888
G0 F9000 X112.337 Y121.388
G1 F1500 X108.661 Y117.712 E222.56179
G0 F9000 X108.661 Y118.277
G1 F1500 X112.337 Y121.953 E222.7347
G0 F9000 X112.337 Y122.519
G1 F1500 X108.661 Y118.843 E222.9076
G0 F9000 X108.661 Y119.409
G1 F1500 X112.337 Y123.085 E223.08051
G0 F9000 X112.338 Y123.651
G1 F1500 X108.661 Y119.974 E223.25347
G0 F9000 X108.661 Y120.54
G1 F1500 X112.338 Y124.217 E223.42642
G0 F9000 X112.338 Y124.783
G1 F1500 X108.661 Y121.106 E223.59938
G0 F9000 X108.661 Y121.671
G1 F1500 X112.338 Y125.348 E223.77233
G0 F9000 X112.338 Y125.914
G1 F1500 X108.661 Y122.237 E223.94529
G0 F9000 X108.661 Y122.803
G1 F1500 X112.338 Y126.48 E224.11824
G0 F9000 X112.338 Y127.046
G1 F1500 X108.661 Y123.368 E224.29122
G0 F9000 X108.661 Y123.935
G1 F1500 X112.338 Y127.612 E224.46417
G0 F9000 X112.338 Y128.177
G1 F1500 X108.661 Y124.5 E224.63713
G0 F9000 X108.661 Y125.066
G1 F1500 X112.338 Y128.743 E224.81008
G0 F9000 X112.339 Y129.31
G1 F1500 X108.661 Y125.632 E224.98309
G0 F9000 X108.661 Y126.198
G1 F1500 X112.339 Y129.875 E225.15606
G0 F9000 X112.339 Y130.441
G1 F1500 X108.661 Y126.763 E225.32907
G0 F9000 X108.661 Y127.329
G1 F1500 X112.339 Y131.007 E225.50207
G0 F9000 X112.342 Y131.575
G1 F1500 X108.661 Y127.895 E225.67519
G1 F2700 E220.67519
G0 F9000 X108.201 Y127.895
G0 X108.273 Y136.727
G0 X126.728 Y136.728
G0 X126.728 Y115.275
G0 X119.623 Y115.204
G1 F2700 E225.67519
G0 F9000 X119.623 Y115.663
G1 F1500 X126.339 Y122.379 E225.99109
G0 F9000 X126.339 Y121.813
G1 F1500 X120.189 Y115.663 E226.28036
G0 F9000 X120.754 Y115.663
G1 F1500 X126.339 Y121.248 E226.54307
G0 F9000 X126.339 Y120.682
G1 F1500 X121.32 Y115.663 E226.77914
G0 F9000 X121.886 Y115.663
G1 F1500 X126.339 Y120.116 E226.9886
G0 F9000 X126.339 Y119.551
G1 F1500 X122.451 Y115.663 E227.17148
G0 F9000 X123.017 Y115.663
G1 F1500 X126.339 Y118.985 E227.32774
G0 F9000 X126.339 Y118.419
G1 F1500 X123.583 Y115.663 E227.45737
G0 F9000 X124.148 Y115.663
G1 F1500 X126.339 Y117.854 E227.56043
G0 F9000 X126.339 Y117.288
G1 F1500 X124.714 Y115.663 E227.63686
G0 F9000 X125.28 Y115.663
G1 F1500 X126.339 Y116.722 E227.68667
G0 F9000 X126.339 Y116.157
G1 F1500 X125.845 Y115.663 E227.70991
G1 F2700 E222.70991
;MESH:NONMESH
G0 F300 X125.845 Y115.663 Z1.6
G0 F9000 X125.845 Y115.203
G0 X123.375 Y115.303
G0 X122.501 Y119.717
G0 X113.189 Y132.019
;TIME_ELAPSED:385.558250
;LAYER:7
;TYPE:WALL-INNER
;MESH:LETRA P.stl
G1 F2700 E227.70991
G1 F1500 X112.981 Y131.811 E227.71969
G1 X112.897 Y131.503 E227.73031
G1 X112.897 Y120.397 E228.0997
G1 X112.967 Y120.215 E228.10619
G1 X113.136 Y120.018 E228.11482
G1 X113.444 Y119.9 E228.12579
G1 X122.621 Y119.898 E228.43102
G1 X122.825 Y119.991 E228.43847
G1 X122.961 Y120.11 E228.44448
G1 X123.064 Y120.285 E228.45124
G1 X123.102 Y120.498 E228.45843
G1 X123.102 Y131.578 E228.82696
G1 X122.961 Y131.891 E228.83837
G1 X122.824 Y132.01 E228.84441
G1 X122.606 Y132.095 E228.85219
G1 X122.502 Y132.103 E228.85566
G1 X113.385 Y132.103 E229.15889
G1 X113.189 Y132.019 E229.16599
G0 F9000 X113.355 Y131.645
;TYPE:WALL-OUTER
G1 F1500 X113.299 Y131.538 E229.17
G1 X113.297 Y120.464 E229.53833
G1 X113.376 Y120.338 E229.54327
G1 X113.479 Y120.298 E229.54695
G1 X122.543 Y120.298 E229.84842
G1 X122.655 Y120.368 E229.85281
G1 X122.702 Y120.447 E229.85587
G1 X122.7 Y131.538 E230.22476
G1 X122.655 Y131.633 E230.22825
G1 X122.537 Y131.701 E230.23278
G1 X113.454 Y131.703 E230.53488
G1 X113.355 Y131.645 E230.5387
G1 F2700 E225.5387
G0 F9000 X112.997 Y131.645
G0 X112.945 Y132.055
G0 X108.301 Y133.987
G0 X108.101 Y136.899
;TYPE:WALL-INNER
G1 F2700 E230.5387
G1 F1500 X126.9 Y136.9 E231.16396
G1 X126.9 Y117.755 E231.80072
G1 X126.9 Y115.103 E231.88893
G1 X113.497 Y115.104 E232.33471
G1 X113.286 Y115.066 E232.34185
G1 X113.136 Y114.984 E232.34753
G1 X112.967 Y114.786 E232.35619
G1 X112.897 Y114.604 E232.36267
G1 X112.897 Y98.101 E232.91157
G1 X108.101 Y98.101 E233.07108
G1 X108.101 Y136.899 E234.36151
G0 F9000 X107.701 Y137.299
;TYPE:WALL-OUTER
G1 F1500 X127.3 Y137.3 E235.01337
G1 X127.3 Y117.755 E235.66344
G1 X127.3 Y114.703 E235.76495
G1 X113.479 Y114.703 E236.22464
G1 X113.376 Y114.664 E236.22831
G1 X113.299 Y114.538 E236.23322
G1 X113.297 Y97.701 E236.79322
G1 X107.701 Y97.701 E236.97934
G1 X107.701 Y137.299 E238.29638
G0 F9000 X107.97 Y137.03
G0 X108.201 Y136.538
G0 X108.462 Y136.538
;TYPE:SKIN
G1 F1500 X126.54 Y136.54 E238.89765
G1 X126.54 Y117.755 E239.52244
G1 X126.54 Y115.463 E239.59868
G1 X113.492 Y115.464 E240.03266
G1 X113.182 Y115.41 E240.04312
G1 X112.918 Y115.272 E240.05303
G1 X112.649 Y114.964 E240.06663
G1 X112.539 Y114.666 E240.0772
G1 X112.537 Y98.461 E240.61618
G1 X108.461 Y98.461 E240.75174
G1 X108.462 Y136.538 E242.01819
G1 F2700 E237.01819
G0 F9000 X108.201 Y136.538
G0 X111.052 Y136.7
G0 X113.096 Y132.173
G0 X112.994 Y132.327
G1 F2700 E242.01819
G1 F1500 X112.701 Y132.034 E242.03197
G1 X112.565 Y131.74 E242.04275
G1 X112.538 Y131.529 E242.04982
G1 X112.537 Y120.324 E242.4225
G1 X112.672 Y120.01 E242.43387
G1 X112.92 Y119.727 E242.44638
G1 X113.132 Y119.61 E242.45444
G1 X113.389 Y119.544 E242.46326
G1 X122.524 Y119.54 E242.76709
G1 X122.807 Y119.589 E242.77665
G1 X122.996 Y119.676 E242.78357
G1 X123.241 Y119.875 E242.79407
G1 X123.402 Y120.155 E242.80481
G1 X123.459 Y120.463 E242.81523
G1 X123.46 Y131.631 E243.18668
G1 X123.386 Y131.874 E243.19512
G1 X123.241 Y132.124 E243.20474
G1 X123.019 Y132.313 E243.21443
G1 X122.752 Y132.431 E243.22414
G1 X122.525 Y132.462 E243.23176
G1 X113.476 Y132.462 E243.53273
G1 X113.263 Y132.434 E243.53988
G1 X112.994 Y132.327 E243.54951
G1 F2700 E238.54951
G0 F9000 X113.137 Y132.105
G0 X122.502 Y132.284
G0 X126.7 Y132.284
G0 X126.338 Y136.139
G1 F2700 E243.54951
G1 F1500 X126.138 Y136.339 E243.55892
G0 F9000 X125.572 Y136.339
G1 F1500 X126.338 Y135.573 E243.59495
G0 F9000 X126.338 Y135.007
G1 F1500 X125.007 Y136.339 E243.65758
G0 F9000 X124.441 Y136.339
G1 F1500 X126.338 Y134.442 E243.7468
G0 F9000 X126.338 Y133.876
G1 F1500 X123.875 Y136.339 E243.86266
G0 F9000 X123.31 Y136.339
G1 F1500 X126.338 Y133.31 E244.00511
G0 F9000 X126.338 Y132.745
G1 F1500 X122.744 Y136.339 E244.17416
G0 F9000 X122.178 Y136.339
G1 F1500 X126.338 Y132.179 E244.36983
G0 F9000 X126.338 Y131.613
G1 F1500 X121.613 Y136.339 E244.59211
G0 F9000 X121.047 Y136.339
G1 F1500 X126.338 Y131.048 E244.84098
G0 F9000 X126.338 Y130.482
G1 F1500 X120.481 Y136.339 E245.11647
G0 F9000 X119.916 Y136.338
G1 F1500 X126.338 Y129.916 E245.41854
G0 F9000 X126.338 Y129.351
G1 F1500 X119.351 Y136.338 E245.74719
G0 F9000 X118.785 Y136.338
G1 F1500 X122.464 Y132.659 E245.92024
G0 F9000 X121.898 Y132.659
G1 F1500 X118.219 Y136.338 E246.09329
G0 F9000 X117.654 Y136.338
G1 F1500 X121.333 Y132.659 E246.26634
G0 F9000 X120.767 Y132.659
G1 F1500 X117.088 Y136.338 E246.43939
G0 F9000 X116.522 Y136.338
G1 F1500 X120.201 Y132.659 E246.61244
G0 F9000 X119.636 Y132.659
G1 F1500 X115.957 Y136.338 E246.78548
G0 F9000 X115.391 Y136.338
G1 F1500 X119.07 Y132.659 E246.95853
G0 F9000 X118.504 Y132.659
G1 F1500 X114.825 Y136.338 E247.13158
G0 F9000 X114.26 Y136.337
G1 F1500 X117.939 Y132.659 E247.30461
G0 F9000 X117.373 Y132.659
G1 F1500 X113.694 Y136.337 E247.47763
G0 F9000 X113.129 Y136.337
G1 F1500 X116.807 Y132.659 E247.65063
G0 F9000 X116.241 Y132.659
G1 F1500 X112.563 Y136.337 E247.82364
G0 F9000 X111.997 Y136.337
G1 F1500 X115.676 Y132.659 E247.99666
G0 F9000 X115.11 Y132.659
G1 F1500 X111.432 Y136.337 E248.16966
G0 F9000 X110.866 Y136.337
G1 F1500 X114.544 Y132.659 E248.34267
G0 F9000 X113.979 Y132.659
G1 F1500 X110.3 Y136.337 E248.51569
G0 F9000 X109.735 Y136.337
G1 F1500 X113.418 Y132.654 E248.68893
G0 F9000 X112.975 Y132.532
G1 F1500 X109.169 Y136.337 E248.86793
G0 F9000 X108.662 Y136.279
G1 F1500 X112.664 Y132.277 E249.05617
G0 F9000 X112.432 Y131.943
G1 F1500 X108.662 Y135.713 E249.2335
G0 F9000 X108.662 Y135.147
G1 F1500 X112.338 Y131.471 E249.40641
G0 F9000 X112.338 Y130.905
G1 F1500 X108.662 Y134.582 E249.57934
G0 F9000 X108.662 Y134.016
G1 F1500 X112.338 Y130.34 E249.75225
G0 F9000 X112.338 Y129.774
G1 F1500 X108.662 Y133.45 E249.92515
G0 F9000 X108.662 Y132.885
G1 F1500 X112.338 Y129.208 E250.09808
G0 F9000 X112.338 Y128.643
G1 F1500 X108.662 Y132.319 E250.27099
G0 F9000 X108.662 Y131.753
G1 F1500 X112.338 Y128.078 E250.44388
G0 F9000 X112.338 Y127.512
G1 F1500 X108.662 Y131.188 E250.61678
G0 F9000 X108.662 Y130.622
G1 F1500 X112.338 Y126.946 E250.78969
G0 F9000 X112.338 Y126.381
G1 F1500 X108.662 Y130.056 E250.96258
G0 F9000 X108.662 Y129.491
G1 F1500 X112.337 Y125.816 E251.13544
G0 F9000 X112.337 Y125.25
G1 F1500 X108.662 Y128.925 E251.3083
G0 F9000 X108.662 Y128.359
G1 F1500 X112.337 Y124.684 E251.48116
G0 F9000 X112.337 Y124.119
G1 F1500 X108.662 Y127.793 E251.654
G0 F9000 X108.662 Y127.228
G1 F1500 X112.337 Y123.553 E251.82686
G0 F9000 X112.336 Y122.988
G1 F1500 X108.662 Y126.662 E251.99967
G0 F9000 X108.662 Y126.096
G1 F1500 X112.336 Y122.422 E252.17248
G0 F9000 X112.336 Y121.857
G1 F1500 X108.662 Y125.531 E252.3453
G0 F9000 X108.662 Y124.965
G1 F1500 X112.336 Y121.291 E252.51811
G0 F9000 X112.336 Y120.725
G1 F1500 X108.662 Y124.399 E252.69092
G0 F9000 X108.662 Y123.834
G1 F1500 X112.437 Y120.059 E252.86849
G0 F9000 X113.084 Y119.412
G1 F1500 X116.833 Y115.662 E253.04485
G0 F9000 X116.268 Y115.662
G1 F1500 X108.661 Y123.269 E253.40266
G0 F9000 X108.661 Y122.703
G1 F1500 X115.702 Y115.662 E253.73385
G0 F9000 X115.136 Y115.662
G1 F1500 X108.661 Y122.137 E254.03842
G0 F9000 X108.661 Y121.572
G1 F1500 X114.571 Y115.662 E254.3164
G0 F9000 X114.005 Y115.662
G1 F1500 X108.661 Y121.006 E254.56777
G0 F9000 X108.661 Y120.44
G1 F1500 X113.446 Y115.656 E254.79282
G0 F9000 X112.994 Y115.541
G1 F1500 X108.661 Y119.875 E254.99665
G0 F9000 X108.661 Y119.309
G1 F1500 X112.671 Y115.299 E255.18527
G0 F9000 X112.437 Y114.967
G1 F1500 X108.661 Y118.743 E255.36288
G0 F9000 X108.661 Y118.178
G1 F1500 X112.34 Y114.498 E255.53595
G0 F9000 X112.34 Y113.933
G1 F1500 X108.661 Y117.612 E255.709
G0 F9000 X108.661 Y117.046
G1 F1500 X112.34 Y113.367 E255.88205
G0 F9000 X112.34 Y112.801
G1 F1500 X108.661 Y116.48 E256.0551
G0 F9000 X108.661 Y115.915
G1 F1500 X112.34 Y112.236 E256.22815
G0 F9000 X112.34 Y111.671
G1 F1500 X108.661 Y115.349 E256.40117
G0 F9000 X108.661 Y114.783
G1 F1500 X112.34 Y111.105 E256.5742
G0 F9000 X112.34 Y110.539
G1 F1500 X108.661 Y114.218 E256.74725
G0 F9000 X108.661 Y113.652
G1 F1500 X112.339 Y109.974 E256.92025
G0 F9000 X112.339 Y109.409
G1 F1500 X108.661 Y113.086 E257.09323
G0 F9000 X108.661 Y112.521
G1 F1500 X112.339 Y108.843 E257.26623
G0 F9000 X112.339 Y108.277
G1 F1500 X108.661 Y111.955 E257.43923
G0 F9000 X108.661 Y111.389
G1 F1500 X112.338 Y107.712 E257.61219
G0 F9000 X112.338 Y107.147
G1 F1500 X108.661 Y110.824 E257.78514
G0 F9000 X108.661 Y110.259
G1 F1500 X112.338 Y106.581 E257.95812
G0 F9000 X112.338 Y106.015
G1 F1500 X108.661 Y109.693 E258.1311
G0 F9000 X108.661 Y109.127
G1 F1500 X112.338 Y105.45 E258.30405
G0 F9000 X112.338 Y104.885
G1 F1500 X108.661 Y108.562 E258.47701
G0 F9000 X108.661 Y107.996
G1 F1500 X112.338 Y104.319 E258.64996
G0 F9000 X112.338 Y103.753
G1 F1500 X108.661 Y107.43 E258.82292
G0 F9000 X108.661 Y106.865
G1 F1500 X112.337 Y103.188 E258.99585
G0 F9000 X112.337 Y102.623
G1 F1500 X108.661 Y106.299 E259.16876
G0 F9000 X108.661 Y105.733
G1 F1500 X112.337 Y102.057 E259.34166
G0 F9000 X112.337 Y101.491
G1 F1500 X108.661 Y105.167 E259.51457
G0 F9000 X108.661 Y104.602
G1 F1500 X112.336 Y100.926 E259.68746
G0 F9000 X112.336 Y100.361
G1 F1500 X108.661 Y104.036 E259.86032
G0 F9000 X108.661 Y103.47
G1 F1500 X112.336 Y99.795 E260.03318
G0 F9000 X112.336 Y99.229
G1 F1500 X108.661 Y102.905 E260.20606
G0 F9000 X108.661 Y102.339
G1 F1500 X112.336 Y98.664 E260.37892
G0 F9000 X111.774 Y98.66
G1 F1500 X108.661 Y101.773 E260.52535
G0 F9000 X108.661 Y101.208
G1 F1500 X111.208 Y98.66 E260.64518
G0 F9000 X110.643 Y98.66
G1 F1500 X108.661 Y100.642 E260.7384
G0 F9000 X108.661 Y100.076
G1 F1500 X110.077 Y98.66 E260.80501
G0 F9000 X109.511 Y98.66
G1 F1500 X108.661 Y99.511 E260.84501
G0 F9000 X108.661 Y98.945
G1 F1500 X108.946 Y98.66 E260.85842
G0 F9000 X108.946 Y98.201
G0 X112.725 Y98.273
G0 X113.069 Y114.931
G0 X117.399 Y115.204
G0 X117.399 Y115.662
G1 F1500 X113.719 Y119.343 E261.03154
G0 F9000 X114.284 Y119.343
G1 F1500 X117.965 Y115.662 E261.20468
G0 F9000 X118.53 Y115.662
G1 F1500 X114.851 Y119.342 E261.37775
G0 F9000 X115.416 Y119.342
G1 F1500 X119.096 Y115.662 E261.55085
G0 F9000 X119.662 Y115.662
G1 F1500 X115.983 Y119.341 E261.7239
G0 F9000 X116.548 Y119.341
G1 F1500 X120.227 Y115.662 E261.89695
G0 F9000 X120.793 Y115.662
G1 F1500 X117.115 Y119.341 E262.06997
G0 F9000 X117.68 Y119.341
G1 F1500 X121.359 Y115.662 E262.24302
G0 F9000 X121.925 Y115.662
G1 F1500 X118.247 Y119.34 E262.41602
G0 F9000 X118.813 Y119.34
G1 F1500 X122.49 Y115.662 E262.589
G0 F9000 X123.056 Y115.662
G1 F1500 X119.379 Y119.339 E262.76196
G0 F9000 X119.945 Y119.339
G1 F1500 X123.622 Y115.662 E262.93491
G0 F9000 X124.187 Y115.662
G1 F1500 X120.511 Y119.339 E263.10784
G0 F9000 X121.077 Y119.339
G1 F1500 X124.753 Y115.662 E263.28077
G0 F9000 X125.319 Y115.662
G1 F1500 X121.643 Y119.338 E263.45368
G0 F9000 X122.209 Y119.338
G1 F1500 X125.884 Y115.662 E263.62656
G0 F9000 X126.338 Y115.774
G1 F1500 X122.742 Y119.37 E263.79571
G0 F9000 X123.143 Y119.535
G1 F1500 X126.338 Y116.34 E263.94599
G0 F9000 X126.338 Y116.905
G1 F1500 X123.433 Y119.81 E264.08264
G0 F9000 X123.613 Y120.196
G1 F1500 X126.338 Y117.471 E264.21081
G0 F9000 X126.338 Y118.037
G1 F1500 X123.66 Y120.715 E264.33678
G0 F9000 X123.66 Y121.28
G1 F1500 X126.338 Y118.603 E264.46272
G0 F9000 X126.338 Y119.168
G1 F1500 X123.66 Y121.846 E264.58868
G0 F9000 X123.66 Y122.412
G1 F1500 X126.338 Y119.734 E264.71465
G0 F9000 X126.338 Y120.3
G1 F1500 X123.66 Y122.978 E264.84061
G0 F9000 X123.66 Y123.544
G1 F1500 X126.338 Y120.865 E264.9666
G0 F9000 X126.338 Y121.431
G1 F1500 X123.66 Y124.109 E265.09257
G0 F9000 X123.659 Y124.676
G1 F1500 X126.338 Y121.997 E265.21858
G0 F9000 X126.338 Y122.562
G1 F1500 X123.659 Y125.242 E265.34461
G0 F9000 X123.659 Y125.807
G1 F1500 X126.338 Y123.128 E265.47062
G0 F9000 X126.338 Y123.694
G1 F1500 X123.658 Y126.374 E265.59668
G0 F9000 X123.658 Y126.939
G1 F1500 X126.338 Y124.259 E265.72274
G0 F9000 X126.338 Y124.825
G1 F1500 X123.658 Y127.505 E265.8488
G0 F9000 X123.658 Y128.071
G1 F1500 X126.338 Y125.391 E265.97486
G0 F9000 X126.338 Y125.956
G1 F1500 X123.658 Y128.637 E266.10094
G0 F9000 X123.658 Y129.203
G1 F1500 X126.338 Y126.522 E266.22703
G0 F9000 X126.338 Y127.088
G1 F1500 X123.658 Y129.768 E266.35308
G0 F9000 X123.657 Y130.335
G1 F1500 X126.338 Y127.653 E266.47921
G0 F9000 X126.338 Y128.219
G1 F1500 X123.657 Y130.901 E266.60534
G0 F9000 X123.657 Y131.466
G1 F1500 X126.338 Y128.785 E266.73145
G1 F2700 E261.73145
;MESH:NONMESH
G0 F300 X126.338 Y128.785 Z1.8
G0 F9000 X126.8 Y128.785
G0 X126.7 Y132.019
G0 X123.233 Y131.78
G0 X113.189 Y132.019
;TIME_ELAPSED:448.181966
;LAYER:8
;TYPE:WALL-INNER
;MESH:LETRA P.stl
G1 F2700 E266.73145
G1 F1500 X112.981 Y131.811 E266.74123
G1 X112.897 Y131.503 E266.75185
G1 X112.897 Y120.397 E267.12124
G1 X112.967 Y120.215 E267.12772
G1 X113.136 Y120.018 E267.13636
G1 X113.444 Y119.9 E267.14733
G1 X122.621 Y119.898 E267.45256
G1 X122.825 Y119.991 E267.46001
G1 X122.961 Y120.11 E267.46602
G1 X123.064 Y120.285 E267.47278
G1 X123.102 Y120.498 E267.47997
G1 X123.102 Y131.578 E267.8485
G1 X122.961 Y131.891 E267.85991
G1 X122.824 Y132.01 E267.86595
G1 X122.62 Y132.103 E267.87341
G1 X113.385 Y132.103 E268.18056
G1 X113.189 Y132.019 E268.18766
G0 F9000 X113.394 Y131.675
;TYPE:WALL-OUTER
G1 F1500 X113.299 Y131.538 E268.1932
G1 X113.297 Y120.464 E268.56152
G1 X113.376 Y120.338 E268.56647
G1 X113.479 Y120.298 E268.57014
G1 X122.543 Y120.298 E268.87161
G1 X122.655 Y120.368 E268.87601
G1 X122.702 Y120.447 E268.87906
G1 X122.7 Y131.538 E269.24795
G1 X122.655 Y131.633 E269.25145
G1 X122.537 Y131.701 E269.25598
G1 X113.458 Y131.703 E269.55795
G1 X113.394 Y131.675 E269.56027
G1 F2700 E264.56027
G0 F9000 X113.394 Y132.003
G0 X112.945 Y132.055
G0 X108.301 Y133.987
G0 X108.101 Y136.899
;TYPE:WALL-INNER
G1 F2700 E269.56027
G1 F1500 X126.9 Y136.9 E270.18553
G1 X126.9 Y115.103 E270.9105
G1 X113.497 Y115.104 E271.35629
G1 X113.286 Y115.066 E271.36342
G1 X113.136 Y114.984 E271.3691
G1 X112.967 Y114.786 E271.37776
G1 X112.897 Y114.503 E271.38746
G1 X112.897 Y98.101 E271.93299
G1 X108.101 Y98.101 E272.0925
G1 X108.101 Y136.899 E273.38293
G0 F9000 X107.701 Y137.299
;TYPE:WALL-OUTER
G1 F1500 X127.3 Y137.3 E274.0348
G1 X127.3 Y114.703 E274.78638
G1 X113.479 Y114.703 E275.24606
G1 X113.376 Y114.664 E275.24973
G1 X113.297 Y114.503 E275.25569
G1 X113.297 Y97.701 E275.81453
G1 X107.701 Y97.701 E276.00065
G1 X107.701 Y137.299 E277.31769
G0 F9000 X107.97 Y137.03
G0 X108.201 Y136.538
G0 X108.462 Y136.538
;TYPE:SKIN
G1 F1500 X126.54 Y136.54 E277.91896
G1 X126.54 Y117.755 E278.54376
G1 X126.54 Y115.463 E278.61999
G1 X113.492 Y115.464 E279.05397
G1 X113.182 Y115.41 E279.06443
G1 X112.918 Y115.272 E279.07434
G1 X112.649 Y114.964 E279.08794
G1 X112.539 Y114.666 E279.09851
G1 X112.537 Y98.461 E279.63749
G1 X108.461 Y98.461 E279.77306
G1 X108.462 Y136.538 E281.0395
G1 F2700 E276.0395
G0 F9000 X108.201 Y136.538
G0 X111.052 Y136.7
G0 X113.096 Y132.173
G0 X112.994 Y132.327
G1 F2700 E281.0395
G1 F1500 X112.701 Y132.034 E281.05328
G1 X112.565 Y131.74 E281.06406
G1 X112.538 Y131.529 E281.07113
G1 X112.537 Y120.324 E281.44381
G1 X112.672 Y120.01 E281.45518
G1 X112.92 Y119.727 E281.4677
G1 X113.132 Y119.61 E281.47575
G1 X113.389 Y119.544 E281.48457
G1 X122.524 Y119.54 E281.78841
G1 X122.807 Y119.589 E281.79796
G1 X122.996 Y119.676 E281.80488
G1 X123.241 Y119.875 E281.81538
G1 X123.402 Y120.155 E281.82612
G1 X123.459 Y120.463 E281.83654
G1 X123.46 Y131.631 E282.20799
G1 X123.386 Y131.874 E282.21644
G1 X123.241 Y132.124 E282.22605
G1 X123.019 Y132.313 E282.23575
G1 X122.752 Y132.431 E282.24545
G1 X122.525 Y132.462 E282.25307
G1 X113.476 Y132.462 E282.55405
G1 X113.263 Y132.434 E282.56119
G1 X112.994 Y132.327 E282.57082
G1 F2700 E277.57082
G0 F9000 X113.137 Y132.105
G0 X111.013 Y136.699
G0 X109.184 Y136.337
G1 F2700 E282.57082
G1 F1500 X108.661 Y135.814 E282.59542
G0 F9000 X108.661 Y135.249
G1 F1500 X109.75 Y136.337 E282.64662
G0 F9000 X110.315 Y136.337
G1 F1500 X108.661 Y134.683 E282.72442
G0 F9000 X108.661 Y134.117
G1 F1500 X110.881 Y136.337 E282.82884
G0 F9000 X111.447 Y136.337
G1 F1500 X108.661 Y133.551 E282.95989
G0 F9000 X108.661 Y132.986
G1 F1500 X112.012 Y136.337 E283.11751
G0 F9000 X112.578 Y136.337
G1 F1500 X108.661 Y132.42 E283.30175
G0 F9000 X108.661 Y131.854
G1 F1500 X113.144 Y136.337 E283.51262
G0 F9000 X113.709 Y136.337
G1 F1500 X108.661 Y131.289 E283.75006
G0 F9000 X108.661 Y130.723
G1 F1500 X114.275 Y136.337 E284.01412
G0 F9000 X114.841 Y136.337
G1 F1500 X108.661 Y130.157 E284.30481
G0 F9000 X108.661 Y129.592
G1 F1500 X115.407 Y136.337 E284.6221
G0 F9000 X115.973 Y136.337
G1 F1500 X108.661 Y129.026 E284.96601
G0 F9000 X108.661 Y128.46
G1 F1500 X116.538 Y136.337 E285.33652
G0 F9000 X117.104 Y136.337
G1 F1500 X113.422 Y132.656 E285.50969
G0 F9000 X113.991 Y132.659
G1 F1500 X117.67 Y136.337 E285.68271
G0 F9000 X118.236 Y136.337
G1 F1500 X114.557 Y132.659 E285.85574
G0 F9000 X115.123 Y132.659
G1 F1500 X118.801 Y136.337 E286.02874
G0 F9000 X119.367 Y136.337
G1 F1500 X115.689 Y132.659 E286.20174
G0 F9000 X116.254 Y132.659
G1 F1500 X119.933 Y136.337 E286.37477
G0 F9000 X120.499 Y136.338
G1 F1500 X116.82 Y132.659 E286.54782
G0 F9000 X117.386 Y132.659
G1 F1500 X121.065 Y136.338 E286.72086
G0 F9000 X121.63 Y136.338
G1 F1500 X117.951 Y132.659 E286.89391
G0 F9000 X118.517 Y132.659
G1 F1500 X122.196 Y136.338 E287.06696
G0 F9000 X122.762 Y136.338
G1 F1500 X119.083 Y132.659 E287.24001
G0 F9000 X119.648 Y132.659
G1 F1500 X123.327 Y136.338 E287.41306
G0 F9000 X123.893 Y136.338
G1 F1500 X120.214 Y132.659 E287.58611
G0 F9000 X120.78 Y132.659
G1 F1500 X124.459 Y136.338 E287.75916
G0 F9000 X125.024 Y136.338
G1 F1500 X121.345 Y132.659 E287.93221
G0 F9000 X121.911 Y132.659
G1 F1500 X125.59 Y136.338 E288.10526
G0 F9000 X126.156 Y136.338
G1 F1500 X122.477 Y132.659 E288.2783
G0 F9000 X122.949 Y132.566
G1 F1500 X126.339 Y135.956 E288.43776
G0 F9000 X126.339 Y135.39
G1 F1500 X123.292 Y132.343 E288.58108
G0 F9000 X123.532 Y132.017
G1 F1500 X126.339 Y134.824 E288.71311
G0 F9000 X126.339 Y134.259
G1 F1500 X123.656 Y131.576 E288.83931
G0 F9000 X123.656 Y131.01
G1 F1500 X126.339 Y133.693 E288.96551
G0 F9000 X126.339 Y133.127
G1 F1500 X123.656 Y130.444 E289.09171
G0 F9000 X123.656 Y129.879
G1 F1500 X126.339 Y132.562 E289.21791
G0 F9000 X126.339 Y131.996
G1 F1500 X123.657 Y129.314 E289.34407
G0 F9000 X123.657 Y128.748
G1 F1500 X126.339 Y131.43 E289.47022
G0 F9000 X126.339 Y130.864
G1 F1500 X123.657 Y128.182 E289.59637
G0 F9000 X123.658 Y127.617
G1 F1500 X126.339 Y130.299 E289.7225
G0 F9000 X126.339 Y129.733
G1 F1500 X123.658 Y127.052 E289.84861
G0 F9000 X123.658 Y126.486
G1 F1500 X126.339 Y129.167 E289.97472
G0 F9000 X126.339 Y128.602
G1 F1500 X123.658 Y125.921 E290.10082
G0 F9000 X123.658 Y125.355
G1 F1500 X126.339 Y128.036 E290.22693
G0 F9000 X126.339 Y127.47
G1 F1500 X123.658 Y124.79 E290.35301
G0 F9000 X123.658 Y124.224
G1 F1500 X126.339 Y126.905 E290.47912
G0 F9000 X126.339 Y126.339
G1 F1500 X123.659 Y123.659 E290.60517
G0 F9000 X123.659 Y123.093
G1 F1500 X126.339 Y125.773 E290.73123
G0 F9000 X126.339 Y125.208
G1 F1500 X123.659 Y122.528 E290.85729
G0 F9000 X123.66 Y121.963
G1 F1500 X126.339 Y124.642 E290.9833
G0 F9000 X126.339 Y124.076
G1 F1500 X123.66 Y121.397 E291.10932
G0 F9000 X123.66 Y120.831
G1 F1500 X126.339 Y123.511 E291.23535
G0 F9000 X126.339 Y122.945
G1 F1500 X123.617 Y120.223 E291.36339
G0 F9000 X123.165 Y120.303
G0 X122.701 Y119.827
G0 X122.767 Y119.373
G1 F1500 X119.057 Y115.663 E291.53789
G0 F9000 X118.492 Y115.663
G1 F1500 X122.166 Y119.337 E291.71071
G0 F9000 X121.6 Y119.337
G1 F1500 X117.926 Y115.663 E291.88352
G0 F9000 X117.36 Y115.663
G1 F1500 X121.035 Y119.338 E292.05638
G0 F9000 X120.469 Y119.338
G1 F1500 X116.794 Y115.663 E292.22924
G0 F9000 X116.229 Y115.663
G1 F1500 X119.904 Y119.339 E292.40213
G0 F9000 X119.339 Y119.339
G1 F1500 X115.663 Y115.663 E292.57503
G0 F9000 X115.097 Y115.663
G1 F1500 X118.774 Y119.339 E292.74797
G0 F9000 X118.208 Y119.339
G1 F1500 X114.532 Y115.663 E292.92087
G0 F9000 X113.966 Y115.663
G1 F1500 X117.643 Y119.34 E293.09383
G0 F9000 X117.077 Y119.34
G1 F1500 X113.383 Y115.646 E293.26758
G0 F9000 X113.579 Y115.204
G0 X113.166 Y114.984
G0 X112.803 Y114.569
G0 X112.341 Y114.604
G1 F1500 X108.66 Y110.923 E293.44073
G0 F9000 X108.66 Y110.357
G1 F1500 X112.341 Y114.038 E293.61387
G0 F9000 X112.341 Y113.472
G1 F1500 X108.66 Y109.791 E293.78701
G0 F9000 X108.66 Y109.226
G1 F1500 X112.341 Y112.907 E293.96015
G0 F9000 X112.34 Y112.34
G1 F1500 X108.66 Y108.66 E294.13325
G0 F9000 X108.66 Y108.094
G1 F1500 X112.34 Y111.775 E294.30637
G0 F9000 X112.34 Y111.209
G1 F1500 X108.66 Y107.529 E294.47947
G0 F9000 X108.66 Y106.963
G1 F1500 X112.34 Y110.643 E294.65256
G0 F9000 X112.34 Y110.077
G1 F1500 X108.66 Y106.397 E294.82566
G0 F9000 X108.66 Y105.831
G1 F1500 X112.34 Y109.511 E294.99875
G0 F9000 X112.34 Y108.946
G1 F1500 X108.66 Y105.266 E295.17185
G0 F9000 X108.66 Y104.7
G1 F1500 X112.34 Y108.38 E295.34495
G0 F9000 X112.339 Y107.813
G1 F1500 X108.66 Y104.134 E295.51799
G0 F9000 X108.66 Y103.569
G1 F1500 X112.339 Y107.248 E295.69104
G0 F9000 X112.339 Y106.682
G1 F1500 X108.66 Y103.003 E295.86409
G0 F9000 X108.66 Y102.437
G1 F1500 X112.339 Y106.116 E296.03714
G0 F9000 X112.339 Y105.551
G1 F1500 X108.66 Y101.872 E296.21019
G0 F9000 X108.66 Y101.306
G1 F1500 X112.338 Y104.984 E296.38319
G0 F9000 X112.338 Y104.419
G1 F1500 X108.66 Y100.74 E296.55622
G0 F9000 X108.66 Y100.175
G1 F1500 X112.338 Y103.853 E296.72922
G0 F9000 X112.338 Y103.287
G1 F1500 X108.66 Y99.609 E296.90222
G0 F9000 X108.66 Y99.043
G1 F1500 X112.338 Y102.721 E297.07522
G0 F9000 X112.338 Y102.155
G1 F1500 X108.843 Y98.661 E297.23959
G0 F9000 X109.409 Y98.661
G1 F1500 X112.338 Y101.59 E297.37736
G0 F9000 X112.338 Y101.024
G1 F1500 X109.974 Y98.661 E297.48854
G0 F9000 X110.54 Y98.661
G1 F1500 X112.337 Y100.457 E297.57304
G0 F9000 X112.337 Y99.892
G1 F1500 X111.106 Y98.661 E297.63094
G0 F9000 X111.671 Y98.661
G1 F1500 X112.337 Y99.326 E297.66224
G0 F9000 X112.337 Y98.76
G1 F1500 X112.237 Y98.661 E297.66692
G0 F9000 X112.237 Y98.201
G0 X108.273 Y98.273
G0 X108.201 Y111.489
G0 X108.661 Y111.489
G1 F1500 X116.512 Y119.341 E298.03623
G0 F9000 X115.947 Y119.341
G1 F1500 X108.661 Y112.055 E298.37895
G0 F9000 X108.661 Y112.62
G1 F1500 X115.382 Y119.341 E298.69508
G0 F9000 X114.816 Y119.341
G1 F1500 X108.661 Y113.186 E298.98459
G0 F9000 X108.661 Y113.752
G1 F1500 X114.251 Y119.342 E299.24753
G0 F9000 X113.685 Y119.342
G1 F1500 X108.661 Y114.317 E299.48387
G0 F9000 X108.661 Y114.883
G1 F1500 X113.168 Y119.391 E299.69589
G0 F9000 X112.785 Y119.573
G1 F1500 X108.661 Y115.449 E299.88987
G0 F9000 X108.661 Y116.015
G1 F1500 X112.522 Y119.876 E300.07148
G0 F9000 X112.353 Y120.273
G1 F1500 X108.661 Y116.58 E300.24516
G0 F9000 X108.661 Y117.146
G1 F1500 X112.337 Y120.822 E300.41807
G0 F9000 X112.337 Y121.388
G1 F1500 X108.661 Y117.712 E300.59097
G0 F9000 X108.661 Y118.277
G1 F1500 X112.337 Y121.953 E300.76388
G0 F9000 X112.337 Y122.519
G1 F1500 X108.661 Y118.843 E300.93679
G0 F9000 X108.661 Y119.409
G1 F1500 X112.337 Y123.085 E301.1097
G0 F9000 X112.338 Y123.651
G1 F1500 X108.661 Y119.974 E301.28265
G0 F9000 X108.661 Y120.54
G1 F1500 X112.338 Y124.217 E301.45561
G0 F9000 X112.338 Y124.783
G1 F1500 X108.661 Y121.106 E301.62856
G0 F9000 X108.661 Y121.671
G1 F1500 X112.338 Y125.348 E301.80152
G0 F9000 X112.338 Y125.914
G1 F1500 X108.661 Y122.237 E301.97447
G0 F9000 X108.661 Y122.803
G1 F1500 X112.338 Y126.48 E302.14743
G0 F9000 X112.338 Y127.046
G1 F1500 X108.661 Y123.368 E302.32041
G0 F9000 X108.661 Y123.935
G1 F1500 X112.338 Y127.612 E302.49336
G0 F9000 X112.338 Y128.177
G1 F1500 X108.661 Y124.5 E302.66631
G0 F9000 X108.661 Y125.066
G1 F1500 X112.338 Y128.743 E302.83927
G0 F9000 X112.339 Y129.31
G1 F1500 X108.661 Y125.632 E303.01227
G0 F9000 X108.661 Y126.198
G1 F1500 X112.339 Y129.875 E303.18525
G0 F9000 X112.339 Y130.441
G1 F1500 X108.661 Y126.763 E303.35825
G0 F9000 X108.661 Y127.329
G1 F1500 X112.339 Y131.007 E303.53125
G0 F9000 X112.342 Y131.575
G1 F1500 X108.661 Y127.895 E303.70437
G1 F2700 E298.70437
G0 F9000 X108.201 Y127.895
G0 X108.273 Y136.727
G0 X126.728 Y136.728
G0 X126.728 Y115.275
G0 X119.623 Y115.204
G1 F2700 E303.70437
G0 F9000 X119.623 Y115.663
G1 F1500 X126.339 Y122.379 E304.02027
G0 F9000 X126.339 Y121.813
G1 F1500 X120.189 Y115.663 E304.30955
G0 F9000 X120.754 Y115.663
G1 F1500 X126.339 Y121.248 E304.57225
G0 F9000 X126.339 Y120.682
G1 F1500 X121.32 Y115.663 E304.80833
G0 F9000 X121.886 Y115.663
G1 F1500 X126.339 Y120.116 E305.01779
G0 F9000 X126.339 Y119.551
G1 F1500 X122.451 Y115.663 E305.20066
G0 F9000 X123.017 Y115.663
G1 F1500 X126.339 Y118.985 E305.35692
G0 F9000 X126.339 Y118.419
G1 F1500 X123.583 Y115.663 E305.48656
G0 F9000 X124.148 Y115.663
G1 F1500 X126.339 Y117.854 E305.58961
G0 F9000 X126.339 Y117.288
G1 F1500 X124.714 Y115.663 E305.66605
G0 F9000 X125.28 Y115.663
G1 F1500 X126.339 Y116.722 E305.71586
G0 F9000 X126.339 Y116.157
G1 F1500 X125.845 Y115.663 E305.7391
G1 F2700 E300.7391
;MESH:NONMESH
G0 F300 X125.845 Y115.663 Z2
G0 F9000 X125.845 Y115.203
G0 X123.375 Y115.303
G0 X122.501 Y119.717
G0 X113.189 Y132.019
;TIME_ELAPSED:512.129089
;LAYER:9
;TYPE:WALL-INNER
;MESH:LETRA P.stl
G1 F2700 E305.7391
G1 F1500 X112.981 Y131.811 E305.74888
G1 X112.897 Y131.503 E305.7595
G1 X112.897 Y120.397 E306.12889
G1 X112.967 Y120.215 E306.13537
G1 X113.136 Y120.018 E306.144
G1 X113.444 Y119.9 E306.15497
G1 X122.621 Y119.898 E306.4602
G1 X122.825 Y119.991 E306.46766
G1 X122.961 Y120.11 E306.47367
G1 X123.064 Y120.285 E306.48042
G1 X123.102 Y120.498 E306.48762
G1 X123.102 Y131.578 E306.85614
G1 X122.961 Y131.891 E306.86756
G1 X122.824 Y132.01 E306.8736
G1 X122.606 Y132.095 E306.88138
G1 X122.502 Y132.103 E306.88485
G1 X113.385 Y132.103 E307.18808
G1 X113.189 Y132.019 E307.19517
G0 F9000 X113.355 Y131.645
;TYPE:WALL-OUTER
G1 F1500 X113.299 Y131.538 E307.19919
G1 X113.297 Y120.464 E307.56751
G1 X113.376 Y120.338 E307.57246
G1 X113.479 Y120.298 E307.57613
G1 X122.543 Y120.298 E307.8776
G1 X122.655 Y120.368 E307.882
G1 X122.702 Y120.447 E307.88505
G1 X122.7 Y131.538 E308.25394
G1 X122.655 Y131.633 E308.25744
G1 X122.537 Y131.701 E308.26197
G1 X113.454 Y131.703 E308.56407
G1 X113.355 Y131.645 E308.56789
G1 F2700 E303.56789
G0 F9000 X112.997 Y131.645
G0 X112.945 Y132.055
G0 X108.301 Y133.987
G0 X108.101 Y136.899
;TYPE:WALL-INNER
G1 F2700 E308.56789
G1 F1500 X126.9 Y136.9 E309.19314
G1 X126.9 Y117.755 E309.82991
G1 X126.9 Y115.103 E309.91811
G1 X113.497 Y115.104 E310.3639
G1 X113.286 Y115.066 E310.37103
G1 X113.136 Y114.984 E310.37672
G1 X112.967 Y114.786 E310.38537
G1 X112.897 Y114.604 E310.39186
G1 X112.897 Y98.101 E310.94075
G1 X108.101 Y98.101 E311.10027
G1 X108.101 Y136.899 E312.39069
G0 F9000 X107.701 Y137.299
;TYPE:WALL-OUTER
G1 F1500 X127.3 Y137.3 E313.04256
G1 X127.3 Y117.755 E313.69263
G1 X127.3 Y114.703 E313.79414
G1 X113.479 Y114.703 E314.25383
G1 X113.376 Y114.664 E314.25749
G1 X113.299 Y114.538 E314.2624
G1 X113.297 Y97.701 E314.8224
G1 X107.701 Y97.701 E315.00853
G1 X107.701 Y137.299 E316.32556
G0 F9000 X107.97 Y137.03
G0 X108.201 Y136.538
G0 X108.462 Y136.538
;TYPE:SKIN
G1 F1500 X126.54 Y136.54 E316.92684
G1 X126.54 Y117.755 E317.55163
G1 X126.54 Y115.463 E317.62786
G1 X113.492 Y115.464 E318.06184
G1 X113.182 Y115.41 E318.07231
G1 X112.918 Y115.272 E318.08221
G1 X112.649 Y114.964 E318.09582
G1 X112.539 Y114.666 E318.10638
G1 X112.537 Y98.461 E318.64536
G1 X108.461 Y98.461 E318.78093
G1 X108.462 Y136.538 E320.04738
G1 F2700 E315.04738
G0 F9000 X108.201 Y136.538
G0 X111.052 Y136.7
G0 X113.096 Y132.173
G0 X112.994 Y132.327
G1 F2700 E320.04738
G1 F1500 X112.701 Y132.034 E320.06116
G1 X112.565 Y131.74 E320.07193
G1 X112.538 Y131.529 E320.07901
G1 X112.537 Y120.324 E320.45169
G1 X112.672 Y120.01 E320.46305
G1 X112.92 Y119.727 E320.47557
G1 X113.132 Y119.61 E320.48362
G1 X113.389 Y119.544 E320.49245
G1 X122.524 Y119.54 E320.79628
G1 X122.807 Y119.589 E320.80583
G1 X122.996 Y119.676 E320.81275
G1 X123.241 Y119.875 E320.82325
