;FLAVOR:Marlin
;TIME:410
;Filament used: 0.24833m
;Layer height: 0.2
;MINX:107.7
;MINY:97.7
;MINZ:0.2
;MAXX:127.3
;MAXY:137.3
;MAXZ:2
;Generated with Cura_SteamEngine 5.2.2
M140 S50
M105
M190 S50
M104 S200
M105
M109 S200
M82 ;absolute extrusion mode
; Ender 3 Custom Start G-code
G92 E0 ; Reset Extruder
G28 ; Home all axes
G1 Z2.0 F3000 ; Move Z Axis up little to prevent scratching of Heat Bed
G1 X0.1 Y20 Z0.3 F5000.0 ; Move to start position
G1 X0.1 Y200.0 Z0.3 F1500.0 E15 ; Draw the first line
G1 X0.4 Y200.0 Z0.3 F5000.0 ; Move to side a little
G1 X0.4 Y20 Z0.3 F1500.0 E30 ; Draw the second line
G92 E0 ; Reset Extruder
G1 Z2.0 F3000 ; Move Z Axis up little to prevent scratching of Heat Bed
G1 X5 Y20 Z0.3 F5000.0 ; Move over to prevent blob squish
G92 E0
G92 E0
G1 F2700 E-5
;LAYER_COUNT:10
;LAYER:0
M107
;MESH:LETRA Y.stl
G0 F6000 X110.136 Y136.859 Z0.2
;TYPE:WALL-INNER
G1 F2700 E0
G1 F1200 X116.933 Y124.347 E0.47359
G1 X117.124 Y124.136 E0.48306
G1 X117.357 Y124.042 E0.49141
G1 X117.574 Y124.044 E0.49863
G1 X117.802 Y124.139 E0.50685
G1 X117.988 Y124.345 E0.51608
G1 X124.858 Y136.9 E0.99209
G1 X126.9 Y136.9 E1.06
G1 X126.9 Y133.028 E1.18879
G1 X126.9 Y132.621 E1.20232
G1 X119.949 Y116.744 E1.77879
G1 X119.901 Y116.556 E1.78524
G1 X119.897 Y98.1 E2.39909
G1 X115.102 Y98.1 E2.55857
G1 X115.097 Y116.556 E3.17242
G1 X115.049 Y116.744 E3.17887
G1 X108.101 Y132.621 E3.7553
G1 X108.1 Y136.89 E3.89728
G1 X110.136 Y136.859 E3.96501
G0 F6000 X110.376 Y137.255
;TYPE:WALL-OUTER
G1 F1200 X117.303 Y124.505 E4.44762
G1 X117.387 Y124.447 E4.45102
G1 X117.537 Y124.448 E4.456
G1 X117.621 Y124.507 E4.45942
G1 X124.621 Y137.3 E4.94445
G1 X127.3 Y137.3 E5.03355
G1 X127.3 Y133.028 E5.17564
G1 X127.3 Y132.537 E5.19197
G1 X120.299 Y116.547 E5.77254
G1 X120.297 Y97.7 E6.3994
G1 X114.702 Y97.7 E6.58549
G1 X114.699 Y116.547 E7.21234
G1 X107.701 Y132.537 E7.79287
G1 X107.7 Y137.296 E7.95116
G1 X110.376 Y137.255 E8.04017
G0 F6000 X109.918 Y136.502
;TYPE:SKIN
G1 F1200 X116.614 Y124.18 E8.50661
G1 X116.915 Y123.836 E8.52181
G1 X117.289 Y123.688 E8.53519
G1 X117.647 Y123.69 E8.54709
G1 X118.01 Y123.838 E8.56013
G1 X118.305 Y124.174 E8.575
G1 X125.073 Y136.54 E9.04387
G1 X126.54 Y136.54 E9.09266
G1 X126.54 Y132.696 E9.22052
G1 X119.612 Y116.873 E9.79503
G1 X119.541 Y116.587 E9.80483
G1 X119.537 Y98.46 E10.40773
G1 X115.463 Y98.46 E10.54323
G1 X115.456 Y116.592 E11.14631
G1 X115.386 Y116.873 E11.15594
G1 X113.901 Y120.269 E11.27922
G1 X108.462 Y132.696 E11.7304
G1 X108.461 Y136.524 E11.85772
G1 X109.918 Y136.502 E11.90618
G0 F6000 X109.159 Y136.312
G1 F1200 X108.661 Y135.813 E11.92963
G0 F6000 X108.661 Y135.248
G1 F1200 X109.716 Y136.304 E11.97928
G0 F6000 X109.968 Y135.99
G1 F1200 X108.661 Y134.682 E12.04078
G0 F6000 X108.661 Y134.116
G1 F1200 X110.167 Y135.623 E12.11164
G0 F6000 X110.367 Y135.257
G1 F1200 X108.661 Y133.551 E12.19188
G0 F6000 X108.661 Y132.985
G1 F1200 X110.566 Y134.89 E12.28149
G0 F6000 X110.765 Y134.524
G1 F1200 X108.757 Y132.516 E12.37594
G0 F6000 X108.929 Y132.122
G1 F1200 X110.964 Y134.157 E12.47166
G0 F6000 X111.163 Y133.79
G1 F1200 X109.102 Y131.729 E12.5686
G0 F6000 X109.274 Y131.335
G1 F1200 X111.362 Y133.424 E12.66684
G0 F6000 X111.562 Y133.058
G1 F1200 X109.446 Y130.942 E12.76637
G0 F6000 X109.618 Y130.548
G1 F1200 X111.761 Y132.691 E12.86717
G0 F6000 X111.96 Y132.325
G1 F1200 X109.791 Y130.155 E12.96922
G0 F6000 X109.962 Y129.761
G1 F1200 X112.159 Y131.958 E13.07256
G0 F6000 X112.358 Y131.591
G1 F1200 X110.135 Y129.368 E13.17712
G0 F6000 X110.307 Y128.974
G1 F1200 X112.557 Y131.225 E13.28298
G0 F6000 X112.757 Y130.859
G1 F1200 X110.479 Y128.581 E13.39013
G0 F6000 X110.651 Y128.187
G1 F1200 X112.956 Y130.492 E13.49855
G0 F6000 X113.155 Y130.126
G1 F1200 X110.824 Y127.794 E13.60821
G0 F6000 X110.996 Y127.401
G1 F1200 X113.354 Y129.759 E13.71913
G0 F6000 X113.553 Y129.392
G1 F1200 X111.168 Y127.007 E13.83131
G0 F6000 X111.341 Y126.614
G1 F1200 X113.752 Y129.026 E13.94474
G0 F6000 X113.952 Y128.66
G1 F1200 X111.512 Y126.22 E14.05951
G0 F6000 X111.685 Y125.827
G1 F1200 X114.151 Y128.293 E14.1755
G0 F6000 X114.35 Y127.926
G1 F1200 X111.857 Y125.433 E14.29276
G0 F6000 X112.029 Y125.04
G1 F1200 X114.549 Y127.56 E14.4113
G0 F6000 X114.748 Y127.193
G1 F1200 X112.201 Y124.646 E14.5311
G0 F6000 X112.374 Y124.253
G1 F1200 X114.947 Y126.827 E14.65215
G0 F6000 X115.147 Y126.461
G1 F1200 X112.545 Y123.859 E14.77454
G0 F6000 X112.718 Y123.466
G1 F1200 X115.346 Y126.094 E14.89815
G0 F6000 X115.545 Y125.727
G1 F1200 X112.89 Y123.072 E15.02304
G0 F6000 X113.062 Y122.679
G1 F1200 X115.744 Y125.361 E15.14919
G0 F6000 X115.943 Y124.994
G1 F1200 X113.234 Y122.285 E15.27661
G0 F6000 X113.407 Y121.892
G1 F1200 X116.142 Y124.628 E15.40528
G0 F6000 X116.342 Y124.261
G1 F1200 X113.579 Y121.498 E15.53525
G0 F6000 X113.751 Y121.105
G1 F1200 X116.568 Y123.922 E15.66775
G0 F6000 X116.859 Y123.647
G1 F1200 X113.923 Y120.711 E15.80585
G0 F6000 X114.095 Y120.318
G1 F1200 X117.261 Y123.484 E15.95477
G0 F6000 X117.929 Y123.586
G1 F1200 X114.267 Y119.924 E16.12702
G0 F6000 X114.44 Y119.531
G1 F1200 X125.321 Y130.413 E16.63885
G0 F6000 X125.743 Y130.229
G0 X126.183 Y131.235
G0 X125.762 Y131.419
G1 F1200 X118.553 Y124.21 E16.97794
G0 F6000 X118.149 Y124.431
G0 X118.833 Y125.68
G0 X119.237 Y125.459
G1 F1200 X126.203 Y132.425 E17.3056
G0 F6000 X126.339 Y133.127
G1 F1200 X119.921 Y126.709 E17.60748
G0 F6000 X119.517 Y126.93
G0 X120.201 Y128.18
G0 X120.605 Y127.959
G1 F1200 X126.339 Y133.693 E17.87719
G0 F6000 X126.339 Y134.259
G1 F1200 X121.29 Y129.209 E18.1147
G0 F6000 X120.885 Y129.43
G0 X121.569 Y130.68
G0 X121.973 Y130.459
G1 F1200 X126.339 Y134.824 E18.32004
G0 F6000 X126.339 Y135.39
G1 F1200 X122.657 Y131.708 E18.49323
G0 F6000 X122.252 Y131.929
G0 X122.936 Y133.18
G0 X123.342 Y132.958
G1 F1200 X126.339 Y135.956 E18.63423
G0 F6000 X126.157 Y136.339
G1 F1200 X124.025 Y134.208 E18.73449
G0 F6000 X123.62 Y134.429
G0 X124.304 Y135.678
G0 X124.709 Y135.457
G1 F1200 X125.591 Y136.339 E18.77597
G0 F6000 X125.008 Y136.8
G0 X126.728 Y136.728
G0 X126.739 Y132.655
G0 X125.302 Y129.222
G0 X124.881 Y129.406
G1 F1200 X114.612 Y119.137 E19.25899
G0 F6000 X114.784 Y118.744
G1 F1200 X124.44 Y128.4 E19.71318
G0 F6000 X124.862 Y128.216
G0 X124.421 Y127.21
G0 X124 Y127.394
G1 F1200 X114.956 Y118.35 E20.13859
G0 F6000 X115.129 Y117.957
G1 F1200 X123.559 Y126.388 E20.53513
G0 F6000 X123.981 Y126.204
G0 X123.541 Y125.198
G0 X123.119 Y125.382
G1 F1200 X115.3 Y117.563 E20.90291
G0 F6000 X115.473 Y117.17
G1 F1200 X122.678 Y124.375 E21.24181
G0 F6000 X123.1 Y124.191
G0 X122.66 Y123.185
G0 X122.238 Y123.369
G1 F1200 X115.622 Y116.753 E21.55301
G0 F6000 X115.656 Y116.222
G1 F1200 X121.797 Y122.363 E21.84186
G0 F6000 X122.219 Y122.179
G0 X121.578 Y120.714
G0 X121.357 Y121.357
G1 F1200 X115.656 Y115.656 E22.11002
G0 F6000 X115.656 Y115.09
G1 F1200 X120.916 Y120.35 E22.35743
G0 F6000 X121.338 Y120.166
G0 X120.897 Y119.16
G0 X120.476 Y119.344
G1 F1200 X115.656 Y114.525 E22.58413
G0 F6000 X115.657 Y113.96
G1 F1200 X120.035 Y118.338 E22.79006
G0 F6000 X120.456 Y118.154
G0 X120.015 Y117.147
G0 X119.594 Y117.331
G1 F1200 X115.657 Y113.394 E22.97524
G0 F6000 X115.657 Y112.828
G1 F1200 X119.341 Y116.513 E23.14855
G0 F6000 X119.341 Y115.947
G1 F1200 X115.657 Y112.263 E23.32183
G0 F6000 X115.657 Y111.698
G1 F1200 X119.341 Y115.382 E23.49512
G0 F6000 X119.341 Y114.816
G1 F1200 X115.657 Y111.132 E23.6684
G0 F6000 X115.657 Y110.566
G1 F1200 X119.341 Y114.25 E23.84169
G0 F6000 X119.341 Y113.684
G1 F1200 X115.657 Y110.001 E24.01495
G0 F6000 X115.658 Y109.436
G1 F1200 X119.341 Y113.118 E24.18816
G0 F6000 X119.341 Y112.553
G1 F1200 X115.658 Y108.87 E24.3614
G0 F6000 X115.658 Y108.304
G1 F1200 X119.34 Y111.986 E24.53459
G0 F6000 X119.34 Y111.42
G1 F1200 X115.658 Y107.739 E24.70775
G0 F6000 X115.659 Y107.174
G1 F1200 X119.34 Y110.855 E24.8809
G0 F6000 X119.34 Y110.289
G1 F1200 X115.659 Y106.608 E25.05404
G0 F6000 X115.659 Y106.042
G1 F1200 X119.339 Y109.723 E25.22716
G0 F6000 X119.339 Y109.157
G1 F1200 X115.659 Y105.476 E25.40028
G0 F6000 X115.66 Y104.912
G1 F1200 X119.339 Y108.591 E25.57333
G0 F6000 X119.339 Y108.026
G1 F1200 X115.66 Y104.346 E25.7464
G0 F6000 X115.66 Y103.78
G1 F1200 X119.339 Y107.459 E25.91945
G0 F6000 X119.339 Y106.894
G1 F1200 X115.66 Y103.214 E26.09252
G0 F6000 X115.66 Y102.649
G1 F1200 X119.339 Y106.328 E26.26557
G0 F6000 X119.339 Y105.762
G1 F1200 X115.66 Y102.084 E26.43859
G0 F6000 X115.66 Y101.518
G1 F1200 X119.338 Y105.196 E26.6116
G0 F6000 X119.338 Y104.63
G1 F1200 X115.66 Y100.952 E26.7846
G0 F6000 X115.661 Y100.387
G1 F1200 X119.338 Y104.064 E26.95755
G0 F6000 X119.338 Y103.499
G1 F1200 X115.661 Y99.822 E27.13051
G0 F6000 X115.661 Y99.256
G1 F1200 X119.337 Y102.932 E27.30342
G0 F6000 X119.337 Y102.367
G1 F1200 X115.661 Y98.69 E27.47635
G0 F6000 X116.196 Y98.66
G1 F1200 X119.337 Y101.801 E27.62409
G0 F6000 X119.337 Y101.235
G1 F1200 X116.762 Y98.66 E27.74521
G0 F6000 X117.328 Y98.66
G1 F1200 X119.336 Y100.669 E27.83968
G0 F6000 X119.336 Y100.103
G1 F1200 X117.893 Y98.66 E27.90756
G0 F6000 X118.459 Y98.66
G1 F1200 X119.336 Y99.538 E27.94883
G0 F6000 X119.336 Y98.972
G1 F1200 X119.025 Y98.66 E27.96348
G1 F2700 E22.96348
;MESH:NONMESH
G0 F300 X119.025 Y98.66 Z0.4
G0 F6000 X119.025 Y98.2
G0 X115.274 Y98.272
G0 X114.938 Y116.595
G0 X108.262 Y132.655
G0 X108.272 Y136.715
G0 X110.128 Y136.663
G1 F2700 E27.96348
G0 F6000 X110.136 Y136.859
;TIME_ELAPSED:56.452636
;LAYER:1
M106 S85
;TYPE:WALL-INNER
;MESH:LETRA Y.stl
G1 F1350 X116.933 Y124.347 E28.43708
G1 X117.124 Y124.136 E28.44654
G1 X117.357 Y124.042 E28.4549
G1 X117.574 Y124.044 E28.46212
G1 X117.802 Y124.139 E28.47033
G1 X117.988 Y124.345 E28.47956
G1 X124.858 Y136.9 E28.95557
G1 X126.9 Y136.9 E29.02349
G1 X126.9 Y133.028 E29.15227
G1 X126.9 Y132.621 E29.16581
G1 X119.949 Y116.744 E29.74227
G1 X119.901 Y116.556 E29.74873
G1 X119.897 Y98.1 E30.36257
G1 X115.102 Y98.1 E30.52206
G1 X115.097 Y116.556 E31.13591
G1 X115.049 Y116.744 E31.14236
G1 X108.101 Y132.621 E31.71878
G1 X108.1 Y136.89 E31.86077
G1 X110.136 Y136.859 E31.92849
G0 F7500 X110.376 Y137.255
;TYPE:WALL-OUTER
G1 F1350 X117.303 Y124.505 E32.41111
G1 X117.387 Y124.447 E32.4145
G1 X117.537 Y124.448 E32.41949
G1 X117.621 Y124.507 E32.4229
G1 X124.621 Y137.3 E32.90793
G1 X127.3 Y137.3 E32.99704
G1 X127.3 Y133.028 E33.13912
G1 X127.3 Y132.537 E33.15545
G1 X120.299 Y116.547 E33.73603
G1 X120.297 Y97.7 E34.36288
G1 X114.702 Y97.7 E34.54897
G1 X114.699 Y116.547 E35.17582
G1 X107.701 Y132.537 E35.75636
G1 X107.7 Y137.296 E35.91464
G1 X110.376 Y137.255 E36.00366
G0 F7500 X109.918 Y136.502
;TYPE:SKIN
G1 F1350 X116.614 Y124.18 E36.47009
G1 X116.915 Y123.836 E36.48529
G1 X117.289 Y123.688 E36.49867
G1 X117.647 Y123.69 E36.51058
G1 X118.01 Y123.838 E36.52362
G1 X118.305 Y124.174 E36.53849
G1 X125.073 Y136.54 E37.00736
G1 X126.54 Y136.54 E37.05615
G1 X126.54 Y133.027 E37.17299
G1 X126.54 Y132.696 E37.184
G1 X119.612 Y116.873 E37.75851
G1 X119.541 Y116.587 E37.76831
G1 X119.537 Y98.46 E38.37122
G1 X115.463 Y98.46 E38.50672
G1 X115.456 Y116.592 E39.10979
G1 X115.386 Y116.873 E39.11942
G1 X108.462 Y132.696 E39.69388
G1 X108.461 Y136.524 E39.8212
G1 X109.918 Y136.502 E39.86967
G1 F2700 E34.86967
G0 F7500 X109.921 Y136.763
G0 X110.379 Y136.763
G0 X117.203 Y124.202
G0 X117.718 Y124.202
G0 X124.611 Y136.795
G0 X126.138 Y136.8
G1 F2700 E39.86967
G0 F7500 X126.138 Y136.339
G1 F1350 X126.339 Y136.138 E39.87912
G0 F7500 X126.339 Y135.572
G1 F1350 X125.572 Y136.339 E39.9152
G0 F7500 X125.127 Y136.219
G1 F1350 X126.339 Y135.007 E39.97221
G0 F7500 X126.339 Y134.441
G1 F1350 X124.927 Y135.853 E40.03862
G0 F7500 X124.727 Y135.488
G1 F1350 X126.339 Y133.875 E40.11447
G0 F7500 X126.339 Y133.31
G1 F1350 X124.527 Y135.122 E40.1997
G0 F7500 X124.327 Y134.756
G1 F1350 X126.339 Y132.744 E40.29434
G0 F7500 X126.169 Y132.349
G1 F1350 X124.126 Y134.391 E40.39041
G0 F7500 X123.926 Y134.025
G1 F1350 X125.996 Y131.956 E40.48775
G0 F7500 X125.824 Y131.562
G1 F1350 X123.726 Y133.66 E40.58644
G0 F7500 X123.526 Y133.294
G1 F1350 X125.652 Y131.169 E40.68642
G0 F7500 X125.48 Y130.775
G1 F1350 X123.326 Y132.929 E40.78773
G0 F7500 X123.126 Y132.563
G1 F1350 X125.307 Y130.382 E40.89032
G0 F7500 X125.135 Y129.988
G1 F1350 X122.926 Y132.197 E40.99422
G0 F7500 X122.726 Y131.832
G1 F1350 X124.963 Y129.594 E41.09947
G0 F7500 X124.79 Y129.201
G1 F1350 X122.526 Y131.466 E41.20599
G0 F7500 X122.325 Y131.101
G1 F1350 X124.618 Y128.808 E41.31384
G0 F7500 X124.446 Y128.414
G1 F1350 X122.125 Y130.735 E41.42301
G0 F7500 X121.925 Y130.369
G1 F1350 X124.274 Y128.021 E41.53348
G0 F7500 X124.102 Y127.627
G1 F1350 X121.725 Y130.004 E41.64529
G0 F7500 X121.525 Y129.638
G1 F1350 X123.929 Y127.234 E41.75836
G0 F7500 X123.757 Y126.841
G1 F1350 X121.325 Y129.273 E41.87276
G0 F7500 X121.125 Y128.907
G1 F1350 X123.585 Y126.447 E41.98847
G0 F7500 X123.412 Y126.054
G1 F1350 X120.925 Y128.542 E42.10547
G0 F7500 X120.725 Y128.176
G1 F1350 X123.24 Y125.66 E42.22379
G0 F7500 X123.068 Y125.267
G1 F1350 X120.524 Y127.81 E42.34343
G0 F7500 X120.324 Y127.445
G1 F1350 X122.895 Y124.874 E42.46436
G0 F7500 X122.724 Y124.48
G1 F1350 X120.124 Y127.079 E42.58664
G0 F7500 X119.924 Y126.714
G1 F1350 X122.551 Y124.087 E42.7102
G0 F7500 X122.379 Y123.693
G1 F1350 X119.724 Y126.348 E42.83509
G0 F7500 X119.524 Y125.983
G1 F1350 X122.207 Y123.3 E42.96129
G0 F7500 X122.034 Y122.907
G1 F1350 X119.324 Y125.617 E43.08876
G0 F7500 X119.124 Y125.251
G1 F1350 X121.862 Y122.513 E43.21754
G0 F7500 X121.69 Y122.12
G1 F1350 X118.924 Y124.886 E43.34765
G0 F7500 X118.723 Y124.52
G1 F1350 X121.518 Y121.726 E43.47909
G0 F7500 X121.345 Y121.333
G1 F1350 X118.523 Y124.155 E43.61183
G0 F7500 X118.278 Y123.834
G1 F1350 X121.173 Y120.94 E43.74798
G0 F7500 X121.001 Y120.546
G1 F1350 X117.951 Y123.596 E43.89144
G0 F7500 X117.496 Y123.485
G1 F1350 X120.828 Y120.152 E44.04819
G0 F7500 X120.657 Y119.759
G1 F1350 X109.426 Y130.989 E44.57644
G0 F7500 X109.006 Y130.804
G0 X108.567 Y131.809
G0 X108.987 Y131.994
G1 F1350 X115.89 Y125.091 E44.90114
G0 F7500 X116.294 Y125.311
G0 X115.621 Y126.55
G0 X115.217 Y126.33
G1 F1350 X108.661 Y132.885 E45.20949
G0 F7500 X108.661 Y133.451
G1 F1350 X114.544 Y127.569 E45.48618
G0 F7500 X114.948 Y127.789
G0 X114.274 Y129.029
G0 X113.87 Y128.808
G1 F1350 X108.661 Y134.017 E45.7312
G0 F7500 X108.661 Y134.582
G1 F1350 X113.197 Y130.047 E45.94453
G0 F7500 X113.601 Y130.267
G0 X112.928 Y131.506
G0 X112.524 Y131.286
G1 F1350 X108.661 Y135.148 E46.12621
G0 F7500 X108.661 Y135.714
G1 F1350 X111.85 Y132.525 E46.27621
G0 F7500 X112.254 Y132.745
G0 X111.581 Y133.985
G0 X111.177 Y133.764
G1 F1350 X108.661 Y136.279 E46.39454
G0 F7500 X109.194 Y136.312
G1 F1350 X110.504 Y135.002 E46.45615
G0 F7500 X110.909 Y135.223
G0 X110.237 Y136.462
G0 X109.831 Y136.241
G1 F1350 X109.769 Y136.304 E46.45909
G0 F7500 X109.98 Y136.762
G0 X108.272 Y136.715
G0 X108.262 Y132.655
G0 X109.446 Y129.799
G0 X109.866 Y129.983
G1 F1350 X120.484 Y119.365 E46.95853
G0 F7500 X120.312 Y118.972
G1 F1350 X110.307 Y128.977 E47.42914
G0 F7500 X109.887 Y128.792
G0 X110.327 Y127.787
G0 X110.747 Y127.972
G1 F1350 X120.14 Y118.578 E47.87098
G0 F7500 X119.967 Y118.185
G1 F1350 X111.187 Y126.965 E48.28396
G0 F7500 X110.767 Y126.781
G0 X111.208 Y125.775
G0 X111.627 Y125.96
G1 F1350 X119.795 Y117.791 E48.66818
G0 F7500 X119.623 Y117.398
G1 F1350 X112.067 Y124.954 E49.02359
G0 F7500 X111.647 Y124.77
G0 X112.088 Y123.764
G0 X112.507 Y123.948
G1 F1350 X119.45 Y117.005 E49.35017
G0 F7500 X119.341 Y116.549
G1 F1350 X112.948 Y122.942 E49.65088
G0 F7500 X112.528 Y122.757
G0 X112.967 Y121.755
G0 X113.388 Y121.937
G1 F1350 X119.341 Y115.983 E49.93091
G0 F7500 X119.341 Y115.418
G1 F1350 X113.827 Y120.931 E50.19025
G0 F7500 X113.408 Y120.746
G0 X113.848 Y119.74
G0 X114.268 Y119.925
G1 F1350 X119.341 Y114.852 E50.42887
G0 F7500 X119.34 Y114.287
G1 F1350 X114.708 Y118.919 E50.64674
G0 F7500 X114.288 Y118.734
G0 X114.728 Y117.729
G0 X115.148 Y117.913
G1 F1350 X119.34 Y113.721 E50.84392
G0 F7500 X119.34 Y113.156
G1 F1350 X115.581 Y116.915 E51.02074
G0 F7500 X115.657 Y116.273
G1 F1350 X119.34 Y112.59 E51.19397
G0 F7500 X119.339 Y112.025
G1 F1350 X115.657 Y115.708 E51.36719
G0 F7500 X115.657 Y115.142
G1 F1350 X119.339 Y111.459 E51.5404
G0 F7500 X119.339 Y110.894
G1 F1350 X115.657 Y114.576 E51.71359
G0 F7500 X115.657 Y114.01
G1 F1350 X119.339 Y110.328 E51.88678
G0 F7500 X119.339 Y109.763
G1 F1350 X115.657 Y113.444 E52.05995
G0 F7500 X115.657 Y112.878
G1 F1350 X119.339 Y109.197 E52.23311
G0 F7500 X119.339 Y108.632
G1 F1350 X115.657 Y112.313 E52.40628
G0 F7500 X115.658 Y111.746
G1 F1350 X119.339 Y108.066 E52.5794
G0 F7500 X119.338 Y107.501
G1 F1350 X115.658 Y111.181 E52.75249
G0 F7500 X115.658 Y110.615
G1 F1350 X119.338 Y106.935 E52.92559
G0 F7500 X119.338 Y106.37
G1 F1350 X115.658 Y110.049 E53.09866
G0 F7500 X115.659 Y109.483
G1 F1350 X119.338 Y105.804 E53.27171
G0 F7500 X119.337 Y105.239
G1 F1350 X115.659 Y108.917 E53.44471
G0 F7500 X115.659 Y108.352
G1 F1350 X119.337 Y104.673 E53.61774
G0 F7500 X119.337 Y104.108
G1 F1350 X115.659 Y107.786 E53.79074
G0 F7500 X115.66 Y107.22
G1 F1350 X119.337 Y103.542 E53.96372
G0 F7500 X119.336 Y102.977
G1 F1350 X115.66 Y106.654 E54.13665
G0 F7500 X115.66 Y106.088
G1 F1350 X119.336 Y102.411 E54.30958
G0 F7500 X119.336 Y101.846
G1 F1350 X115.66 Y105.522 E54.48249
G0 F7500 X115.66 Y104.956
G1 F1350 X119.336 Y101.28 E54.6554
G0 F7500 X119.336 Y100.715
G1 F1350 X115.66 Y104.39 E54.82828
G0 F7500 X115.66 Y103.825
G1 F1350 X119.336 Y100.149 E55.00119
G0 F7500 X119.336 Y99.583
G1 F1350 X115.66 Y103.259 E55.1741
G0 F7500 X115.661 Y102.693
G1 F1350 X119.336 Y99.018 E55.34696
G0 F7500 X119.128 Y98.66
G1 F1350 X115.661 Y102.127 E55.51003
G0 F7500 X115.661 Y101.561
G1 F1350 X118.562 Y98.66 E55.64649
G0 F7500 X117.997 Y98.66
G1 F1350 X115.661 Y100.996 E55.75637
G0 F7500 X115.662 Y100.429
G1 F1350 X117.431 Y98.66 E55.83958
G0 F7500 X116.865 Y98.66
G1 F1350 X115.662 Y99.863 E55.89616
G0 F7500 X115.662 Y99.298
G1 F1350 X116.299 Y98.66 E55.92615
G0 F7500 X115.734 Y98.66
G1 F1350 X115.662 Y98.732 E55.92953
G1 F2700 E50.92953
;MESH:NONMESH
G0 F300 X115.662 Y98.732 Z0.6
G0 F7500 X115.202 Y98.732
G0 X114.938 Y116.595
G0 X108.262 Y132.655
G0 X108.272 Y136.715
G0 X110.128 Y136.663
G1 F2700 E55.92953
G0 F7500 X110.136 Y136.859
;TIME_ELAPSED:105.305600
;LAYER:2
M106 S170
;TYPE:WALL-INNER
;MESH:LETRA Y.stl
G1 F1500 X116.933 Y124.347 E56.40312
G1 X117.124 Y124.136 E56.41259
G1 X117.357 Y124.042 E56.42095
G1 X117.574 Y124.044 E56.42817
G1 X117.802 Y124.139 E56.43638
G1 X117.988 Y124.345 E56.44561
G1 X124.858 Y136.9 E56.92162
G1 X126.9 Y136.9 E56.98954
G1 X126.9 Y133.028 E57.11832
G1 X126.9 Y132.621 E57.13186
G1 X119.949 Y116.744 E57.70832
G1 X119.901 Y116.556 E57.71477
G1 X119.897 Y98.1 E58.32862
G1 X115.102 Y98.1 E58.48811
G1 X115.097 Y116.556 E59.10195
G1 X115.049 Y116.744 E59.10841
G1 X108.101 Y132.621 E59.68483
G1 X108.1 Y136.89 E59.82682
G1 X110.136 Y136.859 E59.89454
G0 F9000 X110.376 Y137.255
;TYPE:WALL-OUTER
G1 F1500 X117.303 Y124.505 E60.37715
G1 X117.387 Y124.447 E60.38055
G1 X117.537 Y124.448 E60.38554
G1 X117.621 Y124.507 E60.38895
G1 X124.621 Y137.3 E60.87398
G1 X127.3 Y137.3 E60.96309
G1 X127.3 Y133.028 E61.10517
G1 X127.3 Y132.537 E61.1215
G1 X120.299 Y116.547 E61.70208
G1 X120.297 Y97.7 E62.32893
G1 X114.702 Y97.7 E62.51502
G1 X114.699 Y116.547 E63.14187
G1 X107.701 Y132.537 E63.72241
G1 X107.7 Y137.296 E63.88069
G1 X110.376 Y137.255 E63.9697
G0 F9000 X109.918 Y136.502
;TYPE:SKIN
G1 F1500 X116.614 Y124.18 E64.43614
G1 X116.915 Y123.836 E64.45134
G1 X117.289 Y123.688 E64.46472
G1 X117.647 Y123.69 E64.47663
G1 X118.01 Y123.838 E64.48967
G1 X118.305 Y124.174 E64.50454
G1 X125.073 Y136.54 E64.9734
G1 X126.54 Y136.54 E65.0222
G1 X126.54 Y133.027 E65.13904
G1 X126.54 Y132.696 E65.15005
G1 X119.612 Y116.873 E65.72456
G1 X119.541 Y116.587 E65.73436
G1 X119.537 Y98.46 E66.33727
G1 X115.463 Y98.46 E66.47277
G1 X115.456 Y116.592 E67.07584
G1 X115.386 Y116.873 E67.08547
G1 X108.462 Y132.696 E67.65993
G1 X108.461 Y136.524 E67.78725
G1 X109.918 Y136.502 E67.83571
G0 F9000 X109.159 Y136.312
G1 F1500 X108.661 Y135.813 E67.85916
G0 F9000 X108.661 Y135.248
G1 F1500 X109.716 Y136.304 E67.90881
G0 F9000 X109.968 Y135.99
G1 F1500 X108.661 Y134.682 E67.97031
G0 F9000 X108.661 Y134.116
G1 F1500 X110.167 Y135.623 E68.04117
G0 F9000 X110.367 Y135.257
G1 F1500 X108.661 Y133.551 E68.12142
G0 F9000 X108.661 Y132.985
G1 F1500 X110.566 Y134.89 E68.21102
G0 F9000 X110.765 Y134.524
G1 F1500 X108.757 Y132.516 E68.30547
G0 F9000 X108.929 Y132.122
G1 F1500 X110.964 Y134.157 E68.40119
G0 F9000 X111.163 Y133.79
G1 F1500 X109.102 Y131.729 E68.49814
G0 F9000 X109.274 Y131.335
G1 F1500 X111.362 Y133.424 E68.59637
G0 F9000 X111.562 Y133.058
G1 F1500 X109.446 Y130.942 E68.6959
G0 F9000 X109.618 Y130.548
G1 F1500 X111.761 Y132.691 E68.7967
G0 F9000 X111.96 Y132.325
G1 F1500 X109.791 Y130.155 E68.89875
G0 F9000 X109.962 Y129.761
G1 F1500 X112.159 Y131.958 E69.00209
G0 F9000 X112.358 Y131.591
G1 F1500 X110.135 Y129.368 E69.10665
G0 F9000 X110.307 Y128.974
G1 F1500 X112.557 Y131.225 E69.21251
G0 F9000 X112.757 Y130.859
G1 F1500 X110.479 Y128.581 E69.31966
G0 F9000 X110.651 Y128.187
G1 F1500 X112.956 Y130.492 E69.42808
G0 F9000 X113.155 Y130.126
G1 F1500 X110.824 Y127.794 E69.53775
G0 F9000 X110.996 Y127.401
G1 F1500 X113.354 Y129.759 E69.64866
G0 F9000 X113.553 Y129.392
G1 F1500 X111.168 Y127.007 E69.76084
G0 F9000 X111.341 Y126.614
G1 F1500 X113.752 Y129.026 E69.87427
G0 F9000 X113.952 Y128.66
G1 F1500 X111.512 Y126.22 E69.98904
G0 F9000 X111.685 Y125.827
G1 F1500 X114.151 Y128.293 E70.10503
G0 F9000 X114.35 Y127.926
G1 F1500 X111.857 Y125.433 E70.2223
G0 F9000 X112.029 Y125.04
G1 F1500 X114.549 Y127.56 E70.34083
G0 F9000 X114.748 Y127.193
G1 F1500 X112.201 Y124.646 E70.46063
G0 F9000 X112.374 Y124.253
G1 F1500 X114.947 Y126.827 E70.58168
G0 F9000 X115.147 Y126.461
G1 F1500 X112.545 Y123.859 E70.70407
G0 F9000 X112.718 Y123.466
G1 F1500 X115.346 Y126.094 E70.82769
G0 F9000 X115.545 Y125.727
G1 F1500 X112.89 Y123.072 E70.95257
G0 F9000 X113.062 Y122.679
G1 F1500 X115.744 Y125.361 E71.07872
G0 F9000 X115.943 Y124.994
G1 F1500 X113.234 Y122.285 E71.20615
G0 F9000 X113.407 Y121.892
G1 F1500 X116.142 Y124.628 E71.33482
G0 F9000 X116.342 Y124.261
G1 F1500 X113.579 Y121.498 E71.46478
G0 F9000 X113.751 Y121.105
G1 F1500 X116.568 Y123.922 E71.59728
G0 F9000 X116.859 Y123.647
G1 F1500 X113.923 Y120.711 E71.73538
G0 F9000 X114.095 Y120.318
G1 F1500 X117.261 Y123.484 E71.8843
G0 F9000 X117.929 Y123.586
G1 F1500 X114.267 Y119.924 E72.05655
G0 F9000 X114.44 Y119.531
G1 F1500 X125.321 Y130.413 E72.56838
G0 F9000 X125.743 Y130.229
G0 X126.183 Y131.235
G0 X125.762 Y131.419
G1 F1500 X118.553 Y124.21 E72.90747
G0 F9000 X118.149 Y124.431
G0 X118.833 Y125.68
G0 X119.237 Y125.459
G1 F1500 X126.203 Y132.425 E73.23513
G0 F9000 X126.339 Y133.127
G1 F1500 X119.921 Y126.709 E73.53701
G0 F9000 X119.517 Y126.93
G0 X120.201 Y128.18
G0 X120.605 Y127.959
G1 F1500 X126.339 Y133.693 E73.80672
G0 F9000 X126.339 Y134.259
G1 F1500 X121.29 Y129.209 E74.04424
G0 F9000 X120.885 Y129.43
G0 X121.569 Y130.68
G0 X121.973 Y130.459
G1 F1500 X126.339 Y134.824 E74.24958
G0 F9000 X126.339 Y135.39
G1 F1500 X122.657 Y131.708 E74.42277
G0 F9000 X122.252 Y131.929
G0 X122.936 Y133.18
G0 X123.342 Y132.958
G1 F1500 X126.339 Y135.956 E74.56376
G0 F9000 X126.157 Y136.339
G1 F1500 X124.025 Y134.208 E74.66402
G0 F9000 X123.62 Y134.429
G0 X124.304 Y135.678
G0 X124.709 Y135.457
G1 F1500 X125.591 Y136.339 E74.70551
G0 F9000 X125.008 Y136.8
G0 X126.728 Y136.728
G0 X126.739 Y132.655
G0 X125.302 Y129.222
G0 X124.881 Y129.406
G1 F1500 X114.612 Y119.137 E75.18853
G0 F9000 X114.784 Y118.744
G1 F1500 X124.44 Y128.4 E75.64272
G0 F9000 X124.862 Y128.216
G0 X124.421 Y127.21
G0 X124 Y127.394
G1 F1500 X114.956 Y118.35 E76.06812
G0 F9000 X115.129 Y117.957
G1 F1500 X123.559 Y126.388 E76.46466
G0 F9000 X123.981 Y126.204
G0 X123.541 Y125.198
G0 X123.119 Y125.382
G1 F1500 X115.3 Y117.563 E76.83245
G0 F9000 X115.473 Y117.17
G1 F1500 X122.678 Y124.375 E77.17135
G0 F9000 X123.1 Y124.191
G0 X122.66 Y123.185
G0 X122.238 Y123.369
G1 F1500 X115.622 Y116.753 E77.48254
G0 F9000 X115.656 Y116.222
G1 F1500 X121.797 Y122.363 E77.7714
G0 F9000 X122.219 Y122.179
G0 X121.578 Y120.714
G0 X121.357 Y121.357
G1 F1500 X115.656 Y115.656 E78.03955
G0 F9000 X115.656 Y115.09
G1 F1500 X120.916 Y120.35 E78.28697
G0 F9000 X121.338 Y120.166
G0 X120.897 Y119.16
G0 X120.476 Y119.344
G1 F1500 X115.656 Y114.525 E78.51366
G0 F9000 X115.657 Y113.96
G1 F1500 X120.035 Y118.338 E78.71959
G0 F9000 X120.456 Y118.154
G0 X120.015 Y117.147
G0 X119.594 Y117.331
G1 F1500 X115.657 Y113.394 E78.90478
G0 F9000 X115.657 Y112.828
G1 F1500 X119.341 Y116.513 E79.07808
G0 F9000 X119.341 Y115.947
G1 F1500 X115.657 Y112.263 E79.25137
G0 F9000 X115.657 Y111.698
G1 F1500 X119.341 Y115.382 E79.42465
G0 F9000 X119.341 Y114.816
G1 F1500 X115.657 Y111.132 E79.59793
G0 F9000 X115.657 Y110.566
G1 F1500 X119.341 Y114.25 E79.77122
G0 F9000 X119.341 Y113.684
G1 F1500 X115.657 Y110.001 E79.94448
G0 F9000 X115.658 Y109.436
G1 F1500 X119.341 Y113.118 E80.11769
G0 F9000 X119.341 Y112.553
G1 F1500 X115.658 Y108.87 E80.29093
G0 F9000 X115.658 Y108.304
G1 F1500 X119.34 Y111.986 E80.46412
G0 F9000 X119.34 Y111.42
G1 F1500 X115.658 Y107.739 E80.63729
G0 F9000 X115.659 Y107.174
G1 F1500 X119.34 Y110.855 E80.81043
G0 F9000 X119.34 Y110.289
G1 F1500 X115.659 Y106.608 E80.98357
G0 F9000 X115.659 Y106.042
G1 F1500 X119.339 Y109.723 E81.15669
G0 F9000 X119.339 Y109.157
G1 F1500 X115.659 Y105.476 E81.32981
G0 F9000 X115.66 Y104.912
G1 F1500 X119.339 Y108.591 E81.50286
G0 F9000 X119.339 Y108.026
G1 F1500 X115.66 Y104.346 E81.67593
G0 F9000 X115.66 Y103.78
G1 F1500 X119.339 Y107.459 E81.84898
G0 F9000 X119.339 Y106.894
G1 F1500 X115.66 Y103.214 E82.02205
G0 F9000 X115.66 Y102.649
G1 F1500 X119.339 Y106.328 E82.1951
G0 F9000 X119.339 Y105.762
G1 F1500 X115.66 Y102.084 E82.36813
G0 F9000 X115.66 Y101.518
G1 F1500 X119.338 Y105.196 E82.54113
G0 F9000 X119.338 Y104.63
G1 F1500 X115.66 Y100.952 E82.71413
G0 F9000 X115.661 Y100.387
G1 F1500 X119.338 Y104.064 E82.88709
G0 F9000 X119.338 Y103.499
G1 F1500 X115.661 Y99.822 E83.06004
G0 F9000 X115.661 Y99.256
G1 F1500 X119.337 Y102.932 E83.23295
G0 F9000 X119.337 Y102.367
G1 F1500 X115.661 Y98.69 E83.40588
G0 F9000 X116.196 Y98.66
G1 F1500 X119.337 Y101.801 E83.55362
G0 F9000 X119.337 Y101.235
G1 F1500 X116.762 Y98.66 E83.67474
G0 F9000 X117.328 Y98.66
G1 F1500 X119.336 Y100.669 E83.76922
G0 F9000 X119.336 Y100.103
G1 F1500 X117.893 Y98.66 E83.83709
G0 F9000 X118.459 Y98.66
G1 F1500 X119.336 Y99.538 E83.87837
G0 F9000 X119.336 Y98.972
G1 F1500 X119.025 Y98.66 E83.89302
G1 F2700 E78.89302
;MESH:NONMESH
G0 F300 X119.025 Y98.66 Z0.8
G0 F9000 X119.025 Y98.2
G0 X115.274 Y98.272
G0 X114.938 Y116.595
G0 X108.262 Y132.655
G0 X108.272 Y136.715
G0 X110.128 Y136.663
G1 F2700 E83.89302
G0 F9000 X110.136 Y136.859
;TIME_ELAPSED:150.050976
;LAYER:3
M106 S255
;TYPE:WALL-INNER
;MESH:LETRA Y.stl
G1 F1500 X116.933 Y124.347 E84.36661
G1 X117.124 Y124.136 E84.37608
G1 X117.357 Y124.042 E84.38443
G1 X117.574 Y124.044 E84.39165
G1 X117.802 Y124.139 E84.39987
G1 X117.988 Y124.345 E84.4091
G1 X124.858 Y136.9 E84.88511
G1 X126.9 Y136.9 E84.95302
G1 X126.9 Y133.028 E85.08181
G1 X126.9 Y132.621 E85.09534
G1 X119.949 Y116.744 E85.67181
G1 X119.901 Y116.556 E85.67826
G1 X119.897 Y98.1 E86.29211
G1 X115.102 Y98.1 E86.45159
G1 X115.097 Y116.556 E87.06544
G1 X115.049 Y116.744 E87.07189
G1 X108.101 Y132.621 E87.64831
G1 X108.1 Y136.89 E87.7903
G1 X110.136 Y136.859 E87.85803
G0 F9000 X110.376 Y137.255
;TYPE:WALL-OUTER
G1 F1500 X117.303 Y124.505 E88.34064
G1 X117.387 Y124.447 E88.34403
G1 X117.537 Y124.448 E88.34902
G1 X117.621 Y124.507 E88.35244
G1 X124.621 Y137.3 E88.83747
G1 X127.3 Y137.3 E88.92657
G1 X127.3 Y133.028 E89.06866
G1 X127.3 Y132.537 E89.08499
G1 X120.299 Y116.547 E89.66556
G1 X120.297 Y97.7 E90.29241
G1 X114.702 Y97.7 E90.4785
G1 X114.699 Y116.547 E91.10536
G1 X107.701 Y132.537 E91.68589
G1 X107.7 Y137.296 E91.84418
G1 X110.376 Y137.255 E91.93319
G0 F9000 X109.918 Y136.502
;TYPE:SKIN
G1 F1500 X116.614 Y124.18 E92.39962
G1 X116.915 Y123.836 E92.41483
G1 X117.289 Y123.688 E92.42821
G1 X117.647 Y123.69 E92.44011
G1 X118.01 Y123.838 E92.45315
G1 X118.305 Y124.174 E92.46802
G1 X125.073 Y136.54 E92.93689
G1 X126.54 Y136.54 E92.98568
G1 X126.54 Y133.027 E93.10252
G1 X126.54 Y132.696 E93.11353
G1 X119.612 Y116.873 E93.68804
G1 X119.541 Y116.587 E93.69784
G1 X119.537 Y98.46 E94.30075
G1 X115.463 Y98.46 E94.43625
G1 X115.456 Y116.592 E95.03933
G1 X115.386 Y116.873 E95.04896
G1 X108.462 Y132.696 E95.62341
G1 X108.461 Y136.524 E95.75073
G1 X109.918 Y136.502 E95.7992
G1 F2700 E90.7992
G0 F9000 X109.921 Y136.763
G0 X110.379 Y136.763
G0 X117.203 Y124.202
G0 X117.718 Y124.202
G0 X124.611 Y136.795
G0 X126.138 Y136.8
G1 F2700 E95.7992
G0 F9000 X126.138 Y136.339
G1 F1500 X126.339 Y136.138 E95.80865
G0 F9000 X126.339 Y135.572
G1 F1500 X125.572 Y136.339 E95.84473
G0 F9000 X125.127 Y136.219
G1 F1500 X126.339 Y135.007 E95.90174
G0 F9000 X126.339 Y134.441
G1 F1500 X124.927 Y135.853 E95.96816
G0 F9000 X124.727 Y135.488
G1 F1500 X126.339 Y133.875 E96.044
G0 F9000 X126.339 Y133.31
G1 F1500 X124.527 Y135.122 E96.12923
G0 F9000 X124.327 Y134.756
G1 F1500 X126.339 Y132.744 E96.22387
G0 F9000 X126.169 Y132.349
G1 F1500 X124.126 Y134.391 E96.31995
G0 F9000 X123.926 Y134.025
G1 F1500 X125.996 Y131.956 E96.41729
G0 F9000 X125.824 Y131.562
G1 F1500 X123.726 Y133.66 E96.51597
G0 F9000 X123.526 Y133.294
G1 F1500 X125.652 Y131.169 E96.61595
G0 F9000 X125.48 Y130.775
G1 F1500 X123.326 Y132.929 E96.71727
G0 F9000 X123.126 Y132.563
G1 F1500 X125.307 Y130.382 E96.81985
G0 F9000 X125.135 Y129.988
G1 F1500 X122.926 Y132.197 E96.92376
G0 F9000 X122.726 Y131.832
G1 F1500 X124.963 Y129.594 E97.029
G0 F9000 X124.79 Y129.201
G1 F1500 X122.526 Y131.466 E97.13552
G0 F9000 X122.325 Y131.101
G1 F1500 X124.618 Y128.808 E97.24337
G0 F9000 X124.446 Y128.414
G1 F1500 X122.125 Y130.735 E97.35255
G0 F9000 X121.925 Y130.369
G1 F1500 X124.274 Y128.021 E97.46301
G0 F9000 X124.102 Y127.627
G1 F1500 X121.725 Y130.004 E97.57482
G0 F9000 X121.525 Y129.638
G1 F1500 X123.929 Y127.234 E97.6879
G0 F9000 X123.757 Y126.841
G1 F1500 X121.325 Y129.273 E97.80229
G0 F9000 X121.125 Y128.907
G1 F1500 X123.585 Y126.447 E97.918
G0 F9000 X123.412 Y126.054
G1 F1500 X120.925 Y128.542 E98.03501
G0 F9000 X120.725 Y128.176
G1 F1500 X123.24 Y125.66 E98.15333
G0 F9000 X123.068 Y125.267
G1 F1500 X120.524 Y127.81 E98.27297
G0 F9000 X120.324 Y127.445
G1 F1500 X122.895 Y124.874 E98.3939
G0 F9000 X122.724 Y124.48
G1 F1500 X120.124 Y127.079 E98.51617
G0 F9000 X119.924 Y126.714
G1 F1500 X122.551 Y124.087 E98.63974
G0 F9000 X122.379 Y123.693
G1 F1500 X119.724 Y126.348 E98.76462
G0 F9000 X119.524 Y125.983
G1 F1500 X122.207 Y123.3 E98.89082
G0 F9000 X122.034 Y122.907
G1 F1500 X119.324 Y125.617 E99.01829
G0 F9000 X119.124 Y125.251
G1 F1500 X121.862 Y122.513 E99.14708
G0 F9000 X121.69 Y122.12
G1 F1500 X118.924 Y124.886 E99.27718
G0 F9000 X118.723 Y124.52
G1 F1500 X121.518 Y121.726 E99.40863
G0 F9000 X121.345 Y121.333
G1 F1500 X118.523 Y124.155 E99.54136
G0 F9000 X118.278 Y123.834
G1 F1500 X121.173 Y120.94 E99.67751
G0 F9000 X121.001 Y120.546
G1 F1500 X117.951 Y123.596 E99.82097
G0 F9000 X117.496 Y123.485
G1 F1500 X120.828 Y120.152 E99.97773
G0 F9000 X120.657 Y119.759
G1 F1500 X109.426 Y130.989 E100.50597
G0 F9000 X109.006 Y130.804
G0 X108.567 Y131.809
G0 X108.987 Y131.994
G1 F1500 X115.89 Y125.091 E100.83067
G0 F9000 X116.294 Y125.311
G0 X115.621 Y126.55
G0 X115.217 Y126.33
G1 F1500 X108.661 Y132.885 E101.13902
G0 F9000 X108.661 Y133.451
G1 F1500 X114.544 Y127.569 E101.41572
G0 F9000 X114.948 Y127.789
G0 X114.274 Y129.029
G0 X113.87 Y128.808
G1 F1500 X108.661 Y134.017 E101.66073
G0 F9000 X108.661 Y134.582
G1 F1500 X113.197 Y130.047 E101.87407
G0 F9000 X113.601 Y130.267
G0 X112.928 Y131.506
G0 X112.524 Y131.286
G1 F1500 X108.661 Y135.148 E102.05575
G0 F9000 X108.661 Y135.714
G1 F1500 X111.85 Y132.525 E102.20575
G0 F9000 X112.254 Y132.745
G0 X111.581 Y133.985
G0 X111.177 Y133.764
G1 F1500 X108.661 Y136.279 E102.32407
G0 F9000 X109.194 Y136.312
G1 F1500 X110.504 Y135.002 E102.38569
G0 F9000 X110.909 Y135.223
G0 X110.237 Y136.462
G0 X109.831 Y136.241
G1 F1500 X109.769 Y136.304 E102.38863
G0 F9000 X109.98 Y136.762
G0 X108.272 Y136.715
G0 X108.262 Y132.655
G0 X109.446 Y129.799
G0 X109.866 Y129.983
G1 F1500 X120.484 Y119.365 E102.88807
G0 F9000 X120.312 Y118.972
G1 F1500 X110.307 Y128.977 E103.35867
G0 F9000 X109.887 Y128.792
G0 X110.327 Y127.787
G0 X110.747 Y127.972
G1 F1500 X120.14 Y118.578 E103.80051
G0 F9000 X119.967 Y118.185
G1 F1500 X111.187 Y126.965 E104.2135
G0 F9000 X110.767 Y126.781
G0 X111.208 Y125.775
G0 X111.627 Y125.96
G1 F1500 X119.795 Y117.791 E104.59772
G0 F9000 X119.623 Y117.398
G1 F1500 X112.067 Y124.954 E104.95313
G0 F9000 X111.647 Y124.77
G0 X112.088 Y123.764
G0 X112.507 Y123.948
G1 F1500 X119.45 Y117.005 E105.27971
G0 F9000 X119.341 Y116.549
G1 F1500 X112.948 Y122.942 E105.58041
G0 F9000 X112.528 Y122.757
G0 X112.967 Y121.755
G0 X113.388 Y121.937
G1 F1500 X119.341 Y115.983 E105.86045
G0 F9000 X119.341 Y115.418
G1 F1500 X113.827 Y120.931 E106.11978
G0 F9000 X113.408 Y120.746
G0 X113.848 Y119.74
G0 X114.268 Y119.925
G1 F1500 X119.341 Y114.852 E106.3584
G0 F9000 X119.34 Y114.287
G1 F1500 X114.708 Y118.919 E106.57628
G0 F9000 X114.288 Y118.734
G0 X114.728 Y117.729
G0 X115.148 Y117.913
G1 F1500 X119.34 Y113.721 E106.77346
G0 F9000 X119.34 Y113.156
G1 F1500 X115.581 Y116.915 E106.95027
G0 F9000 X115.657 Y116.273
G1 F1500 X119.34 Y112.59 E107.12351
G0 F9000 X119.339 Y112.025
G1 F1500 X115.657 Y115.708 E107.29672
G0 F9000 X115.657 Y115.142
G1 F1500 X119.339 Y111.459 E107.46993
G0 F9000 X119.339 Y110.894
G1 F1500 X115.657 Y114.576 E107.64312
G0 F9000 X115.657 Y114.01
G1 F1500 X119.339 Y110.328 E107.81631
G0 F9000 X119.339 Y109.763
G1 F1500 X115.657 Y113.444 E107.98948
G0 F9000 X115.657 Y112.878
G1 F1500 X119.339 Y109.197 E108.16265
G0 F9000 X119.339 Y108.632
G1 F1500 X115.657 Y112.313 E108.33581
G0 F9000 X115.658 Y111.746
G1 F1500 X119.339 Y108.066 E108.50893
G0 F9000 X119.338 Y107.501
G1 F1500 X115.658 Y111.181 E108.68203
G0 F9000 X115.658 Y110.615
G1 F1500 X119.338 Y106.935 E108.85512
G0 F9000 X119.338 Y106.37
G1 F1500 X115.658 Y110.049 E109.0282
G0 F9000 X115.659 Y109.483
G1 F1500 X119.338 Y105.804 E109.20125
G0 F9000 X119.337 Y105.239
G1 F1500 X115.659 Y108.917 E109.37425
G0 F9000 X115.659 Y108.352
G1 F1500 X119.337 Y104.673 E109.54727
G0 F9000 X119.337 Y104.108
G1 F1500 X115.659 Y107.786 E109.72027
G0 F9000 X115.66 Y107.22
G1 F1500 X119.337 Y103.542 E109.89325
G0 F9000 X119.336 Y102.977
G1 F1500 X115.66 Y106.654 E110.06618
G0 F9000 X115.66 Y106.088
G1 F1500 X119.336 Y102.411 E110.23912
G0 F9000 X119.336 Y101.846
G1 F1500 X115.66 Y105.522 E110.41202
G0 F9000 X115.66 Y104.956
G1 F1500 X119.336 Y101.28 E110.58493
G0 F9000 X119.336 Y100.715
G1 F1500 X115.66 Y104.39 E110.75781
G0 F9000 X115.66 Y103.825
G1 F1500 X119.336 Y100.149 E110.93072
G0 F9000 X119.336 Y99.583
G1 F1500 X115.66 Y103.259 E111.10363
G0 F9000 X115.661 Y102.693
G1 F1500 X119.336 Y99.018 E111.27649
G0 F9000 X119.128 Y98.66
G1 F1500 X115.661 Y102.127 E111.43957
G0 F9000 X115.661 Y101.561
G1 F1500 X118.562 Y98.66 E111.57602
G0 F9000 X117.997 Y98.66
G1 F1500 X115.661 Y100.996 E111.6859
G0 F9000 X115.662 Y100.429
G1 F1500 X117.431 Y98.66 E111.76911
G0 F9000 X116.865 Y98.66
G1 F1500 X115.662 Y99.863 E111.82569
G0 F9000 X115.662 Y99.298
G1 F1500 X116.299 Y98.66 E111.85568
G0 F9000 X115.734 Y98.66
G1 F1500 X115.662 Y98.732 E111.85907
G1 F2700 E106.85907
;MESH:NONMESH
G0 F300 X115.662 Y98.732 Z1
G0 F9000 X115.202 Y98.732
G0 X114.938 Y116.595
G0 X108.262 Y132.655
G0 X108.272 Y136.715
G0 X110.128 Y136.663
G1 F2700 E111.85907
G0 F9000 X110.136 Y136.859
;TIME_ELAPSED:195.728519
;LAYER:4
;TYPE:WALL-INNER
;MESH:LETRA Y.stl
G1 F1500 X116.933 Y124.347 E112.33266
G1 X117.124 Y124.136 E112.34212
G1 X117.357 Y124.042 E112.35048
G1 X117.574 Y124.044 E112.3577
G1 X117.802 Y124.139 E112.36591
G1 X117.988 Y124.345 E112.37515
G1 X124.858 Y136.9 E112.85115
G1 X126.9 Y136.9 E112.91907
G1 X126.9 Y133.028 E113.04785
G1 X126.9 Y132.621 E113.06139
G1 X119.949 Y116.744 E113.63785
G1 X119.901 Y116.556 E113.64431
G1 X119.897 Y98.1 E114.25816
G1 X115.102 Y98.1 E114.41764
G1 X115.097 Y116.556 E115.03149
G1 X115.049 Y116.744 E115.03794
G1 X108.101 Y132.621 E115.61436
G1 X108.1 Y136.89 E115.75635
G1 X110.136 Y136.859 E115.82408
G0 F9000 X110.376 Y137.255
;TYPE:WALL-OUTER
G1 F1500 X117.303 Y124.505 E116.30669
G1 X117.387 Y124.447 E116.31008
G1 X117.537 Y124.448 E116.31507
G1 X117.621 Y124.507 E116.31849
G1 X124.621 Y137.3 E116.80352
G1 X127.3 Y137.3 E116.89262
G1 X127.3 Y133.028 E117.03471
G1 X127.3 Y132.537 E117.05104
G1 X120.299 Y116.547 E117.63161
G1 X120.297 Y97.7 E118.25846
G1 X114.702 Y97.7 E118.44455
G1 X114.699 Y116.547 E119.07141
G1 X107.701 Y132.537 E119.65194
G1 X107.7 Y137.296 E119.81022
G1 X110.376 Y137.255 E119.89924
G0 F9000 X109.967 Y136.576
G0 X110.685 Y135.227
G0 X110.875 Y135.331
;TYPE:FILL
G1 F3000 X108.18 Y132.636 E120.026
G0 F9000 X108.18 Y133.151
G1 F3000 X112.718 Y131.935 E120.18226
G0 F9000 X113.075 Y131.28
G1 F3000 X119.818 Y106.114 E121.04881
G0 F9000 X119.817 Y105.187
G1 F3000 X115.179 Y106.429 E121.20851
G0 F9000 X115.179 Y105.694
G1 F3000 X119.819 Y110.334 E121.42676
G0 F9000 X119.598 Y110.334
G0 X119.598 Y111.398
G0 X119.818 Y111.398
G1 F3000 X115.178 Y112.641 E121.58653
G0 F9000 X115.399 Y112.642
G0 X115.399 Y114.178
G0 X115.177 Y114.177
G1 F3000 X121.509 Y120.51 E121.88439
G0 F9000 X121.309 Y120.597
G0 X121.72 Y121.536
G0 X121.92 Y121.449
G1 F3000 X120.137 Y128.106 E122.11361
G0 F9000 X120.329 Y128.002
G0 X119.743 Y126.931
G0 X119.551 Y127.036
G1 F3000 X126.82 Y134.305 E122.45552
G1 X126.818 Y134.369
G1 X123.979 Y135.13 E122.55328
G0 F9000 X124.307 Y135.724
G1 F3000 X125.773 Y130.251 E122.74173
G0 F9000 X125.573 Y130.338
G0 X124.862 Y128.715
G0 X125.064 Y128.627
G1 F3000 X121.015 Y129.712 E122.88115
G0 F9000 X121.207 Y129.607
G0 X118.243 Y124.19
G0 X118.05 Y124.295
G1 F3000 X122.629 Y123.068 E123.03882
G0 F9000 X122.429 Y123.155
G0 X116.965 Y123.803
G0 X116.659 Y124.231
G0 X116.848 Y124.334
G1 F3000 X113.347 Y120.832 E123.20352
G0 F9000 X113.547 Y120.921
G0 X114.285 Y119.235
G0 X114.084 Y119.146
G1 F3000 X120.196 Y117.508 E123.41398
G0 F9000 X119.995 Y117.595
G0 X116.478 Y124.563
G0 X116.667 Y124.666
G1 F3000 X111.005 Y126.183 E123.60894
G0 F9000 X110.764 Y126.734
G1 F3000 X113.861 Y129.832 E123.75464
G0 F9000 X113.672 Y129.729
G0 X119.597 Y101.847
G0 X119.817 Y101.847
G1 F3000 X116.15 Y98.18 E123.92712
G0 F9000 X115.732 Y98.179
G1 F3000 X115.181 Y100.236 E123.99795
G1 X115.18 Y100.217
G1 X119.816 Y98.975 E124.15758
G0 F9000 X119.297 Y98.975
G1 F2700 E119.15758
;MESH:NONMESH
G0 F300 X119.297 Y98.975 Z1.2
G0 F9000 X115.338 Y116.678
G0 X109.967 Y136.576
G1 F2700 E124.15758
G0 F9000 X110.136 Y136.859
;TIME_ELAPSED:213.442538
;LAYER:5
;TYPE:WALL-INNER
;MESH:LETRA Y.stl
G1 F1500 X116.933 Y124.347 E124.63117
G1 X117.124 Y124.136 E124.64064
G1 X117.357 Y124.042 E124.64899
G1 X117.574 Y124.044 E124.65621
G1 X117.802 Y124.139 E124.66443
G1 X117.988 Y124.345 E124.67366
G1 X124.858 Y136.9 E125.14967
G1 X126.9 Y136.9 E125.21759
G1 X126.9 Y133.028 E125.34637
G1 X126.9 Y132.621 E125.35991
G1 X119.949 Y116.744 E125.93637
G1 X119.901 Y116.556 E125.94282
G1 X119.897 Y98.1 E126.55667
G1 X115.102 Y98.1 E126.71615
G1 X115.097 Y116.556 E127.33
G1 X115.049 Y116.744 E127.33646
G1 X108.101 Y132.621 E127.91288
G1 X108.1 Y136.89 E128.05486
G1 X110.136 Y136.859 E128.12259
G0 F9000 X110.376 Y137.255
;TYPE:WALL-OUTER
G1 F1500 X117.303 Y124.505 E128.6052
G1 X117.387 Y124.447 E128.6086
G1 X117.537 Y124.448 E128.61359
G1 X117.621 Y124.507 E128.617
G1 X124.621 Y137.3 E129.10203
G1 X127.3 Y137.3 E129.19113
G1 X127.3 Y133.028 E129.33322
G1 X127.3 Y132.537 E129.34955
G1 X120.299 Y116.547 E129.93012
G1 X120.297 Y97.7 E130.55698
G1 X114.702 Y97.7 E130.74307
G1 X114.699 Y116.547 E131.36992
G1 X107.701 Y132.537 E131.95045
G1 X107.7 Y137.296 E132.10874
G1 X110.376 Y137.255 E132.19775
G0 F9000 X109.967 Y136.576
G0 X110.755 Y135.098
G0 X110.945 Y135.202
;TYPE:FILL
G1 F3000 X108.241 Y132.497 E132.32496
G0 F9000 X108.18 Y133.297
G1 F3000 X112.625 Y132.106 E132.47802
G0 F9000 X112.786 Y131.81
G1 F3000 X119.818 Y105.569 E133.38159
G0 F9000 X119.816 Y105.333
G1 F3000 X115.179 Y106.575 E133.54126
G0 F9000 X115.4 Y106.576
G0 X115.4 Y105.495
G0 X115.179 Y105.494
G1 F3000 X119.819 Y110.134 E133.75951
G0 F9000 X119.598 Y110.134
G0 X119.598 Y111.544
G0 X119.818 Y111.544
G1 F3000 X115.178 Y112.787 E133.91928
G0 F9000 X115.399 Y112.788
G0 X115.399 Y113.978
G0 X115.177 Y113.977
G1 F3000 X121.354 Y120.155 E134.20985
G0 F9000 X121.154 Y120.242
G0 X121.63 Y121.33
G0 X121.83 Y121.243
G1 F3000 X120.039 Y127.927 E134.44
G0 F9000 X120.231 Y127.823
G0 X119.502 Y126.491
G0 X119.31 Y126.596
G1 F3000 X126.82 Y134.106 E134.79325
G0 F9000 X126.819 Y134.515
G1 F3000 X124.05 Y135.257 E134.8886
G0 F9000 X124.209 Y135.546
G1 F3000 X125.683 Y130.044 E135.07805
G0 F9000 X125.483 Y130.131
G0 X124.92 Y128.846
G0 X125.121 Y128.758
G1 F3000 X121.084 Y129.84 E135.21706
G0 F9000 X121.277 Y129.735
G0 X118.312 Y124.317
G0 X118.119 Y124.422
G1 F3000 X122.687 Y123.198 E135.37435
G0 F9000 X122.486 Y123.285
G0 X116.965 Y123.803
G0 X116.725 Y124.109
G0 X116.94 Y124.226
G1 F3000 X113.407 Y120.693 E135.54053
G0 F9000 X113.608 Y120.782
G0 X114.213 Y119.399
G0 X114.013 Y119.311
G1 F3000 X120.252 Y117.639 E135.75536
G0 F9000 X120.052 Y117.726
G0 X116.385 Y124.734
G0 X116.574 Y124.837
G1 F3000 X110.933 Y126.348 E135.9496
G0 F9000 X110.824 Y126.596
G1 F3000 X113.931 Y129.703 E136.09574
G0 F9000 X113.742 Y129.6
G0 X119.597 Y101.648
G0 X119.817 Y101.648
G1 F3000 X116.35 Y98.18 E136.25884
G0 F9000 X115.586 Y98.179
G1 F3000 X115.181 Y99.692 E136.31094
G0 F9000 X115.181 Y100.363
G1 F3000 X119.816 Y99.121 E136.47053
G0 F9000 X119.297 Y99.121
G1 F2700 E131.47053
;MESH:NONMESH
G0 F300 X119.297 Y99.121 Z1.4
G0 F9000 X115.338 Y116.678
G0 X109.967 Y136.576
G1 F2700 E136.47053
G0 F9000 X110.136 Y136.859
;TIME_ELAPSED:231.228462
;LAYER:6
;TYPE:WALL-INNER
;MESH:LETRA Y.stl
G1 F1500 X116.933 Y124.347 E136.94413
G1 X117.124 Y124.136 E136.95359
G1 X117.357 Y124.042 E136.96195
G1 X117.574 Y124.044 E136.96917
G1 X117.802 Y124.139 E136.97738
G1 X117.988 Y124.345 E136.98661
G1 X124.858 Y136.9 E137.46262
G1 X126.9 Y136.9 E137.53054
G1 X126.9 Y132.621 E137.67286
G1 X119.949 Y116.744 E138.24932
G1 X119.901 Y116.556 E138.25577
G1 X119.897 Y98.1 E138.86962
G1 X115.102 Y98.1 E139.02911
G1 X115.097 Y116.556 E139.64296
G1 X115.049 Y116.744 E139.64941
G1 X108.101 Y132.621 E140.22583
G1 X108.1 Y136.89 E140.36782
G1 X110.136 Y136.859 E140.43554
G0 F9000 X110.376 Y137.255
;TYPE:WALL-OUTER
G1 F1500 X117.303 Y124.505 E140.91815
G1 X117.387 Y124.447 E140.92155
G1 X117.537 Y124.448 E140.92654
G1 X117.621 Y124.507 E140.92995
G1 X124.621 Y137.3 E141.41498
G1 X127.3 Y137.3 E141.50409
G1 X127.3 Y132.537 E141.6625
G1 X120.299 Y116.547 E142.24308
G1 X120.297 Y97.7 E142.86993
G1 X114.702 Y97.7 E143.05602
G1 X114.699 Y116.547 E143.68287
G1 X107.701 Y132.537 E144.26341
G1 X107.7 Y137.296 E144.42169
G1 X110.376 Y137.255 E144.51071
G0 F9000 X109.918 Y136.502
;TYPE:SKIN
G1 F1500 X116.614 Y124.18 E144.97714
G1 X116.915 Y123.836 E144.99234
G1 X117.289 Y123.688 E145.00572
G1 X117.647 Y123.69 E145.01763
G1 X118.01 Y123.838 E145.03067
G1 X118.305 Y124.174 E145.04554
G1 X125.073 Y136.54 E145.5144
G1 X126.54 Y136.54 E145.5632
G1 X126.54 Y132.696 E145.69105
G1 X119.612 Y116.873 E146.26556
G1 X119.541 Y116.587 E146.27536
G1 X119.537 Y98.46 E146.87827
G1 X115.463 Y98.46 E147.01377
G1 X115.457 Y116.584 E147.61658
G1 X115.386 Y116.873 E147.62647
G1 X108.462 Y132.696 E148.20093
G1 X108.461 Y136.524 E148.32825
G1 X109.918 Y136.502 E148.37672
G0 F9000 X109.159 Y136.312
G1 F1500 X108.661 Y135.813 E148.40016
G0 F9000 X108.661 Y135.248
G1 F1500 X109.716 Y136.304 E148.44981
G0 F9000 X109.968 Y135.99
G1 F1500 X108.661 Y134.682 E148.51131
G0 F9000 X108.661 Y134.116
G1 F1500 X110.167 Y135.623 E148.58217
G0 F9000 X110.367 Y135.257
G1 F1500 X108.661 Y133.551 E148.66242
G0 F9000 X108.661 Y132.985
G1 F1500 X110.566 Y134.89 E148.75202
G0 F9000 X110.765 Y134.524
G1 F1500 X108.757 Y132.516 E148.84647
G0 F9000 X108.929 Y132.122
G1 F1500 X110.964 Y134.157 E148.94219
G0 F9000 X111.163 Y133.79
G1 F1500 X109.102 Y131.729 E149.03914
G0 F9000 X109.274 Y131.335
G1 F1500 X111.362 Y133.424 E149.13737
G0 F9000 X111.562 Y133.058
G1 F1500 X109.446 Y130.942 E149.2369
G0 F9000 X109.618 Y130.548
G1 F1500 X111.761 Y132.691 E149.3377
G0 F9000 X111.96 Y132.325
G1 F1500 X109.791 Y130.155 E149.43975
G0 F9000 X109.962 Y129.761
G1 F1500 X112.159 Y131.958 E149.54309
G0 F9000 X112.358 Y131.591
G1 F1500 X110.135 Y129.368 E149.64765
G0 F9000 X110.307 Y128.974
G1 F1500 X112.557 Y131.225 E149.75351
G0 F9000 X112.757 Y130.859
G1 F1500 X110.479 Y128.581 E149.86066
G0 F9000 X110.651 Y128.187
G1 F1500 X112.956 Y130.492 E149.96908
G0 F9000 X113.155 Y130.126
G1 F1500 X110.824 Y127.794 E150.07875
G0 F9000 X110.996 Y127.401
G1 F1500 X113.354 Y129.759 E150.18966
G0 F9000 X113.553 Y129.392
G1 F1500 X111.168 Y127.007 E150.30184
G0 F9000 X111.341 Y126.614
G1 F1500 X113.752 Y129.026 E150.41527
G0 F9000 X113.952 Y128.66
G1 F1500 X111.512 Y126.22 E150.53004
G0 F9000 X111.685 Y125.827
G1 F1500 X114.151 Y128.293 E150.64604
G0 F9000 X114.35 Y127.926
G1 F1500 X111.857 Y125.433 E150.7633
G0 F9000 X112.029 Y125.04
G1 F1500 X114.549 Y127.56 E150.88183
G0 F9000 X114.748 Y127.193
G1 F1500 X112.201 Y124.646 E151.00164
G0 F9000 X112.374 Y124.253
G1 F1500 X114.947 Y126.827 E151.12268
G0 F9000 X115.147 Y126.461
G1 F1500 X112.545 Y123.859 E151.24507
G0 F9000 X112.718 Y123.466
G1 F1500 X115.346 Y126.094 E151.36869
G0 F9000 X115.545 Y125.727
G1 F1500 X112.89 Y123.072 E151.49357
G0 F9000 X113.062 Y122.679
G1 F1500 X115.744 Y125.361 E151.61972
G0 F9000 X115.943 Y124.994
G1 F1500 X113.234 Y122.285 E151.74715
G0 F9000 X113.407 Y121.892
G1 F1500 X116.142 Y124.628 E151.87582
G0 F9000 X116.342 Y124.261
G1 F1500 X113.579 Y121.498 E152.00578
G0 F9000 X113.751 Y121.105
G1 F1500 X116.568 Y123.922 E152.13828
G0 F9000 X116.859 Y123.647
G1 F1500 X113.923 Y120.711 E152.27638
G0 F9000 X114.095 Y120.318
G1 F1500 X117.261 Y123.484 E152.4253
G0 F9000 X117.929 Y123.586
G1 F1500 X114.267 Y119.924 E152.59755
G0 F9000 X114.44 Y119.531
G1 F1500 X125.321 Y130.413 E153.10938
G0 F9000 X125.743 Y130.229
G0 X126.183 Y131.235
G0 X125.762 Y131.419
G1 F1500 X118.553 Y124.21 E153.44847
G0 F9000 X118.149 Y124.431
G0 X118.833 Y125.68
G0 X119.237 Y125.459
G1 F1500 X126.203 Y132.425 E153.77613
G0 F9000 X126.339 Y133.127
G1 F1500 X119.921 Y126.709 E154.07802
G0 F9000 X119.517 Y126.93
G0 X120.201 Y128.18
G0 X120.605 Y127.959
G1 F1500 X126.339 Y133.693 E154.34773
G0 F9000 X126.339 Y134.259
G1 F1500 X121.29 Y129.209 E154.58524
G0 F9000 X120.885 Y129.43
G0 X121.569 Y130.68
G0 X121.973 Y130.459
G1 F1500 X126.339 Y134.824 E154.79058
G0 F9000 X126.339 Y135.39
G1 F1500 X122.657 Y131.708 E154.96377
G0 F9000 X122.252 Y131.929
G0 X122.936 Y133.18
G0 X123.342 Y132.958
G1 F1500 X126.339 Y135.956 E155.10476
G0 F9000 X126.157 Y136.339
G1 F1500 X124.025 Y134.208 E155.20502
G0 F9000 X123.62 Y134.429
G0 X124.304 Y135.678
G0 X124.709 Y135.457
G1 F1500 X125.591 Y136.339 E155.24651
G0 F9000 X125.008 Y136.8
G0 X126.728 Y136.728
G0 X126.739 Y132.655
G0 X125.302 Y129.222
G0 X124.881 Y129.406
G1 F1500 X114.612 Y119.137 E155.72953
G0 F9000 X114.784 Y118.744
G1 F1500 X124.44 Y128.4 E156.18372
G0 F9000 X124.862 Y128.216
G0 X124.421 Y127.21
G0 X124 Y127.394
G1 F1500 X114.956 Y118.35 E156.60912
G0 F9000 X115.129 Y117.957
G1 F1500 X123.559 Y126.388 E157.00566
G0 F9000 X123.981 Y126.204
G0 X123.541 Y125.198
G0 X123.119 Y125.382
G1 F1500 X115.3 Y117.563 E157.37345
G0 F9000 X115.473 Y117.17
G1 F1500 X122.678 Y124.375 E157.71235
G0 F9000 X123.1 Y124.191
G0 X122.66 Y123.185
G0 X122.238 Y123.369
G1 F1500 X115.622 Y116.753 E158.02354
G0 F9000 X115.656 Y116.222
G1 F1500 X121.797 Y122.363 E158.3124
G0 F9000 X122.219 Y122.179
G0 X121.578 Y120.714
G0 X121.357 Y121.357
G1 F1500 X115.656 Y115.656 E158.58056
G0 F9000 X115.656 Y115.09
G1 F1500 X120.916 Y120.35 E158.82797
G0 F9000 X121.338 Y120.166
G0 X120.897 Y119.16
G0 X120.476 Y119.344
G1 F1500 X115.656 Y114.525 E159.05466
G0 F9000 X115.657 Y113.96
G1 F1500 X120.035 Y118.338 E159.26059
G0 F9000 X120.456 Y118.154
G0 X120.015 Y117.147
G0 X119.594 Y117.331
G1 F1500 X115.657 Y113.394 E159.44578
G0 F9000 X115.657 Y112.828
G1 F1500 X119.341 Y116.513 E159.61908
G0 F9000 X119.341 Y115.947
G1 F1500 X115.657 Y112.263 E159.79237
G0 F9000 X115.657 Y111.698
G1 F1500 X119.341 Y115.382 E159.96565
G0 F9000 X119.341 Y114.816
G1 F1500 X115.657 Y111.132 E160.13894
G0 F9000 X115.657 Y110.566
G1 F1500 X119.341 Y114.25 E160.31222
G0 F9000 X119.341 Y113.684
G1 F1500 X115.657 Y110.001 E160.48548
G0 F9000 X115.658 Y109.436
G1 F1500 X119.341 Y113.118 E160.65869
G0 F9000 X119.341 Y112.553
G1 F1500 X115.658 Y108.87 E160.83193
G0 F9000 X115.658 Y108.304
G1 F1500 X119.34 Y111.986 E161.00512
G0 F9000 X119.34 Y111.42
G1 F1500 X115.658 Y107.739 E161.17829
G0 F9000 X115.659 Y107.174
G1 F1500 X119.34 Y110.855 E161.35143
G0 F9000 X119.34 Y110.289
G1 F1500 X115.659 Y106.608 E161.52457
G0 F9000 X115.659 Y106.042
G1 F1500 X119.339 Y109.723 E161.69769
G0 F9000 X119.339 Y109.157
G1 F1500 X115.659 Y105.476 E161.87081
G0 F9000 X115.66 Y104.912
G1 F1500 X119.339 Y108.591 E162.04386
G0 F9000 X119.339 Y108.026
G1 F1500 X115.66 Y104.346 E162.21693
G0 F9000 X115.66 Y103.78
G1 F1500 X119.339 Y107.459 E162.38998
G0 F9000 X119.339 Y106.894
G1 F1500 X115.66 Y103.214 E162.56305
G0 F9000 X115.66 Y102.649
G1 F1500 X119.339 Y106.328 E162.7361
G0 F9000 X119.339 Y105.762
G1 F1500 X115.66 Y102.084 E162.90913
G0 F9000 X115.66 Y101.518
G1 F1500 X119.338 Y105.196 E163.08213
G0 F9000 X119.338 Y104.63
G1 F1500 X115.66 Y100.952 E163.25513
G0 F9000 X115.661 Y100.387
G1 F1500 X119.338 Y104.064 E163.42809
G0 F9000 X119.338 Y103.499
G1 F1500 X115.661 Y99.822 E163.60104
G0 F9000 X115.661 Y99.256
G1 F1500 X119.337 Y102.932 E163.77395
G0 F9000 X119.337 Y102.367
G1 F1500 X115.661 Y98.69 E163.94688
G0 F9000 X116.196 Y98.66
G1 F1500 X119.337 Y101.801 E164.09462
G0 F9000 X119.337 Y101.235
G1 F1500 X116.762 Y98.66 E164.21574
G0 F9000 X117.328 Y98.66
G1 F1500 X119.336 Y100.669 E164.31022
G0 F9000 X119.336 Y100.103
G1 F1500 X117.893 Y98.66 E164.37809
G0 F9000 X118.459 Y98.66
G1 F1500 X119.336 Y99.538 E164.41937
G0 F9000 X119.336 Y98.972
G1 F1500 X119.025 Y98.66 E164.43402
G1 F2700 E159.43402
;MESH:NONMESH
G0 F300 X119.025 Y98.66 Z1.6
G0 F9000 X119.025 Y98.2
G0 X115.274 Y98.272
G0 X114.938 Y116.595
G0 X108.262 Y132.655
G0 X108.272 Y136.715
G0 X110.128 Y136.663
G1 F2700 E164.43402
G0 F9000 X110.136 Y136.859
;TIME_ELAPSED:275.973840
;LAYER:7
;TYPE:WALL-INNER
;MESH:LETRA Y.stl
G1 F1500 X116.933 Y124.347 E164.90761
G1 X117.124 Y124.136 E164.91708
G1 X117.357 Y124.042 E164.92543
G1 X117.574 Y124.044 E164.93265
G1 X117.802 Y124.139 E164.94087
G1 X117.988 Y124.345 E164.9501
G1 X124.858 Y136.9 E165.42611
G1 X126.9 Y136.9 E165.49402
G1 X126.9 Y133.028 E165.62281
G1 X126.9 Y132.621 E165.63634
G1 X119.949 Y116.744 E166.21281
G1 X119.901 Y116.556 E166.21926
G1 X119.897 Y98.1 E166.83311
G1 X115.102 Y98.1 E166.99259
G1 X115.097 Y116.556 E167.60644
G1 X115.049 Y116.744 E167.61289
G1 X108.101 Y132.621 E168.18932
G1 X108.1 Y136.89 E168.3313
G1 X110.136 Y136.859 E168.39903
G0 F9000 X110.376 Y137.255
;TYPE:WALL-OUTER
G1 F1500 X117.303 Y124.505 E168.88164
G1 X117.387 Y124.447 E168.88504
G1 X117.537 Y124.448 E168.89002
G1 X117.621 Y124.507 E168.89344
G1 X124.621 Y137.3 E169.37847
G1 X127.3 Y137.3 E169.46757
G1 X127.3 Y133.028 E169.60966
G1 X127.3 Y132.537 E169.62599
G1 X120.299 Y116.547 E170.20656
G1 X120.297 Y97.7 E170.83342
G1 X114.702 Y97.7 E171.01951
G1 X114.699 Y116.547 E171.64636
G1 X107.701 Y132.537 E172.22689
G1 X107.7 Y137.296 E172.38518
G1 X110.376 Y137.255 E172.47419
G0 F9000 X109.918 Y136.502
;TYPE:SKIN
G1 F1500 X116.614 Y124.18 E172.94063
G1 X116.915 Y123.836 E172.95583
G1 X117.289 Y123.688 E172.96921
G1 X117.647 Y123.69 E172.98111
G1 X118.01 Y123.838 E172.99415
G1 X118.305 Y124.174 E173.00902
G1 X125.073 Y136.54 E173.47789
G1 X126.54 Y136.54 E173.52668
G1 X126.54 Y133.027 E173.64353
G1 X126.54 Y132.696 E173.65453
G1 X119.612 Y116.873 E174.22904
G1 X119.541 Y116.587 E174.23885
G1 X119.537 Y98.46 E174.84175
G1 X115.463 Y98.46 E174.97725
G1 X115.456 Y116.592 E175.58033
G1 X115.386 Y116.873 E175.58996
G1 X108.462 Y132.696 E176.16442
G1 X108.461 Y136.524 E176.29174
G1 X109.918 Y136.502 E176.3402
G1 F2700 E171.3402
G0 F9000 X109.921 Y136.763
G0 X110.379 Y136.763
G0 X117.203 Y124.202
G0 X117.718 Y124.202
G0 X124.611 Y136.795
G0 X126.138 Y136.8
G1 F2700 E176.3402
G0 F9000 X126.138 Y136.339
G1 F1500 X126.339 Y136.138 E176.34965
G0 F9000 X126.339 Y135.572
G1 F1500 X125.572 Y136.339 E176.38573
G0 F9000 X125.127 Y136.219
G1 F1500 X126.339 Y135.007 E176.44274
G0 F9000 X126.339 Y134.441
G1 F1500 X124.927 Y135.853 E176.50916
G0 F9000 X124.727 Y135.488
G1 F1500 X126.339 Y133.875 E176.585
G0 F9000 X126.339 Y133.31
G1 F1500 X124.527 Y135.122 E176.67024
G0 F9000 X124.327 Y134.756
G1 F1500 X126.339 Y132.744 E176.76487
G0 F9000 X126.169 Y132.349
G1 F1500 X124.126 Y134.391 E176.86095
G0 F9000 X123.926 Y134.025
G1 F1500 X125.996 Y131.956 E176.95829
G0 F9000 X125.824 Y131.562
G1 F1500 X123.726 Y133.66 E177.05697
G0 F9000 X123.526 Y133.294
G1 F1500 X125.652 Y131.169 E177.15695
G0 F9000 X125.48 Y130.775
G1 F1500 X123.326 Y132.929 E177.25827
G0 F9000 X123.126 Y132.563
G1 F1500 X125.307 Y130.382 E177.36086
G0 F9000 X125.135 Y129.988
G1 F1500 X122.926 Y132.197 E177.46476
G0 F9000 X122.726 Y131.832
G1 F1500 X124.963 Y129.594 E177.57
G0 F9000 X124.79 Y129.201
G1 F1500 X122.526 Y131.466 E177.67652
G0 F9000 X122.325 Y131.101
G1 F1500 X124.618 Y128.808 E177.78438
G0 F9000 X124.446 Y128.414
G1 F1500 X122.125 Y130.735 E177.89355
G0 F9000 X121.925 Y130.369
G1 F1500 X124.274 Y128.021 E178.00401
G0 F9000 X124.102 Y127.627
G1 F1500 X121.725 Y130.004 E178.11582
G0 F9000 X121.525 Y129.638
G1 F1500 X123.929 Y127.234 E178.2289
G0 F9000 X123.757 Y126.841
G1 F1500 X121.325 Y129.273 E178.34329
G0 F9000 X121.125 Y128.907
G1 F1500 X123.585 Y126.447 E178.459
G0 F9000 X123.412 Y126.054
G1 F1500 X120.925 Y128.542 E178.57601
G0 F9000 X120.725 Y128.176
G1 F1500 X123.24 Y125.66 E178.69433
G0 F9000 X123.068 Y125.267
G1 F1500 X120.524 Y127.81 E178.81397
G0 F9000 X120.324 Y127.445
G1 F1500 X122.895 Y124.874 E178.9349
G0 F9000 X122.724 Y124.48
G1 F1500 X120.124 Y127.079 E179.05717
G0 F9000 X119.924 Y126.714
G1 F1500 X122.551 Y124.087 E179.18074
G0 F9000 X122.379 Y123.693
G1 F1500 X119.724 Y126.348 E179.30562
G0 F9000 X119.524 Y125.983
G1 F1500 X122.207 Y123.3 E179.43182
G0 F9000 X122.034 Y122.907
G1 F1500 X119.324 Y125.617 E179.55929
G0 F9000 X119.124 Y125.251
G1 F1500 X121.862 Y122.513 E179.68808
G0 F9000 X121.69 Y122.12
G1 F1500 X118.924 Y124.886 E179.81818
G0 F9000 X118.723 Y124.52
G1 F1500 X121.518 Y121.726 E179.94963
G0 F9000 X121.345 Y121.333
G1 F1500 X118.523 Y124.155 E180.08237
G0 F9000 X118.278 Y123.834
G1 F1500 X121.173 Y120.94 E180.21851
G0 F9000 X121.001 Y120.546
G1 F1500 X117.951 Y123.596 E180.36198
G0 F9000 X117.496 Y123.485
G1 F1500 X120.828 Y120.152 E180.51873
G0 F9000 X120.657 Y119.759
G1 F1500 X109.426 Y130.989 E181.04697
G0 F9000 X109.006 Y130.804
G0 X108.567 Y131.809
G0 X108.987 Y131.994
G1 F1500 X115.89 Y125.091 E181.37167
G0 F9000 X116.294 Y125.311
G0 X115.621 Y126.55
G0 X115.217 Y126.33
G1 F1500 X108.661 Y132.885 E181.68002
G0 F9000 X108.661 Y133.451
G1 F1500 X114.544 Y127.569 E181.95672
G0 F9000 X114.948 Y127.789
G0 X114.274 Y129.029
G0 X113.87 Y128.808
G1 F1500 X108.661 Y134.017 E182.20173
G0 F9000 X108.661 Y134.582
G1 F1500 X113.197 Y130.047 E182.41507
G0 F9000 X113.601 Y130.267
G0 X112.928 Y131.506
G0 X112.524 Y131.286
G1 F1500 X108.661 Y135.148 E182.59675
G0 F9000 X108.661 Y135.714
G1 F1500 X111.85 Y132.525 E182.74675
G0 F9000 X112.254 Y132.745
G0 X111.581 Y133.985
G0 X111.177 Y133.764
G1 F1500 X108.661 Y136.279 E182.86507
G0 F9000 X109.194 Y136.312
G1 F1500 X110.504 Y135.002 E182.92669
G0 F9000 X110.909 Y135.223
G0 X110.237 Y136.462
G0 X109.831 Y136.241
G1 F1500 X109.769 Y136.304 E182.92963
G0 F9000 X109.98 Y136.762
G0 X108.272 Y136.715
G0 X108.262 Y132.655
G0 X109.446 Y129.799
G0 X109.866 Y129.983
G1 F1500 X120.484 Y119.365 E183.42907
G0 F9000 X120.312 Y118.972
G1 F1500 X110.307 Y128.977 E183.89967
G0 F9000 X109.887 Y128.792
G0 X110.327 Y127.787
G0 X110.747 Y127.972
G1 F1500 X120.14 Y118.578 E184.34151
G0 F9000 X119.967 Y118.185
G1 F1500 X111.187 Y126.965 E184.7545
G0 F9000 X110.767 Y126.781
G0 X111.208 Y125.775
G0 X111.627 Y125.96
G1 F1500 X119.795 Y117.791 E185.13872
G0 F9000 X119.623 Y117.398
G1 F1500 X112.067 Y124.954 E185.49413
G0 F9000 X111.647 Y124.77
G0 X112.088 Y123.764
G0 X112.507 Y123.948
G1 F1500 X119.45 Y117.005 E185.82071
G0 F9000 X119.341 Y116.549
G1 F1500 X112.948 Y122.942 E186.12141
G0 F9000 X112.528 Y122.757
G0 X112.967 Y121.755
G0 X113.388 Y121.937
G1 F1500 X119.341 Y115.983 E186.40145
G0 F9000 X119.341 Y115.418
G1 F1500 X113.827 Y120.931 E186.66079
G0 F9000 X113.408 Y120.746
G0 X113.848 Y119.74
G0 X114.268 Y119.925
G1 F1500 X119.341 Y114.852 E186.8994
G0 F9000 X119.34 Y114.287
G1 F1500 X114.708 Y118.919 E187.11728
G0 F9000 X114.288 Y118.734
G0 X114.728 Y117.729
G0 X115.148 Y117.913
G1 F1500 X119.34 Y113.721 E187.31446
G0 F9000 X119.34 Y113.156
G1 F1500 X115.581 Y116.915 E187.49127
G0 F9000 X115.657 Y116.273
G1 F1500 X119.34 Y112.59 E187.66451
G0 F9000 X119.339 Y112.025
G1 F1500 X115.657 Y115.708 E187.83772
G0 F9000 X115.657 Y115.142
G1 F1500 X119.339 Y111.459 E188.01093
G0 F9000 X119.339 Y110.894
G1 F1500 X115.657 Y114.576 E188.18412
G0 F9000 X115.657 Y114.01
G1 F1500 X119.339 Y110.328 E188.35731
G0 F9000 X119.339 Y109.763
G1 F1500 X115.657 Y113.444 E188.53048
G0 F9000 X115.657 Y112.878
G1 F1500 X119.339 Y109.197 E188.70365
G0 F9000 X119.339 Y108.632
G1 F1500 X115.657 Y112.313 E188.87681
G0 F9000 X115.658 Y111.746
G1 F1500 X119.339 Y108.066 E189.04993
G0 F9000 X119.338 Y107.501
G1 F1500 X115.658 Y111.181 E189.22303
G0 F9000 X115.658 Y110.615
G1 F1500 X119.338 Y106.935 E189.39612
G0 F9000 X119.338 Y106.37
G1 F1500 X115.658 Y110.049 E189.5692
G0 F9000 X115.659 Y109.483
G1 F1500 X119.338 Y105.804 E189.74225
G0 F9000 X119.337 Y105.239
G1 F1500 X115.659 Y108.917 E189.91525
G0 F9000 X115.659 Y108.352
G1 F1500 X119.337 Y104.673 E190.08827
G0 F9000 X119.337 Y104.108
G1 F1500 X115.659 Y107.786 E190.26128
G0 F9000 X115.66 Y107.22
G1 F1500 X119.337 Y103.542 E190.43425
G0 F9000 X119.336 Y102.977
G1 F1500 X115.66 Y106.654 E190.60718
G0 F9000 X115.66 Y106.088
G1 F1500 X119.336 Y102.411 E190.78012
G0 F9000 X119.336 Y101.846
G1 F1500 X115.66 Y105.522 E190.95302
G0 F9000 X115.66 Y104.956
G1 F1500 X119.336 Y101.28 E191.12593
G0 F9000 X119.336 Y100.715
G1 F1500 X115.66 Y104.39 E191.29882
G0 F9000 X115.66 Y103.825
G1 F1500 X119.336 Y100.149 E191.47172
G0 F9000 X119.336 Y99.583
G1 F1500 X115.66 Y103.259 E191.64463
G0 F9000 X115.661 Y102.693
G1 F1500 X119.336 Y99.018 E191.81749
G0 F9000 X119.128 Y98.66
G1 F1500 X115.661 Y102.127 E191.98057
G0 F9000 X115.661 Y101.561
G1 F1500 X118.562 Y98.66 E192.11702
G0 F9000 X117.997 Y98.66
G1 F1500 X115.661 Y100.996 E192.2269
G0 F9000 X115.662 Y100.429
G1 F1500 X117.431 Y98.66 E192.31011
G0 F9000 X116.865 Y98.66
G1 F1500 X115.662 Y99.863 E192.3667
G0 F9000 X115.662 Y99.298
G1 F1500 X116.299 Y98.66 E192.39668
G0 F9000 X115.734 Y98.66
G1 F1500 X115.662 Y98.732 E192.40007
G1 F2700 E187.40007
;MESH:NONMESH
G0 F300 X115.662 Y98.732 Z1.8
G0 F9000 X115.202 Y98.732
G0 X114.938 Y116.595
G0 X108.262 Y132.655
G0 X108.272 Y136.715
G0 X110.128 Y136.663
G1 F2700 E192.40007
G0 F9000 X110.136 Y136.859
;TIME_ELAPSED:321.651383
;LAYER:8
;TYPE:WALL-INNER
;MESH:LETRA Y.stl
G1 F1500 X116.933 Y124.347 E192.87366
G1 X117.124 Y124.136 E192.88313
G1 X117.357 Y124.042 E192.89148
G1 X117.574 Y124.044 E192.8987
G1 X117.802 Y124.139 E192.90692
G1 X117.988 Y124.345 E192.91615
G1 X124.858 Y136.9 E193.39216
G1 X126.9 Y136.9 E193.46007
G1 X126.9 Y133.028 E193.58886
G1 X126.9 Y132.621 E193.60239
G1 X119.949 Y116.744 E194.17886
G1 X119.901 Y116.556 E194.18531
G1 X119.897 Y98.1 E194.79916
G1 X115.102 Y98.1 E194.95864
G1 X115.097 Y116.556 E195.57249
G1 X115.049 Y116.744 E195.57894
G1 X108.101 Y132.621 E196.15536
G1 X108.1 Y136.89 E196.29735
G1 X110.136 Y136.859 E196.36508
G0 F9000 X110.376 Y137.255
;TYPE:WALL-OUTER
G1 F1500 X117.303 Y124.505 E196.84769
G1 X117.387 Y124.447 E196.85108
G1 X117.537 Y124.448 E196.85607
G1 X117.621 Y124.507 E196.85949
G1 X124.621 Y137.3 E197.34452
G1 X127.3 Y137.3 E197.43362
G1 X127.3 Y133.028 E197.57571
G1 X127.3 Y132.537 E197.59204
G1 X120.299 Y116.547 E198.17261
G1 X120.297 Y97.7 E198.79946
G1 X114.702 Y97.7 E198.98555
G1 X114.699 Y116.547 E199.61241
G1 X107.701 Y132.537 E200.19294
G1 X107.7 Y137.296 E200.35122
G1 X110.376 Y137.255 E200.44024
G0 F9000 X109.918 Y136.502
;TYPE:SKIN
G1 F1500 X116.614 Y124.18 E200.90667
G1 X116.915 Y123.836 E200.92188
G1 X117.289 Y123.688 E200.93526
G1 X117.647 Y123.69 E200.94716
G1 X118.01 Y123.838 E200.9602
G1 X118.305 Y124.174 E200.97507
G1 X125.073 Y136.54 E201.44394
G1 X126.54 Y136.54 E201.49273
G1 X126.54 Y133.027 E201.60957
G1 X126.54 Y132.696 E201.62058
G1 X119.612 Y116.873 E202.19509
G1 X119.541 Y116.587 E202.20489
G1 X119.537 Y98.46 E202.8078
G1 X115.463 Y98.46 E202.9433
G1 X115.456 Y116.592 E203.54638
G1 X115.386 Y116.873 E203.55601
G1 X108.462 Y132.696 E204.13046
G1 X108.461 Y136.524 E204.25778
G1 X109.918 Y136.502 E204.30625
G0 F9000 X109.159 Y136.312
G1 F1500 X108.661 Y135.813 E204.3297
G0 F9000 X108.661 Y135.248
G1 F1500 X109.716 Y136.304 E204.37934
G0 F9000 X109.968 Y135.99
G1 F1500 X108.661 Y134.682 E204.44085
G0 F9000 X108.661 Y134.116
G1 F1500 X110.167 Y135.623 E204.51171
G0 F9000 X110.367 Y135.257
G1 F1500 X108.661 Y133.551 E204.59195
G0 F9000 X108.661 Y132.985
G1 F1500 X110.566 Y134.89 E204.68156
G0 F9000 X110.765 Y134.524
G1 F1500 X108.757 Y132.516 E204.77601
G0 F9000 X108.929 Y132.122
G1 F1500 X110.964 Y134.157 E204.87173
G0 F9000 X111.163 Y133.79
G1 F1500 X109.102 Y131.729 E204.96867
G0 F9000 X109.274 Y131.335
G1 F1500 X111.362 Y133.424 E205.06691
G0 F9000 X111.562 Y133.058
G1 F1500 X109.446 Y130.942 E205.16644
G0 F9000 X109.618 Y130.548
G1 F1500 X111.761 Y132.691 E205.26724
G0 F9000 X111.96 Y132.325
G1 F1500 X109.791 Y130.155 E205.36928
G0 F9000 X109.962 Y129.761
G1 F1500 X112.159 Y131.958 E205.47262
G0 F9000 X112.358 Y131.591
G1 F1500 X110.135 Y129.368 E205.57719
G0 F9000 X110.307 Y128.974
G1 F1500 X112.557 Y131.225 E205.68304
G0 F9000 X112.757 Y130.859
G1 F1500 X110.479 Y128.581 E205.79019
G0 F9000 X110.651 Y128.187
G1 F1500 X112.956 Y130.492 E205.89861
G0 F9000 X113.155 Y130.126
G1 F1500 X110.824 Y127.794 E206.00828
G0 F9000 X110.996 Y127.401
G1 F1500 X113.354 Y129.759 E206.11919
G0 F9000 X113.553 Y129.392
G1 F1500 X111.168 Y127.007 E206.23138
G0 F9000 X111.341 Y126.614
G1 F1500 X113.752 Y129.026 E206.34481
G0 F9000 X113.952 Y128.66
G1 F1500 X111.512 Y126.22 E206.45958
G0 F9000 X111.685 Y125.827
G1 F1500 X114.151 Y128.293 E206.57557
G0 F9000 X114.35 Y127.926
G1 F1500 X111.857 Y125.433 E206.69283
G0 F9000 X112.029 Y125.04
G1 F1500 X114.549 Y127.56 E206.81137
G0 F9000 X114.748 Y127.193
G1 F1500 X112.201 Y124.646 E206.93117
G0 F9000 X112.374 Y124.253
G1 F1500 X114.947 Y126.827 E207.05222
G0 F9000 X115.147 Y126.461
G1 F1500 X112.545 Y123.859 E207.17461
G0 F9000 X112.718 Y123.466
G1 F1500 X115.346 Y126.094 E207.29822
G0 F9000 X115.545 Y125.727
G1 F1500 X112.89 Y123.072 E207.4231
G0 F9000 X113.062 Y122.679
G1 F1500 X115.744 Y125.361 E207.54926
G0 F9000 X115.943 Y124.994
G1 F1500 X113.234 Y122.285 E207.67668
G0 F9000 X113.407 Y121.892
G1 F1500 X116.142 Y124.628 E207.80535
G0 F9000 X116.342 Y124.261
G1 F1500 X113.579 Y121.498 E207.93531
G0 F9000 X113.751 Y121.105
G1 F1500 X116.568 Y123.922 E208.06782
G0 F9000 X116.859 Y123.647
G1 F1500 X113.923 Y120.711 E208.20592
G0 F9000 X114.095 Y120.318
G1 F1500 X117.261 Y123.484 E208.35484
G0 F9000 X117.929 Y123.586
G1 F1500 X114.267 Y119.924 E208.52708
G0 F9000 X114.44 Y119.531
G1 F1500 X125.321 Y130.413 E209.03892
G0 F9000 X125.743 Y130.229
G0 X126.183 Y131.235
G0 X125.762 Y131.419
G1 F1500 X118.553 Y124.21 E209.37801
G0 F9000 X118.149 Y124.431
G0 X118.833 Y125.68
G0 X119.237 Y125.459
G1 F1500 X126.203 Y132.425 E209.70567
G0 F9000 X126.339 Y133.127
G1 F1500 X119.921 Y126.709 E210.00755
G0 F9000 X119.517 Y126.93
G0 X120.201 Y128.18
G0 X120.605 Y127.959
G1 F1500 X126.339 Y133.693 E210.27726
G0 F9000 X126.339 Y134.259
G1 F1500 X121.29 Y129.209 E210.51477
G0 F9000 X120.885 Y129.43
G0 X121.569 Y130.68
G0 X121.973 Y130.459
G1 F1500 X126.339 Y134.824 E210.72011
G0 F9000 X126.339 Y135.39
G1 F1500 X122.657 Y131.708 E210.8933
G0 F9000 X122.252 Y131.929
G0 X122.936 Y133.18
G0 X123.342 Y132.958
G1 F1500 X126.339 Y135.956 E211.03429
G0 F9000 X126.157 Y136.339
G1 F1500 X124.025 Y134.208 E211.13455
G0 F9000 X123.62 Y134.429
G0 X124.304 Y135.678
G0 X124.709 Y135.457
G1 F1500 X125.591 Y136.339 E211.17604
G0 F9000 X125.008 Y136.8
G0 X126.728 Y136.728
G0 X126.739 Y132.655
G0 X125.302 Y129.222
G0 X124.881 Y129.406
G1 F1500 X114.612 Y119.137 E211.65906
G0 F9000 X114.784 Y118.744
G1 F1500 X124.44 Y128.4 E212.11325
G0 F9000 X124.862 Y128.216
G0 X124.421 Y127.21
G0 X124 Y127.394
G1 F1500 X114.956 Y118.35 E212.53865
G0 F9000 X115.129 Y117.957
G1 F1500 X123.559 Y126.388 E212.9352
G0 F9000 X123.981 Y126.204
G0 X123.541 Y125.198
G0 X123.119 Y125.382
G1 F1500 X115.3 Y117.563 E213.30298
G0 F9000 X115.473 Y117.17
G1 F1500 X122.678 Y124.375 E213.64188
G0 F9000 X123.1 Y124.191
G0 X122.66 Y123.185
G0 X122.238 Y123.369
G1 F1500 X115.622 Y116.753 E213.95308
G0 F9000 X115.656 Y116.222
G1 F1500 X121.797 Y122.363 E214.24193
G0 F9000 X122.219 Y122.179
G0 X121.578 Y120.714
G0 X121.357 Y121.357
G1 F1500 X115.656 Y115.656 E214.51009
G0 F9000 X115.656 Y115.09
G1 F1500 X120.916 Y120.35 E214.7575
G0 F9000 X121.338 Y120.166
G0 X120.897 Y119.16
G0 X120.476 Y119.344
G1 F1500 X115.656 Y114.525 E214.9842
G0 F9000 X115.657 Y113.96
G1 F1500 X120.035 Y118.338 E215.19013
G0 F9000 X120.456 Y118.154
G0 X120.015 Y117.147
G0 X119.594 Y117.331
G1 F1500 X115.657 Y113.394 E215.37531
G0 F9000 X115.657 Y112.828
G1 F1500 X119.341 Y116.513 E215.54862
G0 F9000 X119.341 Y115.947
G1 F1500 X115.657 Y112.263 E215.7219
G0 F9000 X115.657 Y111.698
G1 F1500 X119.341 Y115.382 E215.89519
G0 F9000 X119.341 Y114.816
G1 F1500 X115.657 Y111.132 E216.06847
G0 F9000 X115.657 Y110.566
G1 F1500 X119.341 Y114.25 E216.24175
G0 F9000 X119.341 Y113.684
G1 F1500 X115.657 Y110.001 E216.41501
G0 F9000 X115.658 Y109.436
G1 F1500 X119.341 Y113.118 E216.58823
G0 F9000 X119.341 Y112.553
G1 F1500 X115.658 Y108.87 E216.76146
G0 F9000 X115.658 Y108.304
G1 F1500 X119.34 Y111.986 E216.93465
G0 F9000 X119.34 Y111.42
G1 F1500 X115.658 Y107.739 E217.10782
G0 F9000 X115.659 Y107.174
G1 F1500 X119.34 Y110.855 E217.28096
G0 F9000 X119.34 Y110.289
G1 F1500 X115.659 Y106.608 E217.45411
G0 F9000 X115.659 Y106.042
G1 F1500 X119.339 Y109.723 E217.62723
G0 F9000 X119.339 Y109.157
G1 F1500 X115.659 Y105.476 E217.80035
G0 F9000 X115.66 Y104.912
G1 F1500 X119.339 Y108.591 E217.97339
G0 F9000 X119.339 Y108.026
G1 F1500 X115.66 Y104.346 E218.14647
G0 F9000 X115.66 Y103.78
G1 F1500 X119.339 Y107.459 E218.31952
G0 F9000 X119.339 Y106.894
G1 F1500 X115.66 Y103.214 E218.49259
G0 F9000 X115.66 Y102.649
G1 F1500 X119.339 Y106.328 E218.66564
G0 F9000 X119.339 Y105.762
G1 F1500 X115.66 Y102.084 E218.83866
G0 F9000 X115.66 Y101.518
G1 F1500 X119.338 Y105.196 E219.01166
G0 F9000 X119.338 Y104.63
G1 F1500 X115.66 Y100.952 E219.18467
G0 F9000 X115.661 Y100.387
G1 F1500 X119.338 Y104.064 E219.35762
G0 F9000 X119.338 Y103.499
G1 F1500 X115.661 Y99.822 E219.53058
G0 F9000 X115.661 Y99.256
G1 F1500 X119.337 Y102.932 E219.70348
G0 F9000 X119.337 Y102.367
G1 F1500 X115.661 Y98.69 E219.87642
G0 F9000 X116.196 Y98.66
G1 F1500 X119.337 Y101.801 E220.02416
G0 F9000 X119.337 Y101.235
G1 F1500 X116.762 Y98.66 E220.14528
G0 F9000 X117.328 Y98.66
G1 F1500 X119.336 Y100.669 E220.23975
G0 F9000 X119.336 Y100.103
G1 F1500 X117.893 Y98.66 E220.30763
G0 F9000 X118.459 Y98.66
G1 F1500 X119.336 Y99.538 E220.3489
G0 F9000 X119.336 Y98.972
G1 F1500 X119.025 Y98.66 E220.36355
G1 F2700 E215.36355
;MESH:NONMESH
G0 F300 X119.025 Y98.66 Z2
G0 F9000 X119.025 Y98.2
G0 X115.274 Y98.272
G0 X114.938 Y116.595
G0 X108.262 Y132.655
G0 X108.272 Y136.715
G0 X110.128 Y136.663
G1 F2700 E220.36355
G0 F9000 X110.136 Y136.859
;TIME_ELAPSED:366.396759
;LAYER:9
;TYPE:WALL-INNER
;MESH:LETRA Y.stl
G1 F1500 X116.933 Y124.347 E220.83714
G1 X117.124 Y124.136 E220.84661
G1 X117.357 Y124.042 E220.85497
G1 X117.574 Y124.044 E220.86218
G1 X117.802 Y124.139 E220.8704
G1 X117.988 Y124.345 E220.87963
G1 X124.858 Y136.9 E221.35564
G1 X126.9 Y136.9 E221.42356
G1 X126.9 Y133.028 E221.55234
G1 X126.9 Y132.621 E221.56588
G1 X119.949 Y116.744 E222.14234
G1 X119.901 Y116.556 E222.14879
G1 X119.897 Y98.1 E222.76264
G1 X115.102 Y98.1 E222.92212
G1 X115.097 Y116.556 E223.53597
G1 X115.049 Y116.744 E223.54243
G1 X108.101 Y132.621 E224.11885
G1 X108.1 Y136.89 E224.26084
G1 X110.136 Y136.859 E224.32856
G0 F9000 X110.376 Y137.255
;TYPE:WALL-OUTER
G1 F1500 X117.303 Y124.505 E224.81117
G1 X117.387 Y124.447 E224.81457
G1 X117.537 Y124.448 E224.81956
G1 X117.621 Y124.507 E224.82297
G1 X124.621 Y137.3 E225.308
G1 X127.3 Y137.3 E225.39711
G1 X127.3 Y133.028 E225.53919
G1 X127.3 Y132.537 E225.55552
G1 X120.299 Y116.547 E226.1361
G1 X120.297 Y97.7 E226.76295
G1 X114.702 Y97.7 E226.94904
G1 X114.699 Y116.547 E227.57589
G1 X107.701 Y132.537 E228.15642
G1 X107.7 Y137.296 E228.31471
G1 X110.376 Y137.255 E228.40372
G0 F9000 X109.918 Y136.502
;TYPE:SKIN
G1 F1500 X116.614 Y124.18 E228.87016
G1 X116.915 Y123.836 E228.88536
G1 X117.289 Y123.688 E228.89874
G1 X117.647 Y123.69 E228.91065
G1 X118.01 Y123.838 E228.92369
G1 X118.305 Y124.174 E228.93856
G1 X125.073 Y136.54 E229.40742
G1 X126.54 Y136.54 E229.45622
G1 X126.54 Y133.027 E229.57306
G1 X126.54 Y132.696 E229.58407
G1 X119.612 Y116.873 E230.15858
G1 X119.541 Y116.587 E230.16838
G1 X119.537 Y98.46 E230.77129
G1 X115.463 Y98.46 E230.90679
G1 X115.456 Y116.592 E231.50986
G1 X115.386 Y116.873 E231.51949
G1 X108.462 Y132.696 E232.09395
G1 X108.461 Y136.524 E232.22127
G1 X109.918 Y136.502 E232.26973
G1 F2700 E227.26973
G0 F9000 X109.921 Y136.763
G0 X110.379 Y136.763
G0 X117.203 Y124.202
G0 X117.718 Y124.202
G0 X124.611 Y136.795
G0 X126.138 Y136.8
G1 F2700 E232.26973
G0 F9000 X126.138 Y136.339
G1 F1500 X126.339 Y136.138 E232.27919
G0 F9000 X126.339 Y135.572
G1 F1500 X125.572 Y136.339 E232.31527
G0 F9000 X125.127 Y136.219
G1 F1500 X126.339 Y135.007 E232.37227
G0 F9000 X126.339 Y134.441
G1 F1500 X124.927 Y135.853 E232.43869
G0 F9000 X124.727 Y135.488
G1 F1500 X126.339 Y133.875 E232.51454
G0 F9000 X126.339 Y133.31
G1 F1500 X124.527 Y135.122 E232.59977
G0 F9000 X124.327 Y134.756
G1 F1500 X126.339 Y132.744 E232.69441
G0 F9000 X126.169 Y132.349
G1 F1500 X124.126 Y134.391 E232.79048
G0 F9000 X123.926 Y134.025
G1 F1500 X125.996 Y131.956 E232.88782
G0 F9000 X125.824 Y131.562
G1 F1500 X123.726 Y133.66 E232.98651
G0 F9000 X123.526 Y133.294
G1 F1500 X125.652 Y131.169 E233.08648
G0 F9000 X125.48 Y130.775
G1 F1500 X123.326 Y132.929 E233.1878
G0 F9000 X123.126 Y132.563
G1 F1500 X125.307 Y130.382 E233.29039
G0 F9000 X125.135 Y129.988
G1 F1500 X122.926 Y132.197 E233.39429
G0 F9000 X122.726 Y131.832
G1 F1500 X124.963 Y129.594 E233.49954
G0 F9000 X124.79 Y129.201
G1 F1500 X122.526 Y131.466 E233.60605
G0 F9000 X122.325 Y131.101
G1 F1500 X124.618 Y128.808 E233.71391
G0 F9000 X124.446 Y128.414
G1 F1500 X122.125 Y130.735 E233.82308
G0 F9000 X121.925 Y130.369
G1 F1500 X124.274 Y128.021 E233.93355
G0 F9000 X124.102 Y127.627
G1 F1500 X121.725 Y130.004 E234.04535
G0 F9000 X121.525 Y129.638
G1 F1500 X123.929 Y127.234 E234.15843
G0 F9000 X123.757 Y126.841
G1 F1500 X121.325 Y129.273 E234.27283
G0 F9000 X121.125 Y128.907
G1 F1500 X123.585 Y126.447 E234.38854
G0 F9000 X123.412 Y126.054
G1 F1500 X120.925 Y128.542 E234.50554
G0 F9000 X120.725 Y128.176
G1 F1500 X123.24 Y125.66 E234.62386
G0 F9000 X123.068 Y125.267
G1 F1500 X120.524 Y127.81 E234.7435
G0 F9000 X120.324 Y127.445
G1 F1500 X122.895 Y124.874 E234.86443
G0 F9000 X122.724 Y124.48
G1 F1500 X120.124 Y127.079 E234.98671
G0 F9000 X119.924 Y126.714
G1 F1500 X122.551 Y124.087 E235.11027
G0 F9000 X122.379 Y123.693
G1 F1500 X119.724 Y126.348 E235.23515
G0 F9000 X119.524 Y125.983
G1 F1500 X122.207 Y123.3 E235.36135
G0 F9000 X122.034 Y122.907
G1 F1500 X119.324 Y125.617 E235.48882
G0 F9000 X119.124 Y125.251
G1 F1500 X121.862 Y122.513 E235.61761
G0 F9000 X121.69 Y122.12
G1 F1500 X118.924 Y124.886 E235.74772
G0 F9000 X118.723 Y124.52
G1 F1500 X121.518 Y121.726 E235.87916
G0 F9000 X121.345 Y121.333
G1 F1500 X118.523 Y124.155 E236.0119
G0 F9000 X118.278 Y123.834
G1 F1500 X121.173 Y120.94 E236.14805
G0 F9000 X121.001 Y120.546
G1 F1500 X117.951 Y123.596 E236.29151
G0 F9000 X117.496 Y123.485
G1 F1500 X120.828 Y120.152 E236.44826
G0 F9000 X120.657 Y119.759
G1 F1500 X109.426 Y130.989 E236.97651
G0 F9000 X109.006 Y130.804
G0 X108.567 Y131.809
G0 X108.987 Y131.994
G1 F1500 X115.89 Y125.091 E237.3012
G0 F9000 X116.294 Y125.311
G0 X115.621 Y126.55
G0 X115.217 Y126.33
G1 F1500 X108.661 Y132.885 E237.60956
G0 F9000 X108.661 Y133.451
G1 F1500 X114.544 Y127.569 E237.88625
G0 F9000 X114.948 Y127.789
G0 X114.274 Y129.029
G0 X113.87 Y128.808
G1 F1500 X108.661 Y134.017 E238.13127
G0 F9000 X108.661 Y134.582
G1 F1500 X113.197 Y130.047 E238.3446
G0 F9000 X113.601 Y130.267
G0 X112.928 Y131.506
G0 X112.524 Y131.286
G1 F1500 X108.661 Y135.148 E238.52628
G0 F9000 X108.661 Y135.714
G1 F1500 X111.85 Y132.525 E238.67628
G0 F9000 X112.254 Y132.745
G0 X111.581 Y133.985
G0 X111.177 Y133.764
G1 F1500 X108.661 Y136.279 E238.7946
G0 F9000 X109.194 Y136.312
G1 F1500 X110.504 Y135.002 E238.85622
G0 F9000 X110.909 Y135.223
G0 X110.237 Y136.462
G0 X109.831 Y136.241
G1 F1500 X109.769 Y136.304 E238.85916
G0 F9000 X109.98 Y136.762
G0 X108.272 Y136.715
G0 X108.262 Y132.655
G0 X109.446 Y129.799
G0 X109.866 Y129.983
G1 F1500 X120.484 Y119.365 E239.3586
G0 F9000 X120.312 Y118.972
G1 F1500 X110.307 Y128.977 E239.8292
G0 F9000 X109.887 Y128.792
G0 X110.327 Y127.787
G0 X110.747 Y127.972
G1 F1500 X120.14 Y118.578 E240.27105
G0 F9000 X119.967 Y118.185
G1 F1500 X111.187 Y126.965 E240.68403
G0 F9000 X110.767 Y126.781
G0 X111.208 Y125.775
G0 X111.627 Y125.96
G1 F1500 X119.795 Y117.791 E241.06825
G0 F9000 X119.623 Y117.398
G1 F1500 X112.067 Y124.954 E241.42366
G0 F9000 X111.647 Y124.77
G0 X112.088 Y123.764
G0 X112.507 Y123.948
G1 F1500 X119.45 Y117.005 E241.75024
G0 F9000 X119.341 Y116.549
G1 F1500 X112.948 Y122.942 E242.05095
G0 F9000 X112.528 Y122.757
G0 X112.967 Y121.755
G0 X113.388 Y121.937
G1 F1500 X119.341 Y115.983 E242.33098
G0 F9000 X119.341 Y115.418
G1 F1500 X113.827 Y120.931 E242.59032
G0 F9000 X113.408 Y120.746
G0 X113.848 Y119.74
G0 X114.268 Y119.925
G1 F1500 X119.341 Y114.852 E242.82894
G0 F9000 X119.34 Y114.287
G1 F1500 X114.708 Y118.919 E243.04681
G0 F9000 X114.288 Y118.734
G0 X114.728 Y117.729
G0 X115.148 Y117.913
G1 F1500 X119.34 Y113.721 E243.24399
G0 F9000 X119.34 Y113.156
G1 F1500 X115.581 Y116.915 E243.4208
G0 F9000 X115.657 Y116.273
G1 F1500 X119.34 Y112.59 E243.59404
G0 F9000 X119.339 Y112.025
G1 F1500 X115.657 Y115.708 E243.76725
G0 F9000 X115.657 Y115.142
G1 F1500 X119.339 Y111.459 E243.94047
G0 F9000 X119.339 Y110.894
G1 F1500 X115.657 Y114.576 E244.11366
G0 F9000 X115.657 Y114.01
G1 F1500 X119.339 Y110.328 E244.28685
G0 F9000 X119.339 Y109.763
G1 F1500 X115.657 Y113.444 E244.46001
G0 F9000 X115.657 Y112.878
G1 F1500 X119.339 Y109.197 E244.63318
G0 F9000 X119.339 Y108.632
G1 F1500 X115.657 Y112.313 E244.80635
G0 F9000 X115.658 Y111.746
G1 F1500 X119.339 Y108.066 E244.97947
G0 F9000 X119.338 Y107.501
G1 F1500 X115.658 Y111.181 E245.15256
G0 F9000 X115.658 Y110.615
G1 F1500 X119.338 Y106.935 E245.32566
G0 F9000 X119.338 Y106.37
G1 F1500 X115.658 Y110.049 E245.49873
G0 F9000 X115.659 Y109.483
G1 F1500 X119.338 Y105.804 E245.67178
G0 F9000 X119.337 Y105.239
G1 F1500 X115.659 Y108.917 E245.84478
G0 F9000 X115.659 Y108.352
G1 F1500 X119.337 Y104.673 E246.01781
G0 F9000 X119.337 Y104.108
G1 F1500 X115.659 Y107.786 E246.19081
G0 F9000 X115.66 Y107.22
G1 F1500 X119.337 Y103.542 E246.36379
G0 F9000 X119.336 Y102.977
G1 F1500 X115.66 Y106.654 E246.53672
G0 F9000 X115.66 Y106.088
G1 F1500 X119.336 Y102.411 E246.70965
G0 F9000 X119.336 Y101.846
G1 F1500 X115.66 Y105.522 E246.88256
G0 F9000 X115.66 Y104.956
G1 F1500 X119.336 Y101.28 E247.05547
G0 F9000 X119.336 Y100.715
G1 F1500 X115.66 Y104.39 E247.22835
G0 F9000 X115.66 Y103.825
G1 F1500 X119.336 Y100.149 E247.40126
G0 F9000 X119.336 Y99.583
G1 F1500 X115.66 Y103.259 E247.57417
G0 F9000 X115.661 Y102.693
G1 F1500 X119.336 Y99.018 E247.74703
G0 F9000 X119.128 Y98.66
G1 F1500 X115.661 Y102.127 E247.9101
G0 F9000 X115.661 Y101.561
G1 F1500 X118.562 Y98.66 E248.04656
G0 F9000 X117.997 Y98.66
G1 F1500 X115.661 Y100.996 E248.15644
G0 F9000 X115.662 Y100.429
G1 F1500 X117.431 Y98.66 E248.23964
G0 F9000 X116.865 Y98.66
G1 F1500 X115.662 Y99.863 E248.29623
G0 F9000 X115.662 Y99.298
G1 F1500 X116.299 Y98.66 E248.32622
G0 F9000 X115.734 Y98.66
G1 F1500 X115.662 Y98.732 E248.3296
;TIME_ELAPSED:410.745300
G1 F2700 E243.3296
M140 S0
M107
G91 ;Relative positioning
G1 E-2 F2700 ;Retract a bit
G1 E-2 Z0.2 F2400 ;Retract and raise Z
G1 X5 Y5 F3000 ;Wipe out
G1 Z10 ;Raise Z more
G90 ;Absolute positioning

G1 X0 Y235 ;Present print
M106 S0 ;Turn-off fan
M104 S0 ;Turn-off hotend
M140 S0 ;Turn-off bed

M84 X Y E ;Disable all steppers but Z

M82 ;absolute extrusion mode
M104 S0
;End of Gcode
;SETTING_3 {"global_quality": "[general]\\nversion = 4\\nname = Standard Quality
;SETTING_3  #2\\ndefinition = creality_ender3\\n\\n[metadata]\\ntype = quality_c
;SETTING_3 hanges\\nquality_type = standard\\nsetting_version = 20\\n\\n[values]
;SETTING_3 \\nadhesion_type = none\\n\\n", "extruder_quality": ["[general]\\nver
;SETTING_3 sion = 4\\nname = Standard Quality #2\\ndefinition = creality_ender3\
;SETTING_3 \n\\n[metadata]\\ntype = quality_changes\\nquality_type = standard\\n
;SETTING_3 setting_version = 20\\nposition = 0\\n\\n[values]\\ninfill_sparse_den
;SETTING_3 sity = 20\\n\\n"]}
