;FLAVOR:Marlin
;TIME:718
;Filament used: 0.429673m
;Layer height: 0.2
;MINX:107.7
;MINY:97.7
;MINZ:0.2
;MAXX:127.3
;MAXY:137.3
;MAXZ:2
;Generated with Cura_SteamEngine 5.2.2
M140 S50
M105
M190 S50
M104 S200
M105
M109 S200
M82 ;absolute extrusion mode
; Ender 3 Custom Start G-code
G92 E0 ; Reset Extruder
G28 ; Home all axes
G1 Z2.0 F3000 ; Move Z Axis up little to prevent scratching of Heat Bed
G1 X0.1 Y20 Z0.3 F5000.0 ; Move to start position
G1 X0.1 Y200.0 Z0.3 F1500.0 E15 ; Draw the first line
G1 X0.4 Y200.0 Z0.3 F5000.0 ; Move to side a little
G1 X0.4 Y20 Z0.3 F1500.0 E30 ; Draw the second line
G92 E0 ; Reset Extruder
G1 Z2.0 F3000 ; Move Z Axis up little to prevent scratching of Heat Bed
G1 X5 Y20 Z0.3 F5000.0 ; Move over to prevent blob squish
G92 E0
G92 E0
G1 F2700 E-5
;LAYER_COUNT:10
;LAYER:0
M107
;MESH:LETRA B.stl
G0 F6000 X111.995 Y114.834 Z0.2
;TYPE:WALL-INNER
G1 F2700 E0
G1 F1200 X111.923 Y114.679 E0.00568
G1 X111.897 Y114.503 E0.0116
G1 X111.897 Y104.498 E0.34437
G1 X111.929 Y104.301 E0.35101
G1 X112.019 Y104.135 E0.35729
G1 X112.14 Y104.015 E0.36296
G1 X112.421 Y103.898 E0.37308
G1 X120.978 Y103.898 E0.65769
G1 X122.626 Y103.898 E0.7125
G1 X122.857 Y104.012 E0.72107
G1 X123.001 Y104.161 E0.72796
G1 X123.077 Y104.321 E0.73385
G1 X123.104 Y104.498 E0.73981
G1 X123.104 Y114.503 E1.07257
G1 X123.077 Y114.679 E1.0785
G1 X122.902 Y114.953 E1.08931
G1 X122.621 Y115.104 E1.09992
G1 X112.444 Y115.101 E1.43841
G1 X112.214 Y115.033 E1.44638
G1 X111.995 Y114.834 E1.45623
G0 F6000 X112.329 Y114.614
;TYPE:WALL-OUTER
G1 F1200 X112.299 Y114.538 E1.45894
G1 X112.297 Y104.445 E1.79464
G1 X112.378 Y104.337 E1.79913
G1 X112.462 Y104.3 E1.80218
G1 X120.978 Y104.298 E2.08543
G1 X122.546 Y104.298 E2.13758
G1 X122.669 Y104.385 E2.14259
G1 X122.704 Y104.498 E2.14652
G1 X122.704 Y114.503 E2.47929
G1 X122.671 Y114.614 E2.48314
G1 X122.503 Y114.704 E2.48948
G1 X112.479 Y114.703 E2.82288
G1 X112.329 Y114.614 E2.82868
G1 F2700 E-2.17132
G0 F6000 X112.579 Y115.204
G0 X112.598 Y119.718
G0 X112.417 Y131.103
;TYPE:WALL-INNER
G1 F2700 E2.82868
G1 F1200 X112.14 Y130.986 E2.83868
G1 X112.019 Y130.866 E2.84435
G1 X111.897 Y130.576 E2.85481
G1 X111.897 Y120.498 E3.19001
G1 X111.923 Y120.321 E3.19596
G1 X111.995 Y120.167 E3.20161
G1 X112.214 Y119.968 E3.21146
G1 X112.444 Y119.9 E3.21943
G1 X122.62 Y119.898 E3.55789
G1 X122.902 Y120.048 E3.56851
G1 X123.077 Y120.321 E3.5793
G1 X123.104 Y120.498 E3.58525
G1 X123.104 Y130.628 E3.92218
G1 X122.923 Y130.933 E3.93397
G1 X122.648 Y131.086 E3.94444
G1 X122.503 Y131.103 E3.9493
G1 X112.417 Y131.103 E4.28476
G0 F6000 X112.337 Y130.624
;TYPE:WALL-OUTER
G1 F1200 X112.299 Y130.538 E4.28789
G1 X112.297 Y120.456 E4.62321
G1 X112.42 Y120.298 E4.62987
G1 X122.54 Y120.298 E4.96647
G1 X122.671 Y120.387 E4.97173
G1 X122.704 Y120.498 E4.97559
G1 X122.704 Y130.543 E5.30968
G1 X122.667 Y130.619 E5.3125
G1 X122.552 Y130.698 E5.31714
G1 X112.458 Y130.7 E5.65286
G1 X112.337 Y130.624 E5.65762
G1 F2700 E0.65762
G0 F6000 X112.598 Y131.204
G0 X121.513 Y131.284
G0 X123.42 Y135.91
G0 X122.713 Y136.9
;TYPE:WALL-INNER
G1 F2700 E5.65762
G1 F1200 X126.9 Y132.713 E5.85456
G1 X126.9 Y103.748 E6.81794
G1 X126.9 Y102.959 E6.84418
G1 X122.208 Y98.1 E7.06884
G1 X108.1 Y98.1 E7.53808
G1 X108.101 Y136.899 E8.82854
G1 X122.713 Y136.9 E9.31453
G0 F6000 X122.879 Y137.3
;TYPE:WALL-OUTER
G1 F1200 X127.3 Y132.879 E9.52248
G1 X127.3 Y103.748 E10.49138
G1 X127.3 Y102.797 E10.52301
G1 X122.378 Y97.7 E10.75868
G1 X107.7 Y97.7 E11.24687
G1 X107.701 Y137.299 E12.56394
G1 X122.879 Y137.3 E13.06876
G0 F6000 X122.563 Y136.539
;TYPE:SKIN
G1 F1200 X126.54 Y132.563 E13.25581
G1 X126.54 Y103.75 E14.21413
G1 X126.54 Y103.106 E14.23555
G1 X122.054 Y98.46 E14.45035
G1 X108.461 Y98.461 E14.90246
G1 X108.462 Y136.538 E16.16891
G1 X122.563 Y136.539 E16.63791
G1 F2700 E11.63791
G0 F6000 X122.747 Y136.723
G0 X112.598 Y136.7
G0 X112.6 Y131.284
G0 X112.351 Y131.463
G1 F2700 E16.63791
G1 F1200 X111.963 Y131.297 E16.65194
G1 X111.723 Y131.083 E16.66264
G1 X111.539 Y130.627 E16.67899
G1 X111.539 Y120.476 E17.01662
G1 X111.573 Y120.243 E17.02445
G1 X111.698 Y119.955 E17.03489
G1 X112.032 Y119.653 E17.04987
G1 X112.094 Y119.629 E17.05208
G1 X112.398 Y119.54 E17.06261
G1 X122.527 Y119.539 E17.39951
G1 X122.768 Y119.574 E17.40761
G1 X123.106 Y119.755 E17.42036
G1 X123.29 Y119.948 E17.42923
G1 X123.411 Y120.187 E17.43814
G1 X123.462 Y120.474 E17.44783
G1 X123.462 Y130.678 E17.78722
G1 X123.333 Y130.988 E17.79839
G1 X123.18 Y131.186 E17.80671
G1 X122.943 Y131.357 E17.81643
G1 X122.669 Y131.463 E17.8262
G1 X112.351 Y131.463 E18.16938
G1 F2700 E13.16938
G0 F6000 X112.598 Y131.204
G0 X112.069 Y130.931
G0 X112.069 Y120.07
G0 X112.579 Y119.718
G0 X112.579 Y115.284
G0 X112.035 Y115.35
G1 F2700 E18.16938
G1 F1200 X111.696 Y115.044 E18.18457
G1 X111.573 Y114.761 E18.19483
G1 X111.539 Y114.534 E18.20246
G1 X111.539 Y104.468 E18.53726
G1 X111.586 Y104.177 E18.54707
G1 X111.748 Y103.897 E18.55782
G1 X111.966 Y103.703 E18.56753
G1 X112.357 Y103.54 E18.58162
G1 X122.524 Y103.539 E18.91978
G1 X122.785 Y103.575 E18.92854
G1 X123.067 Y103.72 E18.93909
G1 X123.294 Y103.947 E18.94976
G1 X123.422 Y104.215 E18.95964
G1 X123.462 Y104.474 E18.96836
G1 X123.462 Y114.53 E19.30282
G1 X123.429 Y114.76 E19.31055
G1 X123.319 Y115.007 E19.31954
G1 X123.141 Y115.227 E19.32896
G1 X122.768 Y115.427 E19.34303
G1 X122.496 Y115.464 E19.35216
G1 X112.402 Y115.458 E19.68789
G1 X112.035 Y115.35 E19.70061
G1 F2700 E14.70061
G0 F6000 X112.579 Y115.204
G0 X112.069 Y114.931
G0 X112.069 Y104.07
G0 X122.244 Y103.718
G0 X125.162 Y100.898
G0 X121.853 Y98.66
G1 F2700 E19.70061
G1 F1200 X125.187 Y101.994 E19.85744
G0 F6000 X125.518 Y101.674
G0 X126.708 Y102.905
G0 X126.34 Y103.712
G1 F1200 X121.287 Y98.66 E20.09509
G0 F6000 X120.722 Y98.66
G1 F1200 X126.34 Y104.278 E20.35934
G0 F6000 X126.34 Y104.844
G1 F1200 X120.156 Y98.66 E20.65022
G0 F6000 X119.59 Y98.66
G1 F1200 X126.34 Y105.409 E20.9677
G0 F6000 X126.34 Y105.975
G1 F1200 X119.025 Y98.66 E21.31177
G0 F6000 X118.459 Y98.66
G1 F1200 X126.34 Y106.541 E21.68247
G0 F6000 X126.34 Y107.106
G1 F1200 X123.655 Y104.421 E21.80876
G0 F6000 X123.659 Y104.991
G1 F1200 X126.34 Y107.672 E21.93487
G0 F6000 X126.34 Y108.238
G1 F1200 X123.659 Y105.557 E22.06097
G0 F6000 X123.659 Y106.123
G1 F1200 X126.34 Y108.803 E22.18706
G0 F6000 X126.34 Y109.369
G1 F1200 X123.66 Y106.689 E22.31312
G0 F6000 X123.66 Y107.255
G1 F1200 X126.34 Y109.935 E22.43918
G0 F6000 X126.34 Y110.5
G1 F1200 X123.66 Y107.821 E22.56521
G0 F6000 X123.66 Y108.386
G1 F1200 X126.34 Y111.066 E22.69127
G0 F6000 X126.34 Y111.632
G1 F1200 X123.66 Y108.953 E22.8173
G0 F6000 X123.66 Y109.518
G1 F1200 X126.34 Y112.198 E22.94336
G0 F6000 X126.34 Y112.763
G1 F1200 X123.66 Y110.084 E23.0694
G0 F6000 X123.661 Y110.65
G1 F1200 X126.34 Y113.329 E23.19541
G0 F6000 X126.34 Y113.895
G1 F1200 X123.661 Y111.216 E23.32142
G0 F6000 X123.661 Y111.782
G1 F1200 X126.34 Y114.46 E23.44741
G0 F6000 X126.34 Y115.026
G1 F1200 X123.661 Y112.347 E23.57342
G0 F6000 X123.662 Y112.914
G1 F1200 X126.34 Y115.592 E23.69939
G0 F6000 X126.34 Y116.157
G1 F1200 X123.662 Y113.48 E23.82533
G0 F6000 X123.662 Y114.045
G1 F1200 X126.34 Y116.723 E23.95129
G0 F6000 X126.34 Y117.289
G1 F1200 X123.65 Y114.599 E24.07782
G0 F6000 X123.522 Y115.037
G1 F1200 X126.34 Y117.854 E24.21035
G0 F6000 X126.34 Y118.42
G1 F1200 X123.285 Y115.365 E24.35405
G0 F6000 X122.926 Y115.572
G1 F1200 X126.34 Y118.986 E24.51463
G0 F6000 X126.34 Y119.551
G1 F1200 X122.452 Y115.664 E24.69749
G0 F6000 X121.886 Y115.664
G1 F1200 X126.34 Y120.117 E24.90697
G0 F6000 X126.34 Y120.683
G1 F1200 X121.321 Y115.664 E25.14305
G0 F6000 X120.754 Y115.663
G1 F1200 X126.34 Y121.249 E25.40579
G0 F6000 X126.34 Y121.814
G1 F1200 X120.189 Y115.663 E25.69512
G0 F6000 X119.623 Y115.663
G1 F1200 X126.34 Y122.38 E26.01107
G0 F6000 X126.34 Y122.946
G1 F1200 X123.627 Y120.232 E26.1387
G0 F6000 X123.662 Y120.833
G1 F1200 X126.34 Y123.511 E26.26467
G0 F6000 X126.34 Y124.077
G1 F1200 X123.662 Y121.399 E26.39063
G0 F6000 X123.662 Y121.965
G1 F1200 X126.34 Y124.643 E26.5166
G0 F6000 X126.34 Y125.208
G1 F1200 X123.661 Y122.53 E26.64258
G0 F6000 X123.661 Y123.095
G1 F1200 X126.34 Y125.774 E26.7686
G0 F6000 X126.34 Y126.34
G1 F1200 X123.661 Y123.661 E26.89461
G0 F6000 X123.66 Y124.226
G1 F1200 X126.34 Y126.905 E27.02064
G0 F6000 X126.34 Y127.471
G1 F1200 X123.66 Y124.792 E27.14668
G0 F6000 X123.66 Y125.358
G1 F1200 X126.34 Y128.037 E27.27271
G0 F6000 X126.34 Y128.602
G1 F1200 X123.66 Y125.922 E27.39877
G0 F6000 X123.66 Y126.488
G1 F1200 X126.34 Y129.168 E27.52483
G0 F6000 X126.34 Y129.734
G1 F1200 X123.66 Y127.054 E27.65089
G0 F6000 X123.659 Y127.619
G1 F1200 X126.34 Y130.299 E27.77697
G0 F6000 X126.34 Y130.865
G1 F1200 X123.659 Y128.185 E27.90306
G0 F6000 X123.659 Y128.75
G1 F1200 X126.34 Y131.431 E28.02916
G0 F6000 X126.34 Y131.997
G1 F1200 X123.658 Y129.315 E28.15531
G0 F6000 X123.658 Y129.881
G1 F1200 X126.297 Y132.52 E28.27945
G0 F6000 X126.014 Y132.803
G1 F1200 X123.658 Y130.447 E28.39026
G0 F6000 X123.575 Y130.929
G1 F1200 X125.732 Y133.085 E28.4917
G0 F6000 X125.449 Y133.368
G1 F1200 X123.358 Y131.277 E28.59005
G0 F6000 X123.046 Y131.531
G1 F1200 X125.166 Y133.651 E28.68977
G0 F6000 X124.883 Y133.934
G1 F1200 X122.61 Y131.661 E28.79669
G0 F6000 X122.045 Y131.661
G1 F1200 X124.6 Y134.217 E28.91689
G0 F6000 X124.317 Y134.5
G1 F1200 X121.479 Y131.661 E29.0504
G0 F6000 X120.913 Y131.661
G1 F1200 X124.035 Y134.783 E29.19725
G0 F6000 X123.752 Y135.065
G1 F1200 X120.348 Y131.661 E29.35737
G0 F6000 X119.782 Y131.661
G1 F1200 X123.469 Y135.348 E29.53079
G0 F6000 X123.186 Y135.631
G1 F1200 X119.216 Y131.661 E29.71753
G0 F6000 X118.651 Y131.661
G1 F1200 X122.903 Y135.914 E29.91755
G0 F6000 X122.62 Y136.197
G1 F1200 X118.085 Y131.661 E30.13089
G0 F6000 X117.519 Y131.661
G1 F1200 X122.195 Y136.337 E30.35083
G0 F6000 X121.629 Y136.337
G1 F1200 X116.954 Y131.661 E30.57076
G0 F6000 X116.388 Y131.661
G1 F1200 X121.063 Y136.337 E30.79068
G0 F6000 X120.498 Y136.337
G1 F1200 X115.822 Y131.661 E31.01062
G0 F6000 X115.256 Y131.661
G1 F1200 X119.932 Y136.337 E31.23057
G0 F6000 X119.366 Y136.337
G1 F1200 X114.691 Y131.661 E31.45049
G0 F6000 X114.125 Y131.661
G1 F1200 X118.801 Y136.337 E31.67043
G0 F6000 X118.235 Y136.337
G1 F1200 X113.559 Y131.661 E31.89038
G0 F6000 X112.994 Y131.661
G1 F1200 X117.669 Y136.337 E32.1103
G0 F6000 X117.103 Y136.337
G1 F1200 X112.428 Y131.661 E32.33022
G0 F6000 X112.598 Y131.204
G0 X112.122 Y130.959
G0 X111.801 Y130.54
G0 X111.341 Y130.575
G1 F1200 X108.661 Y127.895 E32.45628
G0 F6000 X108.661 Y128.46
G1 F1200 X116.538 Y136.337 E32.82679
G0 F6000 X115.972 Y136.337
G1 F1200 X108.661 Y129.026 E33.17068
G0 F6000 X108.661 Y129.592
G1 F1200 X115.406 Y136.337 E33.48794
G0 F6000 X114.841 Y136.337
G1 F1200 X108.661 Y130.157 E33.77863
G0 F6000 X108.661 Y130.723
G1 F1200 X114.275 Y136.337 E34.04269
G0 F6000 X113.709 Y136.337
G1 F1200 X108.661 Y131.289 E34.28014
G0 F6000 X108.661 Y131.854
G1 F1200 X113.144 Y136.337 E34.491
G0 F6000 X112.578 Y136.337
G1 F1200 X108.661 Y132.42 E34.67525
G0 F6000 X108.661 Y132.986
G1 F1200 X112.012 Y136.337 E34.83287
G0 F6000 X111.447 Y136.337
G1 F1200 X108.661 Y133.551 E34.96391
G0 F6000 X108.661 Y134.117
G1 F1200 X110.881 Y136.337 E35.06833
G0 F6000 X110.315 Y136.337
G1 F1200 X108.661 Y134.683 E35.14613
G0 F6000 X108.661 Y135.249
G1 F1200 X109.75 Y136.337 E35.19733
G0 F6000 X109.184 Y136.337
G1 F1200 X108.661 Y135.814 E35.22193
G1 F2700 E30.22193
G0 F6000 X108.201 Y135.814
G0 X108.301 Y133.868
G0 X111.875 Y130.976
G0 X111.341 Y130.009
G1 F2700 E35.22193
G1 F1200 X108.661 Y127.329 E35.34799
G0 F6000 X108.661 Y126.763
G1 F1200 X111.341 Y129.443 E35.47405
G0 F6000 X111.341 Y128.877
G1 F1200 X108.661 Y126.198 E35.60009
G0 F6000 X108.661 Y125.632
G1 F1200 X111.341 Y128.311 E35.72612
G0 F6000 X111.341 Y127.745
G1 F1200 X108.661 Y125.066 E35.85216
G0 F6000 X108.661 Y124.5
G1 F1200 X111.34 Y127.179 E35.97817
G0 F6000 X111.34 Y126.613
G1 F1200 X108.661 Y123.935 E36.10416
G0 F6000 X108.661 Y123.368
G1 F1200 X111.34 Y126.048 E36.23019
G0 F6000 X111.339 Y125.481
G1 F1200 X108.661 Y122.803 E36.35616
G0 F6000 X108.661 Y122.237
G1 F1200 X111.339 Y124.916 E36.48215
G0 F6000 X111.339 Y124.35
G1 F1200 X108.661 Y121.671 E36.60813
G0 F6000 X108.661 Y121.106
G1 F1200 X111.338 Y123.783 E36.73405
G0 F6000 X111.338 Y123.218
G1 F1200 X108.661 Y120.54 E36.85999
G0 F6000 X108.661 Y119.974
G1 F1200 X111.338 Y122.652 E36.98593
G0 F6000 X111.338 Y122.086
G1 F1200 X108.661 Y119.409 E37.11185
G0 F6000 X108.661 Y118.843
G1 F1200 X111.338 Y121.52 E37.23777
G0 F6000 X111.338 Y120.954
G1 F1200 X108.661 Y118.277 E37.36369
G0 F6000 X108.661 Y117.712
G1 F1200 X111.35 Y120.401 E37.49017
G0 F6000 X111.478 Y119.963
G1 F1200 X108.661 Y117.146 E37.62267
G0 F6000 X108.661 Y116.58
G1 F1200 X111.732 Y119.652 E37.76715
G0 F6000 X112.074 Y119.428
G1 F1200 X108.661 Y116.015 E37.92768
G0 F6000 X108.661 Y115.449
G1 F1200 X112.553 Y119.341 E38.11075
G0 F6000 X113.119 Y119.341
G1 F1200 X108.661 Y114.883 E38.32044
G0 F6000 X108.661 Y114.317
G1 F1200 X113.685 Y119.341 E38.55676
G0 F6000 X114.25 Y119.341
G1 F1200 X108.661 Y113.752 E38.81965
G0 F6000 X108.661 Y113.186
G1 F1200 X114.815 Y119.341 E39.10914
G0 F6000 X115.381 Y119.341
G1 F1200 X108.661 Y112.62 E39.42525
G0 F6000 X108.661 Y112.055
G1 F1200 X111.371 Y114.765 E39.55272
G0 F6000 X111.34 Y114.168
G1 F1200 X108.661 Y111.489 E39.67873
G0 F6000 X108.66 Y110.923
G1 F1200 X111.34 Y113.603 E39.80479
G0 F6000 X111.34 Y113.037
G1 F1200 X108.66 Y110.357 E39.93085
G0 F6000 X108.66 Y109.791
G1 F1200 X111.339 Y112.47 E40.05686
G0 F6000 X111.339 Y111.905
G1 F1200 X108.66 Y109.226 E40.18287
G0 F6000 X108.66 Y108.66
G1 F1200 X111.339 Y111.339 E40.30888
G0 F6000 X111.338 Y110.773
G1 F1200 X108.66 Y108.094 E40.43487
G0 F6000 X108.66 Y107.529
G1 F1200 X111.338 Y110.207 E40.56084
G0 F6000 X111.338 Y109.641
G1 F1200 X108.66 Y106.963 E40.6868
G0 F6000 X108.66 Y106.397
G1 F1200 X111.338 Y109.075 E40.81277
G0 F6000 X111.338 Y108.509
G1 F1200 X108.66 Y105.831 E40.93873
G0 F6000 X108.66 Y105.266
G1 F1200 X111.338 Y107.944 E41.0647
G0 F6000 X111.337 Y107.377
G1 F1200 X108.66 Y104.7 E41.19061
G0 F6000 X108.66 Y104.134
G1 F1200 X111.337 Y106.812 E41.31655
G0 F6000 X111.337 Y106.246
G1 F1200 X108.66 Y103.569 E41.44247
G0 F6000 X108.66 Y103.003
G1 F1200 X111.336 Y105.679 E41.56834
G0 F6000 X111.336 Y105.114
G1 F1200 X108.66 Y102.437 E41.69424
G0 F6000 X108.66 Y101.872
G1 F1200 X111.336 Y104.548 E41.82011
G0 F6000 X111.418 Y104.064
G1 F1200 X108.66 Y101.306 E41.94984
G0 F6000 X108.66 Y100.74
G1 F1200 X111.642 Y103.723 E42.09012
G0 F6000 X111.968 Y103.483
G1 F1200 X108.66 Y100.175 E42.24572
G0 F6000 X108.66 Y99.609
G1 F1200 X112.393 Y103.342 E42.42131
G0 F6000 X112.958 Y103.342
G1 F1200 X108.66 Y99.043 E42.6235
G0 F6000 X108.842 Y98.66
G1 F1200 X113.524 Y103.342 E42.84373
G0 F6000 X114.09 Y103.342
G1 F1200 X109.408 Y98.66 E43.06395
G0 F6000 X109.974 Y98.66
G1 F1200 X114.655 Y103.342 E43.28416
G0 F6000 X115.221 Y103.342
G1 F1200 X110.539 Y98.66 E43.50438
G0 F6000 X111.105 Y98.66
G1 F1200 X115.786 Y103.341 E43.72456
G0 F6000 X116.352 Y103.341
G1 F1200 X111.671 Y98.66 E43.94474
G0 F6000 X112.236 Y98.66
G1 F1200 X116.917 Y103.341 E44.16492
G0 F6000 X117.483 Y103.341
G1 F1200 X112.802 Y98.66 E44.3851
G0 F6000 X113.368 Y98.66
G1 F1200 X118.049 Y103.341 E44.60528
G0 F6000 X118.615 Y103.341
G1 F1200 X113.933 Y98.66 E44.82549
G0 F6000 X114.499 Y98.66
G1 F1200 X119.18 Y103.34 E45.04564
G0 F6000 X119.745 Y103.34
G1 F1200 X115.065 Y98.66 E45.26578
G0 F6000 X115.631 Y98.66
G1 F1200 X120.311 Y103.34 E45.48591
G0 F6000 X120.877 Y103.34
G1 F1200 X116.196 Y98.66 E45.70607
G0 F6000 X116.762 Y98.66
G1 F1200 X121.442 Y103.34 E45.9262
G0 F6000 X122.008 Y103.34
G1 F1200 X117.328 Y98.66 E46.14633
G0 F6000 X117.893 Y98.66
G1 F1200 X122.579 Y103.346 E46.36675
G0 F6000 X122.513 Y103.8
G0 X122.931 Y104.07
G0 X122.931 Y114.931
G0 X119.056 Y115.204
G0 X119.056 Y115.662
G1 F1200 X122.761 Y119.367 E46.54102
G0 F6000 X122.166 Y119.338
G1 F1200 X118.491 Y115.662 E46.7139
G0 F6000 X117.924 Y115.662
G1 F1200 X121.601 Y119.338 E46.88683
G0 F6000 X121.035 Y119.338
G1 F1200 X117.359 Y115.662 E47.05974
G0 F6000 X116.793 Y115.662
G1 F1200 X120.47 Y119.339 E47.2327
G0 F6000 X119.904 Y119.339
G1 F1200 X116.227 Y115.661 E47.40567
G0 F6000 X115.661 Y115.661
G1 F1200 X119.339 Y119.339 E47.57868
G0 F6000 X118.774 Y119.339
G1 F1200 X115.095 Y115.66 E47.75172
G0 F6000 X114.529 Y115.66
G1 F1200 X118.208 Y119.339 E47.92477
G0 F6000 X117.642 Y119.339
G1 F1200 X113.963 Y115.66 E48.09782
G0 F6000 X113.397 Y115.66
G1 F1200 X117.077 Y119.34 E48.27092
G0 F6000 X116.512 Y119.34
G1 F1200 X112.831 Y115.66 E48.44404
G0 F6000 X112.221 Y115.615
G1 F1200 X115.946 Y119.34 E48.61925
G1 F2700 E43.61925
;MESH:NONMESH
G0 F300 X115.946 Y119.34 Z0.4
G0 F6000 X115.946 Y119.798
G0 X112.579 Y119.718
G0 X112.579 Y115.284
G0 X111.995 Y114.834
;TIME_ELAPSED:96.668089
;LAYER:1
M106 S85
;TYPE:WALL-INNER
;MESH:LETRA B.stl
G1 F2700 E48.61925
G1 F1350 X111.923 Y114.679 E48.62493
G1 X111.897 Y114.503 E48.63085
G1 X111.897 Y104.498 E48.96362
G1 X111.929 Y104.301 E48.97026
G1 X112.019 Y104.135 E48.97654
G1 X112.14 Y104.015 E48.98221
G1 X112.421 Y103.898 E48.99233
G1 X122.503 Y103.898 E49.32766
G1 X122.679 Y103.924 E49.33358
G1 X122.857 Y104.012 E49.34018
G1 X123.001 Y104.161 E49.34707
G1 X123.077 Y104.321 E49.35296
G1 X123.104 Y104.498 E49.35892
G1 X123.104 Y114.503 E49.69169
G1 X123.077 Y114.679 E49.69761
G1 X122.902 Y114.953 E49.70842
G1 X122.621 Y115.104 E49.71903
G1 X112.444 Y115.101 E50.05752
G1 X112.214 Y115.033 E50.0655
G1 X111.995 Y114.834 E50.07534
G0 F7500 X112.329 Y114.614
;TYPE:WALL-OUTER
G1 F1350 X112.299 Y114.538 E50.07806
G1 X112.297 Y104.498 E50.41199
G1 X112.307 Y104.432 E50.41421
G1 X112.378 Y104.337 E50.41815
G1 X112.462 Y104.3 E50.42121
G1 X122.546 Y104.298 E50.7566
G1 X122.669 Y104.385 E50.76161
G1 X122.704 Y104.498 E50.76555
G1 X122.704 Y114.503 E51.09832
G1 X122.671 Y114.614 E51.10217
G1 X122.503 Y114.704 E51.10851
G1 X112.479 Y114.703 E51.44191
G1 X112.329 Y114.614 E51.44771
G1 F2700 E46.44771
G0 F7500 X112.579 Y115.204
G0 X112.598 Y119.718
G0 X112.417 Y131.103
;TYPE:WALL-INNER
G1 F2700 E51.44771
G1 F1350 X112.14 Y130.986 E51.45771
G1 X112.019 Y130.866 E51.46338
G1 X111.897 Y130.576 E51.47384
G1 X111.897 Y120.498 E51.80904
G1 X111.923 Y120.321 E51.81499
G1 X111.995 Y120.167 E51.82064
G1 X112.214 Y119.968 E51.83048
G1 X112.444 Y119.9 E51.83846
G1 X122.62 Y119.898 E52.17691
G1 X122.902 Y120.048 E52.18754
G1 X123.077 Y120.321 E52.19832
G1 X123.104 Y120.498 E52.20428
G1 X123.104 Y130.628 E52.5412
G1 X122.923 Y130.933 E52.553
G1 X122.648 Y131.086 E52.56347
G1 X122.503 Y131.103 E52.56832
G1 X112.417 Y131.103 E52.90378
G0 F7500 X112.337 Y130.624
;TYPE:WALL-OUTER
G1 F1350 X112.299 Y130.538 E52.90691
G1 X112.297 Y120.456 E53.24224
G1 X112.42 Y120.298 E53.2489
G1 X122.54 Y120.298 E53.58549
G1 X122.671 Y120.387 E53.59076
G1 X122.704 Y120.498 E53.59461
G1 X122.704 Y130.543 E53.92871
G1 X122.667 Y130.619 E53.93152
G1 X122.552 Y130.698 E53.93616
G1 X112.458 Y130.7 E54.27189
G1 X112.337 Y130.624 E54.27664
G1 F2700 E49.27664
G0 F7500 X112.598 Y131.204
G0 X121.513 Y131.284
G0 X123.42 Y135.91
G0 X122.713 Y136.9
;TYPE:WALL-INNER
G1 F2700 E54.27664
G1 F1350 X126.9 Y132.713 E54.47359
G1 X126.9 Y103.748 E55.43697
G1 X126.9 Y102.959 E55.46321
G1 X122.208 Y98.1 E55.68787
G1 X108.1 Y98.1 E56.1571
G1 X108.101 Y136.899 E57.44756
G1 X122.713 Y136.9 E57.93356
G0 F7500 X122.879 Y137.3
;TYPE:WALL-OUTER
G1 F1350 X127.3 Y132.879 E58.14151
G1 X127.3 Y103.748 E59.11041
G1 X127.3 Y102.797 E59.14204
G1 X122.378 Y97.7 E59.37771
G1 X107.7 Y97.7 E59.8659
G1 X107.701 Y137.299 E61.18297
G1 X122.879 Y137.3 E61.68779
G0 F7500 X122.563 Y136.539
;TYPE:SKIN
G1 F1350 X126.54 Y132.563 E61.87483
G1 X126.54 Y103.75 E62.83316
G1 X126.54 Y103.106 E62.85458
G1 X122.054 Y98.46 E63.06938
G1 X108.461 Y98.461 E63.52148
G1 X108.462 Y136.538 E64.78793
G1 X122.563 Y136.539 E65.25693
G1 F2700 E60.25693
G0 F7500 X122.747 Y136.723
G0 X112.598 Y136.7
G0 X112.6 Y131.284
G0 X112.351 Y131.463
G1 F2700 E65.25693
G1 F1350 X111.963 Y131.297 E65.27097
G1 X111.723 Y131.083 E65.28166
G1 X111.539 Y130.627 E65.29802
G1 X111.539 Y120.476 E65.63564
G1 X111.573 Y120.243 E65.64347
G1 X111.698 Y119.955 E65.65392
G1 X112.034 Y119.651 E65.66899
G1 X112.397 Y119.54 E65.68161
G1 X122.527 Y119.539 E66.01854
G1 X122.768 Y119.574 E66.02664
G1 X123.106 Y119.755 E66.03939
G1 X123.29 Y119.948 E66.04826
G1 X123.411 Y120.187 E66.05717
G1 X123.462 Y120.474 E66.06686
G1 X123.462 Y130.678 E66.40625
G1 X123.333 Y130.988 E66.41742
G1 X123.18 Y131.186 E66.42574
G1 X122.943 Y131.357 E66.43546
G1 X122.703 Y131.45 E66.44402
G1 X122.63 Y131.463 E66.44649
G1 X112.351 Y131.463 E66.78837
G1 F2700 E61.78837
G0 F7500 X112.598 Y131.204
G0 X112.069 Y130.931
G0 X112.069 Y120.07
G0 X112.579 Y119.718
G0 X112.579 Y115.284
G0 X112.035 Y115.35
G1 F2700 E66.78837
G1 F1350 X111.696 Y115.044 E66.80356
G1 X111.573 Y114.761 E66.81382
G1 X111.539 Y114.534 E66.82145
G1 X111.539 Y104.468 E67.15625
G1 X111.586 Y104.177 E67.16605
G1 X111.748 Y103.897 E67.17681
G1 X111.966 Y103.703 E67.18652
G1 X112.357 Y103.54 E67.20061
G1 X122.524 Y103.539 E67.53877
G1 X122.785 Y103.575 E67.54753
G1 X123.067 Y103.72 E67.55808
G1 X123.092 Y103.741 E67.55916
G1 X123.295 Y103.948 E67.5688
G1 X123.422 Y104.215 E67.57864
G1 X123.462 Y104.474 E67.58735
G1 X123.462 Y114.53 E67.92182
G1 X123.429 Y114.76 E67.92955
G1 X123.319 Y115.007 E67.93854
G1 X123.141 Y115.227 E67.94795
G1 X122.768 Y115.427 E67.96203
G1 X122.521 Y115.463 E67.97033
G1 X112.402 Y115.458 E68.30689
G1 X112.035 Y115.35 E68.31961
G1 F2700 E63.31961
G0 F7500 X112.579 Y115.204
G0 X112.069 Y114.931
G0 X112.094 Y104.057
G0 X108.3 Y103.656
G0 X108.661 Y98.945
G1 F2700 E68.31961
G1 F1350 X108.946 Y98.66 E68.33302
G0 F7500 X109.511 Y98.66
G1 F1350 X108.661 Y99.511 E68.37302
G0 F7500 X108.661 Y100.076
G1 F1350 X110.077 Y98.66 E68.43963
G0 F7500 X110.643 Y98.66
G1 F1350 X108.661 Y100.642 E68.53286
G0 F7500 X108.661 Y101.208
G1 F1350 X111.208 Y98.66 E68.65268
G0 F7500 X111.774 Y98.66
G1 F1350 X108.661 Y101.773 E68.79911
G0 F7500 X108.661 Y102.339
G1 F1350 X112.34 Y98.66 E68.97216
G0 F7500 X112.905 Y98.66
G1 F1350 X108.661 Y102.905 E69.17181
G0 F7500 X108.661 Y103.47
G1 F1350 X113.471 Y98.66 E69.39805
G0 F7500 X114.037 Y98.66
G1 F1350 X108.661 Y104.036 E69.65092
G0 F7500 X108.661 Y104.602
G1 F1350 X114.602 Y98.66 E69.93039
G0 F7500 X115.168 Y98.66
G1 F1350 X108.661 Y105.167 E70.23646
G0 F7500 X108.661 Y105.733
G1 F1350 X115.734 Y98.66 E70.56916
G0 F7500 X116.299 Y98.66
G1 F1350 X108.661 Y106.299 E70.92845
G0 F7500 X108.661 Y106.865
G1 F1350 X111.386 Y104.139 E71.05665
G0 F7500 X111.336 Y104.755
G1 F1350 X108.661 Y107.43 E71.18247
G0 F7500 X108.661 Y107.996
G1 F1350 X111.336 Y105.321 E71.30829
G0 F7500 X111.336 Y105.887
G1 F1350 X108.661 Y108.562 E71.43412
G0 F7500 X108.661 Y109.127
G1 F1350 X111.336 Y106.452 E71.55994
G0 F7500 X111.336 Y107.017
G1 F1350 X108.661 Y109.693 E71.68579
G0 F7500 X108.661 Y110.259
G1 F1350 X111.336 Y107.583 E71.81164
G0 F7500 X111.337 Y108.148
G1 F1350 X108.661 Y110.824 E71.93751
G0 F7500 X108.661 Y111.389
G1 F1350 X111.337 Y108.714 E72.06335
G0 F7500 X111.337 Y109.279
G1 F1350 X108.661 Y111.955 E72.18923
G0 F7500 X108.661 Y112.521
G1 F1350 X111.338 Y109.844 E72.31514
G0 F7500 X111.338 Y110.41
G1 F1350 X108.661 Y113.086 E72.44104
G0 F7500 X108.661 Y113.652
G1 F1350 X111.338 Y110.976 E72.56693
G0 F7500 X111.338 Y111.541
G1 F1350 X108.661 Y114.218 E72.69285
G0 F7500 X108.661 Y114.783
G1 F1350 X111.338 Y112.106 E72.81877
G0 F7500 X111.338 Y112.672
G1 F1350 X108.661 Y115.349 E72.94469
G0 F7500 X108.661 Y115.915
G1 F1350 X111.339 Y113.237 E73.07065
G0 F7500 X111.339 Y113.803
G1 F1350 X108.661 Y116.48 E73.19659
G0 F7500 X108.661 Y117.046
G1 F1350 X111.339 Y114.368 E73.32256
G0 F7500 X111.405 Y114.868
G1 F1350 X108.661 Y117.612 E73.45163
G0 F7500 X108.661 Y118.178
G1 F1350 X111.607 Y115.232 E73.5902
G0 F7500 X111.904 Y115.5
G1 F1350 X108.661 Y118.743 E73.74274
G0 F7500 X108.661 Y119.309
G1 F1350 X112.326 Y115.645 E73.9151
G0 F7500 X112.877 Y115.659
G1 F1350 X108.661 Y119.875 E74.11341
G0 F7500 X108.661 Y120.44
G1 F1350 X113.443 Y115.659 E74.33832
G0 F7500 X114.008 Y115.66
G1 F1350 X108.661 Y121.006 E74.5898
G0 F7500 X108.661 Y121.572
G1 F1350 X114.573 Y115.66 E74.86788
G0 F7500 X115.139 Y115.66
G1 F1350 X108.661 Y122.137 E75.17257
G0 F7500 X108.661 Y122.703
G1 F1350 X115.704 Y115.66 E75.50385
G0 F7500 X116.27 Y115.66
G1 F1350 X112.588 Y119.342 E75.67704
G0 F7500 X113.154 Y119.342
G1 F1350 X116.835 Y115.661 E75.85018
G0 F7500 X117.4 Y115.661
G1 F1350 X113.719 Y119.342 E76.02332
G0 F7500 X114.286 Y119.341
G1 F1350 X117.966 Y115.661 E76.19642
G0 F7500 X118.531 Y115.662
G1 F1350 X114.851 Y119.341 E76.36949
G0 F7500 X115.417 Y119.341
G1 F1350 X119.097 Y115.662 E76.54256
G0 F7500 X119.662 Y115.662
G1 F1350 X115.983 Y119.341 E76.71561
G0 F7500 X116.549 Y119.341
G1 F1350 X120.227 Y115.662 E76.88864
G0 F7500 X120.793 Y115.662
G1 F1350 X117.115 Y119.341 E77.06166
G0 F7500 X117.681 Y119.34
G1 F1350 X121.358 Y115.663 E77.23462
G0 F7500 X121.924 Y115.663
G1 F1350 X118.247 Y119.34 E77.40757
G0 F7500 X118.813 Y119.34
G1 F1350 X122.489 Y115.663 E77.5805
G0 F7500 X122.489 Y115.204
G0 X122.846 Y114.984
G0 X123.204 Y114.49
G0 X123.663 Y114.49
G1 F1350 X126.339 Y111.814 E77.70638
G0 F7500 X126.339 Y112.379
G1 F1350 X119.379 Y119.339 E78.03375
G0 F7500 X119.945 Y119.339
G1 F1350 X126.339 Y112.945 E78.33451
G0 F7500 X126.339 Y113.511
G1 F1350 X120.51 Y119.339 E78.60866
G0 F7500 X121.077 Y119.339
G1 F1350 X126.339 Y114.076 E78.85619
G0 F7500 X126.339 Y114.642
G1 F1350 X121.642 Y119.339 E79.07713
G0 F7500 X122.208 Y119.339
G1 F1350 X126.339 Y115.208 E79.27144
G0 F7500 X126.339 Y115.773
G1 F1350 X122.747 Y119.365 E79.44039
G0 F7500 X123.135 Y119.543
G1 F1350 X126.339 Y116.339 E79.5911
G0 F7500 X126.339 Y116.905
G1 F1350 X123.428 Y119.816 E79.72802
G0 F7500 X123.617 Y120.193
G1 F1350 X126.339 Y117.47 E79.85608
G0 F7500 X126.339 Y118.036
G1 F1350 X123.663 Y120.713 E79.98198
G0 F7500 X123.663 Y121.278
G1 F1350 X126.339 Y118.602 E80.10785
G0 F7500 X126.339 Y119.167
G1 F1350 X123.663 Y121.844 E80.23374
G0 F7500 X123.662 Y122.41
G1 F1350 X126.339 Y119.733 E80.35966
G0 F7500 X126.339 Y120.299
G1 F1350 X123.662 Y122.976 E80.48558
G0 F7500 X123.662 Y123.542
G1 F1350 X126.339 Y120.865 E80.61149
G0 F7500 X126.339 Y121.43
G1 F1350 X123.661 Y124.108 E80.73746
G0 F7500 X123.661 Y124.674
G1 F1350 X126.339 Y121.996 E80.86342
G0 F7500 X126.339 Y122.562
G1 F1350 X123.661 Y125.239 E80.98937
G0 F7500 X123.66 Y125.806
G1 F1350 X126.339 Y123.127 E81.11538
G0 F7500 X126.339 Y123.693
G1 F1350 X123.66 Y126.372 E81.24139
G0 F7500 X123.66 Y126.937
G1 F1350 X126.339 Y124.259 E81.36738
G0 F7500 X126.339 Y124.824
G1 F1350 X123.66 Y127.504 E81.49341
G0 F7500 X123.66 Y128.069
G1 F1350 X126.339 Y125.39 E81.61943
G0 F7500 X126.339 Y125.956
G1 F1350 X123.66 Y128.635 E81.74544
G0 F7500 X123.659 Y129.201
G1 F1350 X126.339 Y126.521 E81.8715
G0 F7500 X126.339 Y127.087
G1 F1350 X123.659 Y129.767 E81.99756
G0 F7500 X123.659 Y130.333
G1 F1350 X126.339 Y127.653 E82.12361
G0 F7500 X126.339 Y128.218
G1 F1350 X123.534 Y131.024 E82.25558
G0 F7500 X123.014 Y131.543
G1 F1350 X118.22 Y136.337 E82.48107
G0 F7500 X118.786 Y136.337
G1 F1350 X126.339 Y128.784 E82.83634
G0 F7500 X126.339 Y129.35
G1 F1350 X119.351 Y136.337 E83.16501
G0 F7500 X119.917 Y136.337
G1 F1350 X126.339 Y129.916 E83.46706
G0 F7500 X126.339 Y130.481
G1 F1350 X120.483 Y136.337 E83.74251
G0 F7500 X121.048 Y136.337
G1 F1350 X126.339 Y131.047 E83.99136
G0 F7500 X126.339 Y131.613
G1 F1350 X121.614 Y136.337 E84.21358
G0 F7500 X122.18 Y136.337
G1 F1350 X126.339 Y132.178 E84.40921
G1 F2700 E79.40921
G0 F7500 X126.705 Y132.765
G0 X125.642 Y133.688
G0 X122.953 Y131.143
G0 X122.33 Y131.661
G1 F2700 E84.40921
G1 F1350 X117.654 Y136.337 E84.62915
G0 F7500 X117.089 Y136.337
G1 F1350 X121.765 Y131.661 E84.8491
G0 F7500 X121.199 Y131.661
G1 F1350 X116.523 Y136.337 E85.06904
G0 F7500 X115.957 Y136.337
G1 F1350 X120.633 Y131.661 E85.28899
G0 F7500 X120.068 Y131.661
G1 F1350 X115.392 Y136.337 E85.50893
G0 F7500 X114.826 Y136.337
G1 F1350 X119.502 Y131.661 E85.72888
G0 F7500 X118.936 Y131.661
G1 F1350 X114.26 Y136.337 E85.94882
G0 F7500 X113.694 Y136.337
G1 F1350 X118.371 Y131.661 E86.16879
G0 F7500 X117.805 Y131.661
G1 F1350 X113.129 Y136.337 E86.38874
G0 F7500 X112.563 Y136.337
G1 F1350 X117.239 Y131.661 E86.60868
G0 F7500 X116.674 Y131.661
G1 F1350 X111.997 Y136.337 E86.82865
G0 F7500 X111.432 Y136.337
G1 F1350 X116.108 Y131.661 E87.04859
G0 F7500 X115.542 Y131.661
G1 F1350 X110.866 Y136.337 E87.26854
G0 F7500 X110.3 Y136.337
G1 F1350 X114.976 Y131.661 E87.48848
G0 F7500 X114.411 Y131.661
G1 F1350 X109.735 Y136.337 E87.70843
G0 F7500 X109.169 Y136.337
G1 F1350 X113.845 Y131.661 E87.92837
G0 F7500 X113.279 Y131.661
G1 F1350 X108.662 Y136.279 E88.14556
G0 F7500 X108.662 Y135.713
G1 F1350 X112.714 Y131.661 E88.33616
G0 F7500 X112.197 Y131.613
G1 F1350 X108.662 Y135.147 E88.50241
G0 F7500 X108.662 Y134.582
G1 F1350 X111.819 Y131.425 E88.65091
G0 F7500 X111.532 Y131.146
G1 F1350 X108.662 Y134.016 E88.7859
G0 F7500 X108.662 Y133.45
G1 F1350 X111.366 Y130.746 E88.91309
G0 F7500 X111.341 Y130.206
G1 F1350 X108.662 Y132.885 E89.0391
G0 F7500 X108.662 Y132.319
G1 F1350 X111.341 Y129.64 E89.16511
G0 F7500 X111.341 Y129.075
G1 F1350 X108.662 Y131.753 E89.2911
G0 F7500 X108.662 Y131.188
G1 F1350 X111.34 Y128.51 E89.41707
G0 F7500 X111.34 Y127.944
G1 F1350 X108.662 Y130.622 E89.54303
G0 F7500 X108.662 Y130.056
G1 F1350 X111.34 Y127.378 E89.669
G0 F7500 X111.339 Y126.813
G1 F1350 X108.662 Y129.491 E89.79494
G0 F7500 X108.662 Y128.925
G1 F1350 X111.339 Y126.248 E89.92086
G0 F7500 X111.339 Y125.682
G1 F1350 X108.662 Y128.359 E90.04677
G0 F7500 X108.662 Y127.793
G1 F1350 X111.338 Y125.117 E90.17264
G0 F7500 X111.338 Y124.551
G1 F1350 X108.662 Y127.228 E90.29854
G0 F7500 X108.662 Y126.662
G1 F1350 X111.338 Y123.986 E90.42441
G0 F7500 X111.338 Y123.421
G1 F1350 X108.662 Y126.096 E90.55026
G0 F7500 X108.662 Y125.531
G1 F1350 X111.338 Y122.855 E90.67613
G0 F7500 X111.338 Y122.289
G1 F1350 X108.662 Y124.965 E90.802
G0 F7500 X108.662 Y124.399
G1 F1350 X111.337 Y121.724 E90.92782
G0 F7500 X111.337 Y121.159
G1 F1350 X108.662 Y123.834 E91.05365
G0 F7500 X108.661 Y123.269
G1 F1350 X111.337 Y120.593 E91.17952
G1 F2700 E86.17952
G0 F7500 X111.797 Y120.593
G0 X112.069 Y120.07
G0 X122.502 Y119.717
G0 X122.502 Y115.285
G0 X123.663 Y113.924
G1 F2700 E91.17952
G1 F1350 X126.339 Y111.248 E91.30539
G0 F7500 X126.339 Y110.682
G1 F1350 X123.663 Y113.359 E91.43128
G0 F7500 X123.663 Y112.793
G1 F1350 X126.339 Y110.117 E91.55715
G0 F7500 X126.339 Y109.551
G1 F1350 X123.662 Y112.228 E91.68307
G0 F7500 X123.662 Y111.662
G1 F1350 X126.339 Y108.985 E91.80899
G0 F7500 X126.339 Y108.419
G1 F1350 X123.662 Y111.097 E91.93493
G0 F7500 X123.662 Y110.531
G1 F1350 X126.339 Y107.854 E92.06085
G0 F7500 X126.339 Y107.288
G1 F1350 X123.661 Y109.966 E92.18681
G0 F7500 X123.661 Y109.4
G1 F1350 X126.339 Y106.722 E92.31278
G0 F7500 X126.339 Y106.157
G1 F1350 X123.661 Y108.835 E92.43874
G0 F7500 X123.66 Y108.27
G1 F1350 X126.339 Y105.591 E92.56476
G0 F7500 X126.339 Y105.025
G1 F1350 X123.66 Y107.704 E92.69077
G0 F7500 X123.66 Y107.138
G1 F1350 X126.339 Y104.46 E92.81676
G0 F7500 X126.339 Y103.894
G1 F1350 X123.66 Y106.573 E92.94277
G0 F7500 X123.66 Y106.008
G1 F1350 X126.339 Y103.328 E93.0688
G0 F7500 X126.13 Y102.971
G1 F1350 X123.66 Y105.442 E93.18501
G0 F7500 X123.66 Y104.876
G1 F1350 X125.852 Y102.683 E93.28814
G0 F7500 X125.575 Y102.396
G1 F1350 X123.641 Y104.33 E93.37911
G0 F7500 X123.496 Y103.908
G1 F1350 X125.297 Y102.108 E93.4638
G0 F7500 X125.019 Y101.82
G1 F1350 X123.233 Y103.606 E93.5478
G0 F7500 X122.868 Y103.405
G1 F1350 X124.741 Y101.532 E93.6359
G0 F7500 X124.463 Y101.244
G1 F1350 X122.366 Y103.341 E93.73454
G0 F7500 X121.801 Y103.341
G1 F1350 X124.185 Y100.957 E93.84668
G0 F7500 X123.907 Y100.669
G1 F1350 X121.235 Y103.341 E93.97236
G0 F7500 X120.669 Y103.341
G1 F1350 X123.629 Y100.381 E94.11159
G0 F7500 X123.351 Y100.093
G1 F1350 X120.104 Y103.341 E94.26434
G0 F7500 X119.538 Y103.341
G1 F1350 X123.074 Y99.806 E94.43064
G0 F7500 X122.796 Y99.518
G1 F1350 X118.972 Y103.342 E94.61051
G0 F7500 X118.406 Y103.342
G1 F1350 X122.518 Y99.23 E94.80392
G0 F7500 X122.24 Y98.942
G1 F1350 X117.84 Y103.342 E95.01089
G0 F7500 X117.275 Y103.342
G1 F1350 X121.956 Y98.66 E95.23109
G0 F7500 X121.391 Y98.66
G1 F1350 X116.709 Y103.342 E95.45132
G0 F7500 X116.143 Y103.342
G1 F1350 X120.825 Y98.66 E95.67154
G0 F7500 X120.259 Y98.66
G1 F1350 X115.577 Y103.342 E95.89177
G0 F7500 X115.011 Y103.342
G1 F1350 X119.694 Y98.66 E96.11202
G0 F7500 X119.128 Y98.66
G1 F1350 X114.445 Y103.342 E96.33227
G0 F7500 X113.88 Y103.342
G1 F1350 X118.562 Y98.66 E96.5525
G0 F7500 X117.997 Y98.66
G1 F1350 X113.314 Y103.342 E96.77275
G0 F7500 X112.748 Y103.342
G1 F1350 X117.431 Y98.66 E96.993
G0 F7500 X116.865 Y98.66
G1 F1350 X112.097 Y103.428 E97.21727
;MESH:NONMESH
G0 F300 X112.097 Y103.428 Z0.6
G0 F7500 X112.235 Y103.847
G0 X112.069 Y104.07
G0 X112.069 Y114.931
G0 X112.579 Y115.204
G0 X111.995 Y114.834
;TIME_ELAPSED:181.904009
;LAYER:2
M106 S170
;TYPE:WALL-INNER
;MESH:LETRA B.stl
G1 F1500 X111.923 Y114.679 E97.22296
G1 X111.897 Y114.503 E97.22887
G1 X111.897 Y104.498 E97.56164
G1 X111.929 Y104.301 E97.56828
G1 X112.019 Y104.135 E97.57456
G1 X112.14 Y104.015 E97.58023
G1 X112.421 Y103.898 E97.59035
G1 X122.503 Y103.898 E97.92568
G1 X122.679 Y103.924 E97.9316
G1 X122.857 Y104.012 E97.9382
G1 X123.001 Y104.161 E97.94509
G1 X123.077 Y104.321 E97.95099
G1 X123.104 Y104.498 E97.95694
G1 X123.104 Y114.503 E98.28971
G1 X123.077 Y114.679 E98.29563
G1 X122.902 Y114.953 E98.30644
G1 X122.658 Y115.084 E98.31566
G1 X122.503 Y115.104 E98.32085
G1 X112.444 Y115.101 E98.65542
G1 X112.214 Y115.033 E98.66339
G1 X111.995 Y114.834 E98.67324
G0 F9000 X112.329 Y114.614
;TYPE:WALL-OUTER
G1 F1500 X112.299 Y114.538 E98.67595
G1 X112.297 Y104.445 E99.01165
G1 X112.378 Y104.337 E99.01614
G1 X112.462 Y104.3 E99.01919
G1 X122.546 Y104.298 E99.35459
G1 X122.669 Y104.385 E99.3596
G1 X122.704 Y104.498 E99.36353
G1 X122.704 Y114.503 E99.6963
G1 X122.671 Y114.614 E99.70015
G1 X122.555 Y114.697 E99.7049
G1 X122.503 Y114.704 E99.70664
G1 X112.479 Y114.703 E100.04004
G1 X112.329 Y114.614 E100.04584
G1 F2700 E95.04584
G0 F9000 X112.579 Y115.204
G0 X112.598 Y119.718
G0 X112.417 Y131.103
;TYPE:WALL-INNER
G1 F2700 E100.04584
G1 F1500 X112.14 Y130.986 E100.05584
G1 X112.019 Y130.866 E100.06151
G1 X111.897 Y130.576 E100.07197
G1 X111.897 Y120.498 E100.40717
G1 X111.923 Y120.321 E100.41312
G1 X111.995 Y120.167 E100.41877
G1 X112.214 Y119.968 E100.42862
G1 X112.444 Y119.9 E100.43659
G1 X122.62 Y119.898 E100.77505
G1 X122.902 Y120.048 E100.78567
G1 X123.077 Y120.321 E100.79646
G1 X123.104 Y120.498 E100.80241
G1 X123.104 Y130.503 E101.13518
G1 X123.083 Y130.663 E101.14055
G1 X122.923 Y130.933 E101.15099
G1 X122.604 Y131.103 E101.16301
G1 X112.417 Y131.103 E101.50183
G0 F9000 X112.337 Y130.624
;TYPE:WALL-OUTER
G1 F1500 X112.299 Y130.538 E101.50496
G1 X112.297 Y120.456 E101.84029
G1 X112.42 Y120.298 E101.84695
G1 X122.54 Y120.298 E102.18354
G1 X122.671 Y120.387 E102.18881
G1 X122.704 Y120.498 E102.19266
G1 X122.704 Y130.503 E102.52543
G1 X122.667 Y130.619 E102.52947
G1 X122.552 Y130.698 E102.53412
G1 X112.458 Y130.7 E102.86984
G1 X112.337 Y130.624 E102.8746
G1 F2700 E97.8746
G0 F9000 X112.598 Y131.204
G0 X121.513 Y131.284
G0 X123.42 Y135.91
G0 X122.713 Y136.9
;TYPE:WALL-INNER
G1 F2700 E102.8746
G1 F1500 X126.9 Y132.713 E103.07154
G1 X126.9 Y103.748 E104.03492
G1 X126.9 Y102.959 E104.06116
G1 X122.208 Y98.1 E104.28582
G1 X108.1 Y98.1 E104.75505
G1 X108.101 Y136.899 E106.04551
G1 X122.713 Y136.9 E106.53151
G0 F9000 X122.879 Y137.3
;TYPE:WALL-OUTER
G1 F1500 X127.3 Y132.879 E106.73946
G1 X127.3 Y103.748 E107.70836
G1 X127.3 Y102.797 E107.73999
G1 X122.378 Y97.7 E107.97566
G1 X107.7 Y97.7 E108.46385
G1 X107.701 Y137.299 E109.78092
G1 X122.879 Y137.3 E110.28574
G0 F9000 X122.563 Y136.539
;TYPE:SKIN
G1 F1500 X126.54 Y132.563 E110.47279
G1 X126.54 Y103.75 E111.43111
G1 X126.54 Y103.106 E111.45253
G1 X122.054 Y98.46 E111.66733
G1 X108.461 Y98.461 E112.11944
G1 X108.462 Y136.538 E113.38588
G1 X122.563 Y136.539 E113.85489
G1 F2700 E108.85489
G0 F9000 X122.747 Y136.723
G0 X112.598 Y136.7
G0 X112.6 Y131.284
G0 X112.351 Y131.463
G1 F2700 E113.85489
G1 F1500 X111.963 Y131.297 E113.86892
G1 X111.723 Y131.083 E113.87962
G1 X111.539 Y130.627 E113.89597
G1 X111.539 Y120.476 E114.2336
G1 X111.573 Y120.243 E114.24143
G1 X111.698 Y119.955 E114.25187
G1 X112.034 Y119.651 E114.26694
G1 X112.397 Y119.54 E114.27957
G1 X122.527 Y119.539 E114.61649
G1 X122.768 Y119.574 E114.62459
G1 X123.106 Y119.755 E114.63734
G1 X123.29 Y119.948 E114.64621
G1 X123.411 Y120.187 E114.65512
G1 X123.462 Y120.474 E114.66482
G1 X123.462 Y130.678 E115.0042
G1 X123.333 Y130.988 E115.01537
G1 X123.18 Y131.186 E115.02369
G1 X122.943 Y131.357 E115.03341
G1 X122.669 Y131.463 E115.04318
G1 X112.351 Y131.463 E115.38636
G1 F2700 E110.38636
G0 F9000 X112.598 Y131.204
G0 X112.069 Y130.931
G0 X112.069 Y120.07
G0 X112.579 Y119.718
G0 X112.579 Y115.284
G0 X112.035 Y115.35
G1 F2700 E115.38636
G1 F1500 X111.696 Y115.044 E115.40155
G1 X111.573 Y114.761 E115.41182
G1 X111.539 Y114.534 E115.41945
G1 X111.539 Y104.468 E115.75425
G1 X111.586 Y104.177 E115.76405
G1 X111.748 Y103.897 E115.77481
G1 X111.966 Y103.703 E115.78452
G1 X112.357 Y103.54 E115.79861
G1 X122.524 Y103.539 E116.13676
G1 X122.785 Y103.575 E116.14552
G1 X123.067 Y103.72 E116.15607
G1 X123.294 Y103.947 E116.16675
G1 X123.422 Y104.215 E116.17663
G1 X123.462 Y104.474 E116.18534
G1 X123.462 Y114.53 E116.51981
G1 X123.429 Y114.76 E116.52753
G1 X123.319 Y115.007 E116.53653
G1 X123.141 Y115.227 E116.54594
G1 X122.768 Y115.427 E116.56002
G1 X122.521 Y115.463 E116.56832
G1 X112.402 Y115.458 E116.90488
G1 X112.035 Y115.35 E116.9176
G1 F2700 E111.9176
G0 F9000 X112.579 Y115.204
G0 X112.069 Y114.931
G0 X112.069 Y104.07
G0 X122.244 Y103.718
G0 X125.162 Y100.898
G0 X121.853 Y98.66
G1 F2700 E116.9176
G1 F1500 X125.187 Y101.994 E117.07442
G0 F9000 X125.518 Y101.674
G0 X126.708 Y102.905
G0 X126.34 Y103.712
G1 F1500 X121.287 Y98.66 E117.31208
G0 F9000 X120.722 Y98.66
G1 F1500 X126.34 Y104.278 E117.57633
G0 F9000 X126.34 Y104.844
G1 F1500 X120.156 Y98.66 E117.86721
G0 F9000 X119.59 Y98.66
G1 F1500 X126.34 Y105.409 E118.18468
G0 F9000 X126.34 Y105.975
G1 F1500 X119.025 Y98.66 E118.52876
G0 F9000 X118.459 Y98.66
G1 F1500 X126.34 Y106.541 E118.89946
G0 F9000 X126.34 Y107.106
G1 F1500 X123.655 Y104.421 E119.02575
G0 F9000 X123.659 Y104.991
G1 F1500 X126.34 Y107.672 E119.15186
G0 F9000 X126.34 Y108.238
G1 F1500 X123.659 Y105.557 E119.27796
G0 F9000 X123.659 Y106.123
G1 F1500 X126.34 Y108.803 E119.40405
G0 F9000 X126.34 Y109.369
G1 F1500 X123.66 Y106.689 E119.5301
G0 F9000 X123.66 Y107.255
G1 F1500 X126.34 Y109.935 E119.65616
G0 F9000 X126.34 Y110.5
G1 F1500 X123.66 Y107.821 E119.7822
G0 F9000 X123.66 Y108.386
G1 F1500 X126.34 Y111.066 E119.90826
G0 F9000 X126.34 Y111.632
G1 F1500 X123.66 Y108.953 E120.03429
G0 F9000 X123.66 Y109.518
G1 F1500 X126.34 Y112.198 E120.16035
G0 F9000 X126.34 Y112.763
G1 F1500 X123.66 Y110.084 E120.28639
G0 F9000 X123.661 Y110.65
G1 F1500 X126.34 Y113.329 E120.4124
G0 F9000 X126.34 Y113.895
G1 F1500 X123.661 Y111.216 E120.53841
G0 F9000 X123.661 Y111.782
G1 F1500 X126.34 Y114.46 E120.6644
G0 F9000 X126.34 Y115.026
G1 F1500 X123.661 Y112.347 E120.79041
G0 F9000 X123.662 Y112.914
G1 F1500 X126.34 Y115.592 E120.91638
G0 F9000 X126.34 Y116.157
G1 F1500 X123.662 Y113.48 E121.04232
G0 F9000 X123.662 Y114.045
G1 F1500 X126.34 Y116.723 E121.16828
G0 F9000 X126.34 Y117.289
G1 F1500 X123.65 Y114.599 E121.29481
G0 F9000 X123.522 Y115.037
G1 F1500 X126.34 Y117.854 E121.42734
G0 F9000 X126.34 Y118.42
G1 F1500 X123.285 Y115.365 E121.57104
G0 F9000 X122.926 Y115.572
G1 F1500 X126.34 Y118.986 E121.73162
G0 F9000 X126.34 Y119.551
G1 F1500 X122.452 Y115.664 E121.91448
G0 F9000 X121.886 Y115.664
G1 F1500 X126.34 Y120.117 E122.12396
G0 F9000 X126.34 Y120.683
G1 F1500 X121.321 Y115.664 E122.36003
G0 F9000 X120.754 Y115.663
G1 F1500 X126.34 Y121.249 E122.62278
G0 F9000 X126.34 Y121.814
G1 F1500 X120.189 Y115.663 E122.91211
G0 F9000 X119.623 Y115.663
G1 F1500 X126.34 Y122.38 E123.22805
G0 F9000 X126.34 Y122.946
G1 F1500 X123.627 Y120.232 E123.35569
G0 F9000 X123.662 Y120.833
G1 F1500 X126.34 Y123.511 E123.48165
G0 F9000 X126.34 Y124.077
G1 F1500 X123.662 Y121.399 E123.60762
G0 F9000 X123.662 Y121.965
G1 F1500 X126.34 Y124.643 E123.73358
G0 F9000 X126.34 Y125.208
G1 F1500 X123.661 Y122.53 E123.85957
G0 F9000 X123.661 Y123.095
G1 F1500 X126.34 Y125.774 E123.98558
G0 F9000 X126.34 Y126.34
G1 F1500 X123.661 Y123.661 E124.1116
G0 F9000 X123.66 Y124.226
G1 F1500 X126.34 Y126.905 E124.23763
G0 F9000 X126.34 Y127.471
G1 F1500 X123.66 Y124.792 E124.36367
G0 F9000 X123.66 Y125.358
G1 F1500 X126.34 Y128.037 E124.4897
G0 F9000 X126.34 Y128.602
G1 F1500 X123.66 Y125.922 E124.61576
G0 F9000 X123.66 Y126.488
G1 F1500 X126.34 Y129.168 E124.74182
G0 F9000 X126.34 Y129.734
G1 F1500 X123.66 Y127.054 E124.86788
G0 F9000 X123.659 Y127.619
G1 F1500 X126.34 Y130.299 E124.99396
G0 F9000 X126.34 Y130.865
G1 F1500 X123.659 Y128.185 E125.12004
G0 F9000 X123.659 Y128.75
G1 F1500 X126.34 Y131.431 E125.24615
G0 F9000 X126.34 Y131.997
G1 F1500 X123.658 Y129.315 E125.3723
G0 F9000 X123.658 Y129.881
G1 F1500 X126.297 Y132.52 E125.49643
G0 F9000 X126.014 Y132.803
G1 F1500 X123.658 Y130.447 E125.60725
G0 F9000 X123.575 Y130.929
G1 F1500 X125.732 Y133.085 E125.70869
G0 F9000 X125.449 Y133.368
G1 F1500 X123.358 Y131.277 E125.80704
G0 F9000 X123.046 Y131.531
G1 F1500 X125.166 Y133.651 E125.90676
G0 F9000 X124.883 Y133.934
G1 F1500 X122.61 Y131.661 E126.01368
G0 F9000 X122.045 Y131.661
G1 F1500 X124.6 Y134.217 E126.13388
G0 F9000 X124.317 Y134.5
G1 F1500 X121.479 Y131.661 E126.26739
G0 F9000 X120.913 Y131.661
G1 F1500 X124.035 Y134.783 E126.41424
G0 F9000 X123.752 Y135.065
G1 F1500 X120.348 Y131.661 E126.57436
G0 F9000 X119.782 Y131.661
G1 F1500 X123.469 Y135.348 E126.74778
G0 F9000 X123.186 Y135.631
G1 F1500 X119.216 Y131.661 E126.93452
G0 F9000 X118.651 Y131.661
G1 F1500 X122.903 Y135.914 E127.13454
G0 F9000 X122.62 Y136.197
G1 F1500 X118.085 Y131.661 E127.34788
G0 F9000 X117.519 Y131.661
G1 F1500 X122.195 Y136.337 E127.56782
G0 F9000 X121.629 Y136.337
G1 F1500 X116.954 Y131.661 E127.78774
G0 F9000 X116.388 Y131.661
G1 F1500 X121.063 Y136.337 E128.00767
G0 F9000 X120.498 Y136.337
G1 F1500 X115.822 Y131.661 E128.22761
G0 F9000 X115.256 Y131.661
G1 F1500 X119.932 Y136.337 E128.44755
G0 F9000 X119.366 Y136.337
G1 F1500 X114.691 Y131.661 E128.66748
G0 F9000 X114.125 Y131.661
G1 F1500 X118.801 Y136.337 E128.88742
G0 F9000 X118.235 Y136.337
G1 F1500 X113.559 Y131.661 E129.10737
G0 F9000 X112.994 Y131.661
G1 F1500 X117.669 Y136.337 E129.32729
G0 F9000 X117.103 Y136.337
G1 F1500 X112.428 Y131.661 E129.54721
G0 F9000 X112.598 Y131.204
G0 X112.122 Y130.959
G0 X111.801 Y130.54
G0 X111.341 Y130.575
G1 F1500 X108.661 Y127.895 E129.67327
G0 F9000 X108.661 Y128.46
G1 F1500 X116.538 Y136.337 E130.04378
G0 F9000 X115.972 Y136.337
G1 F1500 X108.661 Y129.026 E130.38766
G0 F9000 X108.661 Y129.592
G1 F1500 X115.406 Y136.337 E130.70493
G0 F9000 X114.841 Y136.337
G1 F1500 X108.661 Y130.157 E130.99562
G0 F9000 X108.661 Y130.723
G1 F1500 X114.275 Y136.337 E131.25968
G0 F9000 X113.709 Y136.337
G1 F1500 X108.661 Y131.289 E131.49712
G0 F9000 X108.661 Y131.854
G1 F1500 X113.144 Y136.337 E131.70799
G0 F9000 X112.578 Y136.337
G1 F1500 X108.661 Y132.42 E131.89223
G0 F9000 X108.661 Y132.986
G1 F1500 X112.012 Y136.337 E132.04985
G0 F9000 X111.447 Y136.337
G1 F1500 X108.661 Y133.551 E132.1809
G0 F9000 X108.661 Y134.117
G1 F1500 X110.881 Y136.337 E132.28532
G0 F9000 X110.315 Y136.337
G1 F1500 X108.661 Y134.683 E132.36312
G0 F9000 X108.661 Y135.249
G1 F1500 X109.75 Y136.337 E132.41432
G0 F9000 X109.184 Y136.337
G1 F1500 X108.661 Y135.814 E132.43892
G1 F2700 E127.43892
G0 F9000 X108.201 Y135.814
G0 X108.301 Y133.868
G0 X111.875 Y130.976
G0 X111.341 Y130.009
G1 F2700 E132.43892
G1 F1500 X108.661 Y127.329 E132.56498
G0 F9000 X108.661 Y126.763
G1 F1500 X111.341 Y129.443 E132.69104
G0 F9000 X111.341 Y128.877
G1 F1500 X108.661 Y126.198 E132.81707
G0 F9000 X108.661 Y125.632
G1 F1500 X111.341 Y128.311 E132.94311
G0 F9000 X111.341 Y127.745
G1 F1500 X108.661 Y125.066 E133.06915
G0 F9000 X108.661 Y124.5
G1 F1500 X111.34 Y127.179 E133.19516
G0 F9000 X111.34 Y126.613
G1 F1500 X108.661 Y123.935 E133.32115
G0 F9000 X108.661 Y123.368
G1 F1500 X111.34 Y126.048 E133.44718
G0 F9000 X111.339 Y125.481
G1 F1500 X108.661 Y122.803 E133.57315
G0 F9000 X108.661 Y122.237
G1 F1500 X111.339 Y124.916 E133.69913
G0 F9000 X111.339 Y124.35
G1 F1500 X108.661 Y121.671 E133.82512
G0 F9000 X108.661 Y121.106
G1 F1500 X111.338 Y123.783 E133.95104
G0 F9000 X111.338 Y123.218
G1 F1500 X108.661 Y120.54 E134.07698
G0 F9000 X108.661 Y119.974
G1 F1500 X111.338 Y122.652 E134.20292
G0 F9000 X111.338 Y122.086
G1 F1500 X108.661 Y119.409 E134.32884
G0 F9000 X108.661 Y118.843
G1 F1500 X111.338 Y121.52 E134.45476
G0 F9000 X111.338 Y120.954
G1 F1500 X108.661 Y118.277 E134.58068
G0 F9000 X108.661 Y117.712
G1 F1500 X111.35 Y120.401 E134.70716
G0 F9000 X111.478 Y119.963
G1 F1500 X108.661 Y117.146 E134.83966
G0 F9000 X108.661 Y116.58
G1 F1500 X111.732 Y119.652 E134.98414
G0 F9000 X112.074 Y119.428
G1 F1500 X108.661 Y116.015 E135.14467
G0 F9000 X108.661 Y115.449
G1 F1500 X112.553 Y119.341 E135.32774
G0 F9000 X113.119 Y119.341
G1 F1500 X108.661 Y114.883 E135.53743
G0 F9000 X108.661 Y114.317
G1 F1500 X113.685 Y119.341 E135.77375
G0 F9000 X114.25 Y119.341
G1 F1500 X108.661 Y113.752 E136.03663
G0 F9000 X108.661 Y113.186
G1 F1500 X114.815 Y119.341 E136.32612
G0 F9000 X115.381 Y119.341
G1 F1500 X108.661 Y112.62 E136.64224
G0 F9000 X108.661 Y112.055
G1 F1500 X111.371 Y114.765 E136.76971
G0 F9000 X111.34 Y114.168
G1 F1500 X108.661 Y111.489 E136.89572
G0 F9000 X108.66 Y110.923
G1 F1500 X111.34 Y113.603 E137.02178
G0 F9000 X111.34 Y113.037
G1 F1500 X108.66 Y110.357 E137.14784
G0 F9000 X108.66 Y109.791
G1 F1500 X111.339 Y112.47 E137.27385
G0 F9000 X111.339 Y111.905
G1 F1500 X108.66 Y109.226 E137.39986
G0 F9000 X108.66 Y108.66
G1 F1500 X111.339 Y111.339 E137.52587
G0 F9000 X111.338 Y110.773
G1 F1500 X108.66 Y108.094 E137.65186
G0 F9000 X108.66 Y107.529
G1 F1500 X111.338 Y110.207 E137.77782
G0 F9000 X111.338 Y109.641
G1 F1500 X108.66 Y106.963 E137.90379
G0 F9000 X108.66 Y106.397
G1 F1500 X111.338 Y109.075 E138.02975
G0 F9000 X111.338 Y108.509
G1 F1500 X108.66 Y105.831 E138.15572
G0 F9000 X108.66 Y105.266
G1 F1500 X111.338 Y107.944 E138.28168
G0 F9000 X111.337 Y107.377
G1 F1500 X108.66 Y104.7 E138.4076
G0 F9000 X108.66 Y104.134
G1 F1500 X111.337 Y106.812 E138.53354
G0 F9000 X111.337 Y106.246
G1 F1500 X108.66 Y103.569 E138.65946
G0 F9000 X108.66 Y103.003
G1 F1500 X111.336 Y105.679 E138.78533
G0 F9000 X111.336 Y105.114
G1 F1500 X108.66 Y102.437 E138.91123
G0 F9000 X108.66 Y101.872
G1 F1500 X111.336 Y104.548 E139.0371
G0 F9000 X111.418 Y104.064
G1 F1500 X108.66 Y101.306 E139.16683
G0 F9000 X108.66 Y100.74
G1 F1500 X111.642 Y103.723 E139.30711
G0 F9000 X111.968 Y103.483
G1 F1500 X108.66 Y100.175 E139.46271
G0 F9000 X108.66 Y99.609
G1 F1500 X112.393 Y103.342 E139.6383
G0 F9000 X112.958 Y103.342
G1 F1500 X108.66 Y99.043 E139.84049
G0 F9000 X108.842 Y98.66
G1 F1500 X113.524 Y103.342 E140.06071
G0 F9000 X114.09 Y103.342
G1 F1500 X109.408 Y98.66 E140.28094
G0 F9000 X109.974 Y98.66
G1 F1500 X114.655 Y103.342 E140.50115
G0 F9000 X115.221 Y103.342
G1 F1500 X110.539 Y98.66 E140.72137
G0 F9000 X111.105 Y98.66
G1 F1500 X115.786 Y103.341 E140.94155
G0 F9000 X116.352 Y103.341
G1 F1500 X111.671 Y98.66 E141.16173
G0 F9000 X112.236 Y98.66
G1 F1500 X116.917 Y103.341 E141.38191
G0 F9000 X117.483 Y103.341
G1 F1500 X112.802 Y98.66 E141.60209
G0 F9000 X113.368 Y98.66
G1 F1500 X118.049 Y103.341 E141.82227
G0 F9000 X118.615 Y103.341
G1 F1500 X113.933 Y98.66 E142.04248
G0 F9000 X114.499 Y98.66
G1 F1500 X119.18 Y103.34 E142.26263
G0 F9000 X119.745 Y103.34
G1 F1500 X115.065 Y98.66 E142.48276
G0 F9000 X115.631 Y98.66
G1 F1500 X120.311 Y103.34 E142.7029
G0 F9000 X120.877 Y103.34
G1 F1500 X116.196 Y98.66 E142.92305
G0 F9000 X116.762 Y98.66
G1 F1500 X121.442 Y103.34 E143.14319
G0 F9000 X122.008 Y103.34
G1 F1500 X117.328 Y98.66 E143.36332
G0 F9000 X117.893 Y98.66
G1 F1500 X122.579 Y103.346 E143.58373
G0 F9000 X122.513 Y103.8
G0 X122.931 Y104.07
G0 X122.931 Y114.931
G0 X119.056 Y115.204
G0 X119.056 Y115.662
G1 F1500 X122.761 Y119.367 E143.75801
G0 F9000 X122.166 Y119.338
G1 F1500 X118.491 Y115.662 E143.93089
G0 F9000 X117.924 Y115.662
G1 F1500 X121.601 Y119.338 E144.10382
G0 F9000 X121.035 Y119.338
G1 F1500 X117.359 Y115.662 E144.27673
G0 F9000 X116.793 Y115.662
G1 F1500 X120.47 Y119.339 E144.44968
G0 F9000 X119.904 Y119.339
G1 F1500 X116.227 Y115.661 E144.62266
G0 F9000 X115.661 Y115.661
G1 F1500 X119.339 Y119.339 E144.79566
G0 F9000 X118.774 Y119.339
G1 F1500 X115.095 Y115.66 E144.96871
G0 F9000 X114.529 Y115.66
G1 F1500 X118.208 Y119.339 E145.14176
G0 F9000 X117.642 Y119.339
G1 F1500 X113.963 Y115.66 E145.31481
G0 F9000 X113.397 Y115.66
G1 F1500 X117.077 Y119.34 E145.48791
G0 F9000 X116.512 Y119.34
G1 F1500 X112.831 Y115.66 E145.66103
G0 F9000 X112.221 Y115.615
G1 F1500 X115.946 Y119.34 E145.83624
G1 F2700 E140.83624
;MESH:NONMESH
G0 F300 X115.946 Y119.34 Z0.8
G0 F9000 X115.946 Y119.798
G0 X112.579 Y119.718
G0 X112.579 Y115.284
G0 X111.995 Y114.834
;TIME_ELAPSED:261.550091
;LAYER:3
M106 S255
;TYPE:WALL-INNER
;MESH:LETRA B.stl
G1 F2700 E145.83624
G1 F1500 X111.923 Y114.679 E145.84192
G1 X111.897 Y114.503 E145.84784
G1 X111.897 Y104.498 E146.18061
G1 X111.929 Y104.301 E146.18725
G1 X112.019 Y104.135 E146.19353
G1 X112.14 Y104.015 E146.19919
G1 X112.421 Y103.898 E146.20932
G1 X122.503 Y103.898 E146.54465
G1 X122.679 Y103.924 E146.55056
G1 X122.857 Y104.012 E146.55717
G1 X122.991 Y104.148 E146.56352
G1 X123.077 Y104.321 E146.56994
G1 X123.104 Y104.498 E146.5759
G1 X123.104 Y114.503 E146.90867
G1 X123.077 Y114.679 E146.91459
G1 X122.902 Y114.953 E146.9254
G1 X122.621 Y115.104 E146.93601
G1 X112.444 Y115.101 E147.2745
G1 X112.214 Y115.033 E147.28248
G1 X111.995 Y114.834 E147.29232
G0 F9000 X112.329 Y114.614
;TYPE:WALL-OUTER
G1 F1500 X112.299 Y114.538 E147.29504
G1 X112.297 Y104.445 E147.63073
G1 X112.378 Y104.337 E147.63522
G1 X112.462 Y104.3 E147.63828
G1 X122.546 Y104.298 E147.97367
G1 X122.666 Y104.381 E147.97852
G1 X122.704 Y104.457 E147.98135
G1 X122.704 Y114.503 E148.31548
G1 X122.671 Y114.614 E148.31933
G1 X122.503 Y114.704 E148.32567
G1 X112.479 Y114.703 E148.65907
G1 X112.329 Y114.614 E148.66487
G1 F2700 E143.66487
G0 F9000 X112.579 Y115.204
G0 X112.598 Y119.718
G0 X112.417 Y131.103
;TYPE:WALL-INNER
G1 F2700 E148.66487
G1 F1500 X112.14 Y130.986 E148.67487
G1 X112.019 Y130.866 E148.68054
G1 X111.897 Y130.576 E148.69101
G1 X111.897 Y120.498 E149.0262
G1 X111.923 Y120.321 E149.03215
G1 X111.995 Y120.167 E149.03781
G1 X112.214 Y119.968 E149.04765
G1 X112.444 Y119.9 E149.05563
G1 X122.62 Y119.898 E149.39408
G1 X122.902 Y120.048 E149.4047
G1 X123.077 Y120.321 E149.41549
G1 X123.104 Y120.498 E149.42145
G1 X123.104 Y130.628 E149.75837
G1 X122.923 Y130.933 E149.77017
G1 X122.604 Y131.103 E149.78219
G1 X112.417 Y131.103 E150.12101
G0 F9000 X112.337 Y130.624
;TYPE:WALL-OUTER
G1 F1500 X112.299 Y130.538 E150.12414
G1 X112.297 Y120.498 E150.45807
G1 X112.305 Y120.439 E150.46005
G1 X112.421 Y120.298 E150.46612
G1 X122.54 Y120.298 E150.80268
G1 X122.671 Y120.387 E150.80795
G1 X122.704 Y120.498 E150.8118
G1 X122.704 Y130.543 E151.1459
G1 X122.667 Y130.619 E151.14871
G1 X122.552 Y130.698 E151.15335
G1 X112.458 Y130.7 E151.48908
G1 X112.337 Y130.624 E151.49383
G1 F2700 E146.49383
G0 F9000 X112.598 Y131.204
G0 X121.513 Y131.284
G0 X123.42 Y135.91
G0 X122.713 Y136.9
;TYPE:WALL-INNER
G1 F2700 E151.49383
G1 F1500 X126.9 Y132.713 E151.69077
G1 X126.9 Y103.748 E152.65415
G1 X126.9 Y102.959 E152.6804
G1 X122.208 Y98.1 E152.90506
G1 X108.1 Y98.1 E153.37429
G1 X108.101 Y136.899 E154.66475
G1 X122.713 Y136.9 E155.15075
G0 F9000 X122.879 Y137.3
;TYPE:WALL-OUTER
G1 F1500 X127.3 Y132.879 E155.3587
G1 X127.3 Y103.748 E156.3276
G1 X127.3 Y102.797 E156.35923
G1 X122.378 Y97.7 E156.5949
G1 X107.7 Y97.7 E157.08309
G1 X107.701 Y137.299 E158.40016
G1 X122.879 Y137.3 E158.90498
G0 F9000 X122.563 Y136.539
;TYPE:SKIN
G1 F1500 X126.54 Y132.563 E159.09202
G1 X126.54 Y103.75 E160.05034
G1 X126.54 Y103.106 E160.07176
G1 X122.054 Y98.46 E160.28657
G1 X108.461 Y98.461 E160.73867
G1 X108.462 Y136.538 E162.00512
G1 X122.563 Y136.539 E162.47412
G1 F2700 E157.47412
G0 F9000 X122.747 Y136.723
G0 X112.598 Y136.7
G0 X112.6 Y131.284
G0 X112.351 Y131.463
G1 F2700 E162.47412
G1 F1500 X111.963 Y131.297 E162.48816
G1 X111.723 Y131.083 E162.49885
G1 X111.539 Y130.627 E162.51521
G1 X111.539 Y120.476 E162.85283
G1 X111.573 Y120.243 E162.86066
G1 X111.698 Y119.955 E162.8711
G1 X112.034 Y119.651 E162.88617
G1 X112.397 Y119.54 E162.8988
G1 X122.527 Y119.539 E163.23573
G1 X122.768 Y119.574 E163.24382
G1 X123.106 Y119.755 E163.25658
G1 X123.29 Y119.948 E163.26545
G1 X123.411 Y120.187 E163.27436
G1 X123.462 Y120.474 E163.28405
G1 X123.462 Y130.678 E163.62344
G1 X123.333 Y130.988 E163.63461
G1 X123.18 Y131.186 E163.64293
G1 X122.943 Y131.357 E163.65265
G1 X122.669 Y131.463 E163.66242
G1 X112.351 Y131.463 E164.0056
G1 F2700 E159.0056
G0 F9000 X112.598 Y131.204
G0 X112.069 Y130.931
G0 X112.069 Y120.07
G0 X112.579 Y119.718
G0 X112.579 Y115.284
G0 X112.035 Y115.35
G1 F2700 E164.0056
G1 F1500 X111.696 Y115.044 E164.02079
G1 X111.573 Y114.761 E164.03105
G1 X111.539 Y114.534 E164.03868
G1 X111.539 Y104.468 E164.37348
G1 X111.586 Y104.177 E164.38329
G1 X111.748 Y103.897 E164.39404
G1 X111.966 Y103.703 E164.40375
G1 X112.357 Y103.54 E164.41784
G1 X122.524 Y103.539 E164.756
G1 X122.785 Y103.575 E164.76476
G1 X123.067 Y103.72 E164.77531
G1 X123.092 Y103.741 E164.77639
G1 X123.295 Y103.948 E164.78603
G1 X123.422 Y104.215 E164.79587
G1 X123.462 Y104.474 E164.80458
G1 X123.462 Y114.53 E165.13905
G1 X123.429 Y114.76 E165.14678
G1 X123.319 Y115.007 E165.15577
G1 X123.141 Y115.227 E165.16518
G1 X122.768 Y115.427 E165.17926
G1 X122.521 Y115.463 E165.18756
G1 X112.402 Y115.458 E165.52412
G1 X112.035 Y115.35 E165.53684
G1 F2700 E160.53684
G0 F9000 X112.579 Y115.204
G0 X112.069 Y114.931
G0 X112.094 Y104.057
G0 X108.3 Y103.656
G0 X108.661 Y98.945
G1 F2700 E165.53684
G1 F1500 X108.946 Y98.66 E165.55025
G0 F9000 X109.511 Y98.66
G1 F1500 X108.661 Y99.511 E165.59026
G0 F9000 X108.661 Y100.076
G1 F1500 X110.077 Y98.66 E165.65686
G0 F9000 X110.643 Y98.66
G1 F1500 X108.661 Y100.642 E165.75009
G0 F9000 X108.661 Y101.208
G1 F1500 X111.208 Y98.66 E165.86991
G0 F9000 X111.774 Y98.66
G1 F1500 X108.661 Y101.773 E166.01634
G0 F9000 X108.661 Y102.339
G1 F1500 X112.34 Y98.66 E166.18939
G0 F9000 X112.905 Y98.66
G1 F1500 X108.661 Y102.905 E166.38904
G0 F9000 X108.661 Y103.47
G1 F1500 X113.471 Y98.66 E166.61528
G0 F9000 X114.037 Y98.66
G1 F1500 X108.661 Y104.036 E166.86815
G0 F9000 X108.661 Y104.602
G1 F1500 X114.602 Y98.66 E167.14762
G0 F9000 X115.168 Y98.66
G1 F1500 X108.661 Y105.167 E167.45369
G0 F9000 X108.661 Y105.733
G1 F1500 X115.734 Y98.66 E167.78639
G0 F9000 X116.299 Y98.66
G1 F1500 X108.661 Y106.299 E168.14568
G0 F9000 X108.661 Y106.865
G1 F1500 X111.386 Y104.139 E168.27388
G0 F9000 X111.336 Y104.755
G1 F1500 X108.661 Y107.43 E168.3997
G0 F9000 X108.661 Y107.996
G1 F1500 X111.336 Y105.321 E168.52552
G0 F9000 X111.336 Y105.887
G1 F1500 X108.661 Y108.562 E168.65135
G0 F9000 X108.661 Y109.127
G1 F1500 X111.336 Y106.452 E168.77717
G0 F9000 X111.336 Y107.017
G1 F1500 X108.661 Y109.693 E168.90302
G0 F9000 X108.661 Y110.259
G1 F1500 X111.336 Y107.583 E169.02887
G0 F9000 X111.337 Y108.148
G1 F1500 X108.661 Y110.824 E169.15474
G0 F9000 X108.661 Y111.389
G1 F1500 X111.337 Y108.714 E169.28058
G0 F9000 X111.337 Y109.279
G1 F1500 X108.661 Y111.955 E169.40646
G0 F9000 X108.661 Y112.521
G1 F1500 X111.338 Y109.844 E169.53237
G0 F9000 X111.338 Y110.41
G1 F1500 X108.661 Y113.086 E169.65827
G0 F9000 X108.661 Y113.652
G1 F1500 X111.338 Y110.976 E169.78416
G0 F9000 X111.338 Y111.541
G1 F1500 X108.661 Y114.218 E169.91008
G0 F9000 X108.661 Y114.783
G1 F1500 X111.338 Y112.106 E170.036
G0 F9000 X111.338 Y112.672
G1 F1500 X108.661 Y115.349 E170.16192
G0 F9000 X108.661 Y115.915
G1 F1500 X111.339 Y113.237 E170.28788
G0 F9000 X111.339 Y113.803
G1 F1500 X108.661 Y116.48 E170.41382
G0 F9000 X108.661 Y117.046
G1 F1500 X111.339 Y114.368 E170.53979
G0 F9000 X111.405 Y114.868
G1 F1500 X108.661 Y117.612 E170.66886
G0 F9000 X108.661 Y118.178
G1 F1500 X111.607 Y115.232 E170.80743
G0 F9000 X111.904 Y115.5
G1 F1500 X108.661 Y118.743 E170.95997
G0 F9000 X108.661 Y119.309
G1 F1500 X112.326 Y115.645 E171.13233
G0 F9000 X112.877 Y115.659
G1 F1500 X108.661 Y119.875 E171.33064
G0 F9000 X108.661 Y120.44
G1 F1500 X113.443 Y115.659 E171.55555
G0 F9000 X114.008 Y115.66
G1 F1500 X108.661 Y121.006 E171.80703
G0 F9000 X108.661 Y121.572
G1 F1500 X114.573 Y115.66 E172.08511
G0 F9000 X115.139 Y115.66
G1 F1500 X108.661 Y122.137 E172.3898
G0 F9000 X108.661 Y122.703
G1 F1500 X115.704 Y115.66 E172.72108
G0 F9000 X116.27 Y115.66
G1 F1500 X112.588 Y119.342 E172.89427
G0 F9000 X113.154 Y119.342
G1 F1500 X116.835 Y115.661 E173.06741
G0 F9000 X117.4 Y115.661
G1 F1500 X113.719 Y119.342 E173.24055
G0 F9000 X114.286 Y119.341
G1 F1500 X117.966 Y115.661 E173.41365
G0 F9000 X118.531 Y115.662
G1 F1500 X114.851 Y119.341 E173.58672
G0 F9000 X115.417 Y119.341
G1 F1500 X119.097 Y115.662 E173.75979
G0 F9000 X119.662 Y115.662
G1 F1500 X115.983 Y119.341 E173.93284
G0 F9000 X116.549 Y119.341
G1 F1500 X120.227 Y115.662 E174.10587
G0 F9000 X120.793 Y115.662
G1 F1500 X117.115 Y119.341 E174.27889
G0 F9000 X117.681 Y119.34
G1 F1500 X121.358 Y115.663 E174.45185
G0 F9000 X121.924 Y115.663
G1 F1500 X118.247 Y119.34 E174.6248
G0 F9000 X118.813 Y119.34
G1 F1500 X122.489 Y115.663 E174.79773
G0 F9000 X122.489 Y115.204
G0 X122.846 Y114.984
G0 X123.204 Y114.49
G0 X123.663 Y114.49
G1 F1500 X126.339 Y111.814 E174.92361
G0 F9000 X126.339 Y112.379
G1 F1500 X119.379 Y119.339 E175.25098
G0 F9000 X119.945 Y119.339
G1 F1500 X126.339 Y112.945 E175.55174
G0 F9000 X126.339 Y113.511
G1 F1500 X120.51 Y119.339 E175.82589
G0 F9000 X121.077 Y119.339
G1 F1500 X126.339 Y114.076 E176.07342
G0 F9000 X126.339 Y114.642
G1 F1500 X121.642 Y119.339 E176.29436
G0 F9000 X122.208 Y119.339
G1 F1500 X126.339 Y115.208 E176.48867
G0 F9000 X126.339 Y115.773
G1 F1500 X122.747 Y119.365 E176.65762
G0 F9000 X123.135 Y119.543
G1 F1500 X126.339 Y116.339 E176.80833
G0 F9000 X126.339 Y116.905
G1 F1500 X123.428 Y119.816 E176.94525
G0 F9000 X123.617 Y120.193
G1 F1500 X126.339 Y117.47 E177.07331
G0 F9000 X126.339 Y118.036
G1 F1500 X123.663 Y120.713 E177.19921
G0 F9000 X123.663 Y121.278
G1 F1500 X126.339 Y118.602 E177.32508
G0 F9000 X126.339 Y119.167
G1 F1500 X123.663 Y121.844 E177.45097
G0 F9000 X123.662 Y122.41
G1 F1500 X126.339 Y119.733 E177.57689
G0 F9000 X126.339 Y120.299
G1 F1500 X123.662 Y122.976 E177.70281
G0 F9000 X123.662 Y123.542
G1 F1500 X126.339 Y120.865 E177.82872
G0 F9000 X126.339 Y121.43
G1 F1500 X123.661 Y124.108 E177.95469
G0 F9000 X123.661 Y124.674
G1 F1500 X126.339 Y121.996 E178.08065
G0 F9000 X126.339 Y122.562
G1 F1500 X123.661 Y125.239 E178.2066
G0 F9000 X123.66 Y125.806
G1 F1500 X126.339 Y123.127 E178.33261
G0 F9000 X126.339 Y123.693
G1 F1500 X123.66 Y126.372 E178.45862
G0 F9000 X123.66 Y126.937
G1 F1500 X126.339 Y124.259 E178.58461
G0 F9000 X126.339 Y124.824
G1 F1500 X123.66 Y127.504 E178.71064
G0 F9000 X123.66 Y128.069
G1 F1500 X126.339 Y125.39 E178.83666
G0 F9000 X126.339 Y125.956
G1 F1500 X123.66 Y128.635 E178.96267
G0 F9000 X123.659 Y129.201
G1 F1500 X126.339 Y126.521 E179.08873
G0 F9000 X126.339 Y127.087
G1 F1500 X123.659 Y129.767 E179.21479
G0 F9000 X123.659 Y130.333
G1 F1500 X126.339 Y127.653 E179.34084
G0 F9000 X126.339 Y128.218
G1 F1500 X123.534 Y131.024 E179.47281
G0 F9000 X123.014 Y131.543
G1 F1500 X118.22 Y136.337 E179.6983
G0 F9000 X118.786 Y136.337
G1 F1500 X126.339 Y128.784 E180.05357
G0 F9000 X126.339 Y129.35
G1 F1500 X119.351 Y136.337 E180.38224
G0 F9000 X119.917 Y136.337
G1 F1500 X126.339 Y129.916 E180.68429
G0 F9000 X126.339 Y130.481
G1 F1500 X120.483 Y136.337 E180.95974
G0 F9000 X121.048 Y136.337
G1 F1500 X126.339 Y131.047 E181.20859
G0 F9000 X126.339 Y131.613
G1 F1500 X121.614 Y136.337 E181.43081
G0 F9000 X122.18 Y136.337
G1 F1500 X126.339 Y132.178 E181.62644
G1 F2700 E176.62644
G0 F9000 X126.705 Y132.765
G0 X125.642 Y133.688
G0 X122.953 Y131.143
G0 X122.33 Y131.661
G1 F2700 E181.62644
G1 F1500 X117.654 Y136.337 E181.84638
G0 F9000 X117.089 Y136.337
G1 F1500 X121.765 Y131.661 E182.06633
G0 F9000 X121.199 Y131.661
G1 F1500 X116.523 Y136.337 E182.28627
G0 F9000 X115.957 Y136.337
G1 F1500 X120.633 Y131.661 E182.50622
G0 F9000 X120.068 Y131.661
G1 F1500 X115.392 Y136.337 E182.72616
G0 F9000 X114.826 Y136.337
G1 F1500 X119.502 Y131.661 E182.94611
G0 F9000 X118.936 Y131.661
G1 F1500 X114.26 Y136.337 E183.16605
G0 F9000 X113.694 Y136.337
G1 F1500 X118.371 Y131.661 E183.38602
G0 F9000 X117.805 Y131.661
G1 F1500 X113.129 Y136.337 E183.60597
G0 F9000 X112.563 Y136.337
G1 F1500 X117.239 Y131.661 E183.82591
G0 F9000 X116.674 Y131.661
G1 F1500 X111.997 Y136.337 E184.04588
G0 F9000 X111.432 Y136.337
G1 F1500 X116.108 Y131.661 E184.26582
G0 F9000 X115.542 Y131.661
G1 F1500 X110.866 Y136.337 E184.48577
G0 F9000 X110.3 Y136.337
G1 F1500 X114.976 Y131.661 E184.70571
G0 F9000 X114.411 Y131.661
G1 F1500 X109.735 Y136.337 E184.92566
G0 F9000 X109.169 Y136.337
G1 F1500 X113.845 Y131.661 E185.1456
G0 F9000 X113.279 Y131.661
G1 F1500 X108.662 Y136.279 E185.36279
G0 F9000 X108.662 Y135.713
G1 F1500 X112.714 Y131.661 E185.55339
G0 F9000 X112.197 Y131.613
G1 F1500 X108.662 Y135.147 E185.71964
G0 F9000 X108.662 Y134.582
G1 F1500 X111.819 Y131.425 E185.86814
G0 F9000 X111.532 Y131.146
G1 F1500 X108.662 Y134.016 E186.00313
G0 F9000 X108.662 Y133.45
G1 F1500 X111.366 Y130.746 E186.13032
G0 F9000 X111.341 Y130.206
G1 F1500 X108.662 Y132.885 E186.25633
G0 F9000 X108.662 Y132.319
G1 F1500 X111.341 Y129.64 E186.38234
G0 F9000 X111.341 Y129.075
G1 F1500 X108.662 Y131.753 E186.50833
G0 F9000 X108.662 Y131.188
G1 F1500 X111.34 Y128.51 E186.6343
G0 F9000 X111.34 Y127.944
G1 F1500 X108.662 Y130.622 E186.76026
G0 F9000 X108.662 Y130.056
G1 F1500 X111.34 Y127.378 E186.88623
G0 F9000 X111.339 Y126.813
G1 F1500 X108.662 Y129.491 E187.01217
G0 F9000 X108.662 Y128.925
G1 F1500 X111.339 Y126.248 E187.13809
G0 F9000 X111.339 Y125.682
G1 F1500 X108.662 Y128.359 E187.264
G0 F9000 X108.662 Y127.793
G1 F1500 X111.338 Y125.117 E187.38988
G0 F9000 X111.338 Y124.551
G1 F1500 X108.662 Y127.228 E187.51577
G0 F9000 X108.662 Y126.662
G1 F1500 X111.338 Y123.986 E187.64164
G0 F9000 X111.338 Y123.421
G1 F1500 X108.662 Y126.096 E187.76749
G0 F9000 X108.662 Y125.531
G1 F1500 X111.338 Y122.855 E187.89336
G0 F9000 X111.338 Y122.289
G1 F1500 X108.662 Y124.965 E188.01923
G0 F9000 X108.662 Y124.399
G1 F1500 X111.337 Y121.724 E188.14505
G0 F9000 X111.337 Y121.159
G1 F1500 X108.662 Y123.834 E188.27088
G0 F9000 X108.661 Y123.269
G1 F1500 X111.337 Y120.593 E188.39675
G1 F2700 E183.39675
G0 F9000 X111.797 Y120.593
G0 X112.069 Y120.07
G0 X122.502 Y119.717
G0 X122.502 Y115.285
G0 X123.663 Y113.924
G1 F2700 E188.39675
G1 F1500 X126.339 Y111.248 E188.52262
G0 F9000 X126.339 Y110.682
G1 F1500 X123.663 Y113.359 E188.64851
G0 F9000 X123.663 Y112.793
G1 F1500 X126.339 Y110.117 E188.77438
G0 F9000 X126.339 Y109.551
G1 F1500 X123.662 Y112.228 E188.9003
G0 F9000 X123.662 Y111.662
G1 F1500 X126.339 Y108.985 E189.02622
G0 F9000 X126.339 Y108.419
G1 F1500 X123.662 Y111.097 E189.15216
G0 F9000 X123.662 Y110.531
G1 F1500 X126.339 Y107.854 E189.27808
G0 F9000 X126.339 Y107.288
G1 F1500 X123.661 Y109.966 E189.40404
G0 F9000 X123.661 Y109.4
G1 F1500 X126.339 Y106.722 E189.53001
G0 F9000 X126.339 Y106.157
G1 F1500 X123.661 Y108.835 E189.65597
G0 F9000 X123.66 Y108.27
G1 F1500 X126.339 Y105.591 E189.78199
G0 F9000 X126.339 Y105.025
G1 F1500 X123.66 Y107.704 E189.908
G0 F9000 X123.66 Y107.138
G1 F1500 X126.339 Y104.46 E190.03399
G0 F9000 X126.339 Y103.894
G1 F1500 X123.66 Y106.573 E190.16
G0 F9000 X123.66 Y106.008
G1 F1500 X126.339 Y103.328 E190.28603
G0 F9000 X126.13 Y102.971
G1 F1500 X123.66 Y105.442 E190.40224
G0 F9000 X123.66 Y104.876
G1 F1500 X125.852 Y102.683 E190.50537
G0 F9000 X125.575 Y102.396
G1 F1500 X123.641 Y104.33 E190.59634
G0 F9000 X123.496 Y103.908
G1 F1500 X125.297 Y102.108 E190.68103
G0 F9000 X125.019 Y101.82
G1 F1500 X123.233 Y103.606 E190.76503
G0 F9000 X122.868 Y103.405
G1 F1500 X124.741 Y101.532 E190.85313
G0 F9000 X124.463 Y101.244
G1 F1500 X122.366 Y103.341 E190.95177
G0 F9000 X121.801 Y103.341
G1 F1500 X124.185 Y100.957 E191.06391
G0 F9000 X123.907 Y100.669
G1 F1500 X121.235 Y103.341 E191.18959
G0 F9000 X120.669 Y103.341
G1 F1500 X123.629 Y100.381 E191.32882
G0 F9000 X123.351 Y100.093
G1 F1500 X120.104 Y103.341 E191.48157
G0 F9000 X119.538 Y103.341
G1 F1500 X123.074 Y99.806 E191.64787
G0 F9000 X122.796 Y99.518
G1 F1500 X118.972 Y103.342 E191.82774
G0 F9000 X118.406 Y103.342
G1 F1500 X122.518 Y99.23 E192.02116
G0 F9000 X122.24 Y98.942
G1 F1500 X117.84 Y103.342 E192.22812
G0 F9000 X117.275 Y103.342
G1 F1500 X121.956 Y98.66 E192.44832
G0 F9000 X121.391 Y98.66
G1 F1500 X116.709 Y103.342 E192.66855
G0 F9000 X116.143 Y103.342
G1 F1500 X120.825 Y98.66 E192.88877
G0 F9000 X120.259 Y98.66
G1 F1500 X115.577 Y103.342 E193.109
G0 F9000 X115.011 Y103.342
G1 F1500 X119.694 Y98.66 E193.32925
G0 F9000 X119.128 Y98.66
G1 F1500 X114.445 Y103.342 E193.5495
G0 F9000 X113.88 Y103.342
G1 F1500 X118.562 Y98.66 E193.76973
G0 F9000 X117.997 Y98.66
G1 F1500 X113.314 Y103.342 E193.98998
G0 F9000 X112.748 Y103.342
G1 F1500 X117.431 Y98.66 E194.21023
G0 F9000 X116.865 Y98.66
G1 F1500 X112.097 Y103.428 E194.4345
;MESH:NONMESH
G0 F300 X112.097 Y103.428 Z1
G0 F9000 X112.235 Y103.847
G0 X112.069 Y104.07
G0 X112.069 Y114.931
G0 X112.579 Y115.204
G0 X111.995 Y114.834
;TIME_ELAPSED:341.297827
;LAYER:4
;TYPE:WALL-INNER
;MESH:LETRA B.stl
G1 F1500 X111.923 Y114.679 E194.44019
G1 X111.897 Y114.503 E194.4461
G1 X111.897 Y104.498 E194.77887
G1 X111.929 Y104.301 E194.78551
G1 X112.019 Y104.135 E194.79179
G1 X112.14 Y104.015 E194.79746
G1 X112.421 Y103.898 E194.80758
G1 X122.503 Y103.898 E195.14291
G1 X122.679 Y103.924 E195.14883
G1 X122.857 Y104.012 E195.15543
G1 X123.001 Y104.161 E195.16232
G1 X123.077 Y104.321 E195.16822
G1 X123.104 Y104.498 E195.17417
G1 X123.104 Y114.503 E195.50694
G1 X123.077 Y114.679 E195.51286
G1 X122.902 Y114.953 E195.52367
G1 X122.658 Y115.084 E195.53289
G1 X122.503 Y115.104 E195.53808
G1 X112.444 Y115.101 E195.87265
G1 X112.214 Y115.033 E195.88062
G1 X111.995 Y114.834 E195.89047
G0 F9000 X112.329 Y114.614
;TYPE:WALL-OUTER
G1 F1500 X112.299 Y114.538 E195.89318
G1 X112.297 Y104.445 E196.22888
G1 X112.378 Y104.337 E196.23337
G1 X112.462 Y104.3 E196.23642
G1 X122.546 Y104.298 E196.57182
G1 X122.669 Y104.385 E196.57683
G1 X122.704 Y104.498 E196.58076
G1 X122.704 Y114.503 E196.91353
G1 X122.671 Y114.614 E196.91738
G1 X122.555 Y114.697 E196.92213
G1 X122.503 Y114.704 E196.92387
G1 X112.479 Y114.703 E197.25727
G1 X112.329 Y114.614 E197.26307
G0 F9000 X111.597 Y114.614
G0 X111.669 Y131.331
G0 X112.417 Y131.403
G0 X112.417 Y131.103
;TYPE:WALL-INNER
G1 F1500 X112.14 Y130.986 E197.27307
G1 X112.019 Y130.866 E197.27874
G1 X111.897 Y130.576 E197.2892
G1 X111.897 Y120.498 E197.6244
G1 X111.923 Y120.321 E197.63035
G1 X111.995 Y120.167 E197.636
G1 X112.214 Y119.968 E197.64585
G1 X112.444 Y119.9 E197.65382
G1 X122.62 Y119.898 E197.99228
G1 X122.902 Y120.048 E198.0029
G1 X123.077 Y120.321 E198.01369
G1 X123.104 Y120.498 E198.01964
G1 X123.104 Y130.628 E198.35657
G1 X122.923 Y130.933 E198.36836
G1 X122.648 Y131.086 E198.37883
G1 X122.503 Y131.103 E198.38369
G1 X112.417 Y131.103 E198.71915
G0 F9000 X112.337 Y130.624
;TYPE:WALL-OUTER
G1 F1500 X112.299 Y130.538 E198.72228
G1 X112.297 Y120.456 E199.0576
G1 X112.42 Y120.298 E199.06426
G1 X122.54 Y120.298 E199.40086
G1 X122.671 Y120.387 E199.40612
G1 X122.704 Y120.498 E199.40998
G1 X122.704 Y130.543 E199.74407
G1 X122.667 Y130.619 E199.74689
G1 X122.552 Y130.698 E199.75153
G1 X112.458 Y130.7 E200.08725
G1 X112.337 Y130.624 E200.09201
G0 F9000 X111.597 Y130.624
G0 X111.669 Y131.331
G0 X122.593 Y136.608
G0 X122.713 Y136.9
;TYPE:WALL-INNER
G1 F1500 X126.9 Y132.713 E200.28895
G1 X126.9 Y103.748 E201.25233
G1 X126.9 Y102.959 E201.27857
G1 X122.208 Y98.1 E201.50323
G1 X108.1 Y98.1 E201.97247
G1 X108.101 Y136.899 E203.26293
G1 X122.713 Y136.9 E203.74892
G0 F9000 X122.879 Y137.3
;TYPE:WALL-OUTER
G1 F1500 X127.3 Y132.879 E203.95687
G1 X127.3 Y103.748 E204.92577
G1 X127.3 Y102.797 E204.9574
G1 X122.378 Y97.7 E205.19307
G1 X107.7 Y97.7 E205.68126
G1 X107.701 Y137.299 E206.99833
G1 X122.879 Y137.3 E207.50315
G0 F9000 X122.593 Y136.608
G0 X120.848 Y136.6
G0 X120.848 Y136.818
;TYPE:FILL
G1 F3000 X115.211 Y131.182 E207.76828
G0 F9000 X115.53 Y131.182
G1 F3000 X108.181 Y133.151 E208.02133
G0 F9000 X108.18 Y132.636
G1 F3000 X112.362 Y136.818 E208.21804
G0 F9000 X111.591 Y136.818
G1 F3000 X113.101 Y131.181 E208.41213
G0 F9000 X113.101 Y131.403
G0 X111.669 Y131.331
G0 X111.597 Y127.787
G0 X111.816 Y127.787
G1 F3000 X108.18 Y124.15 E208.58318
G0 F9000 X108.4 Y124.15
G0 X108.4 Y126.363
G0 X108.18 Y126.363
G1 F3000 X111.816 Y112.796 E209.05035
G0 F9000 X111.816 Y113.542
G1 F3000 X108.18 Y114.516 E209.17555
G0 F9000 X108.4 Y114.516
G0 X108.4 Y115.664
G0 X108.179 Y115.664
G1 F3000 X112.357 Y119.843 E209.37209
G0 F9000 X112.357 Y119.598
G0 X116.145 Y119.598
G0 X116.145 Y119.819
G1 F3000 X117.389 Y115.18 E209.53183
G0 F9000 X117.389 Y115.403
G0 X116.181 Y115.403
G0 X116.181 Y115.181
G1 F3000 X120.817 Y119.817 E209.7499
G0 F9000 X120.817 Y119.598
G0 X122.357 Y119.598
G0 X122.357 Y119.818
G1 F3000 X126.819 Y103.168 E210.32322
G1 X126.819 Y103.311
G1 X123.148 Y104.294 E210.44962
G0 F9000 X123.183 Y105.213
G1 F3000 X126.819 Y108.849 E210.62065
G0 F9000 X126.818 Y109.522
G1 F3000 X123.184 Y110.496 E210.74578
G0 F9000 X123.403 Y110.496
G0 X123.403 Y113.698
G0 X123.183 Y113.698
G1 F3000 X126.819 Y117.334 E210.91681
G0 F9000 X126.6 Y117.334
G0 X126.6 Y115.734
G0 X126.818 Y115.734
G1 F3000 X108.18 Y120.728 E211.55858
G0 F9000 X108.4 Y120.728
G0 X108.4 Y126.94
G0 X108.18 Y126.94
G1 F3000 X111.815 Y125.966 E211.68374
G0 F9000 X111.597 Y125.966
G0 X111.669 Y131.331
G0 X119.313 Y131.403
G0 X119.313 Y131.181
G1 F3000 X117.802 Y136.819 E211.87788
G1 X117.676 Y136.819
G1 X124.511 Y134.987 E212.11324
G1 X124.502 Y134.996
G1 X126.819 Y126.35 E212.41095
G0 F9000 X126.82 Y125.82
G1 F3000 X123.182 Y122.183 E212.58205
G0 F9000 X123.184 Y122.919
G1 F3000 X126.819 Y121.945 E212.70721
G0 F9000 X126.6 Y121.945
G0 X126.6 Y128.157
G0 X126.818 Y128.157
G1 F3000 X123.184 Y129.131 E212.83235
G0 F9000 X123.403 Y129.131
G0 X123.403 Y130.655
G0 X123.17 Y130.655
G1 F3000 X126.007 Y133.492 E212.96579
G1 F2700 E207.96579
G0 F9000 X125.853 Y133.338
G0 X123.331 Y119.67
G0 X111.669 Y115.331
G0 X111.597 Y110.817
G1 F2700 E212.96579
G0 F9000 X111.816 Y110.817
G1 F3000 X108.179 Y107.179 E213.13689
G0 F9000 X108.4 Y107.179
G0 X108.4 Y108.305
G0 X108.18 Y108.305
G1 F3000 X111.816 Y107.331 E213.26209
G0 F9000 X111.597 Y107.331
G0 X111.669 Y103.67
G0 X113.303 Y103.598
G0 X113.303 Y103.818
G1 F3000 X108.179 Y98.694 E213.5031
G0 F9000 X108.4 Y98.694
G0 X109.521 Y98.4
G0 X109.521 Y98.178
G1 F3000 X108.179 Y103.184 E213.67548
G0 F9000 X108.4 Y103.184
G0 X108.4 Y102.093
G0 X108.179 Y102.093
G1 F3000 X122.3 Y98.31 E214.16171
G0 F9000 X121.944 Y98.178
G1 F3000 X120.433 Y103.817 E214.35588
G0 F9000 X120.433 Y103.598
G0 X121.788 Y103.598
G0 X121.788 Y103.818
G1 F3000 X116.15 Y98.179 E214.6211
G0 F9000 X115.733 Y98.178
G1 F3000 X114.222 Y103.817 E214.81527
G0 F9000 X114.222 Y103.298
;MESH:NONMESH
G0 F300 X114.222 Y103.298 Z1.2
G0 F9000 X111.669 Y103.67
G0 X111.597 Y114.834
G0 X111.995 Y114.834
;TIME_ELAPSED:370.877487
;LAYER:5
;TYPE:WALL-INNER
;MESH:LETRA B.stl
G1 F1500 X111.923 Y114.679 E214.82095
G1 X111.897 Y114.503 E214.82687
G1 X111.897 Y104.498 E215.15964
G1 X111.929 Y104.301 E215.16628
G1 X112.019 Y104.135 E215.17256
G1 X112.14 Y104.015 E215.17822
G1 X112.421 Y103.898 E215.18835
G1 X122.503 Y103.898 E215.52368
G1 X122.679 Y103.924 E215.52959
G1 X122.851 Y104.008 E215.53596
G1 X123.001 Y104.161 E215.54309
G1 X123.077 Y104.321 E215.54898
G1 X123.104 Y104.498 E215.55493
G1 X123.104 Y114.503 E215.8877
G1 X123.077 Y114.679 E215.89362
G1 X122.902 Y114.953 E215.90444
G1 X122.621 Y115.104 E215.91505
G1 X112.444 Y115.101 E216.25354
G1 X112.214 Y115.033 E216.26151
G1 X111.995 Y114.834 E216.27135
G0 F9000 X112.329 Y114.614
;TYPE:WALL-OUTER
G1 F1500 X112.299 Y114.538 E216.27407
G1 X112.297 Y104.445 E216.60977
G1 X112.378 Y104.337 E216.61426
G1 X112.462 Y104.3 E216.61731
G1 X122.546 Y104.298 E216.95271
G1 X122.619 Y104.334 E216.95541
G1 X122.704 Y104.498 E216.96156
G1 X122.704 Y114.503 E217.29432
G1 X122.671 Y114.614 E217.29818
G1 X122.503 Y114.704 E217.30451
G1 X112.479 Y114.703 E217.63791
G1 X112.329 Y114.614 E217.64371
G0 F9000 X111.597 Y114.614
G0 X111.669 Y131.331
G0 X112.417 Y131.403
G0 X112.417 Y131.103
;TYPE:WALL-INNER
G1 F1500 X112.14 Y130.986 E217.65372
G1 X112.019 Y130.866 E217.65938
G1 X111.897 Y130.576 E217.66985
G1 X111.897 Y120.498 E218.00504
G1 X111.923 Y120.321 E218.01099
G1 X111.995 Y120.167 E218.01665
G1 X112.214 Y119.968 E218.02649
G1 X112.444 Y119.9 E218.03447
G1 X122.62 Y119.898 E218.37292
G1 X122.902 Y120.048 E218.38355
G1 X123.077 Y120.321 E218.39433
G1 X123.104 Y120.498 E218.40029
G1 X123.104 Y130.628 E218.73721
G1 X122.923 Y130.933 E218.74901
G1 X122.604 Y131.103 E218.76103
G1 X112.417 Y131.103 E219.09985
G0 F9000 X112.337 Y130.624
;TYPE:WALL-OUTER
G1 F1500 X112.299 Y130.538 E219.10298
G1 X112.297 Y120.456 E219.43831
G1 X112.42 Y120.298 E219.44497
G1 X122.54 Y120.298 E219.78156
G1 X122.671 Y120.387 E219.78683
G1 X122.704 Y120.498 E219.79068
G1 X122.704 Y130.543 E220.12478
G1 X122.667 Y130.619 E220.12759
G1 X122.552 Y130.698 E220.13223
G1 X112.458 Y130.7 E220.46796
G1 X112.337 Y130.624 E220.47271
G0 F9000 X111.597 Y130.624
G0 X111.669 Y131.331
G0 X122.593 Y136.608
G0 X122.713 Y136.9
;TYPE:WALL-INNER
G1 F1500 X126.9 Y132.713 E220.66965
G1 X126.9 Y103.748 E221.63303
G1 X126.9 Y102.959 E221.65927
G1 X122.208 Y98.1 E221.88393
G1 X108.1 Y98.1 E222.35317
G1 X108.101 Y136.899 E223.64363
G1 X122.713 Y136.9 E224.12963
G0 F9000 X122.879 Y137.3
;TYPE:WALL-OUTER
G1 F1500 X127.3 Y132.879 E224.33758
G1 X127.3 Y103.748 E225.30648
G1 X127.3 Y102.797 E225.33811
G1 X122.378 Y97.7 E225.57377
G1 X107.7 Y97.7 E226.06197
G1 X107.701 Y137.299 E227.37903
G1 X122.879 Y137.3 E227.88386
G0 F9000 X122.593 Y136.608
G0 X121.047 Y136.6
G0 X121.047 Y136.818
;TYPE:FILL
G1 F3000 X115.411 Y131.182 E228.14896
G0 F9000 X116.074 Y131.182
G1 F3000 X108.181 Y133.297 E228.42074
G0 F9000 X108.18 Y132.436
G1 F3000 X112.562 Y136.818 E228.62686
G0 F9000 X112.562 Y136.6
G0 X111.445 Y136.6
G0 X111.445 Y136.819
G1 F3000 X112.955 Y131.181 E228.82099
G0 F9000 X112.955 Y131.403
G0 X111.669 Y131.331
G0 X111.597 Y127.588
G0 X111.816 Y127.588
G1 F3000 X108.18 Y123.951 E228.99204
G0 F9000 X108.4 Y123.951
G0 X108.4 Y125.819
G0 X108.18 Y125.819
G1 F3000 X111.816 Y112.252 E229.4592
G0 F9000 X111.597 Y112.252
G0 X111.597 Y113.688
G0 X111.815 Y113.688
G1 F3000 X108.18 Y114.662 E229.58437
G0 F9000 X108.179 Y115.465
G1 F3000 X112.532 Y119.818 E229.78912
G0 F9000 X112.532 Y119.598
G0 X115.999 Y119.598
G0 X115.999 Y119.819
G1 F3000 X117.243 Y115.18 E229.94886
G0 F9000 X116.38 Y115.181
G1 F3000 X121.017 Y119.817 E230.16695
G0 F9000 X121.017 Y119.598
G0 X122.212 Y119.598
G0 X122.212 Y119.817
G1 F3000 X126.742 Y102.91 E230.74911
G0 F9000 X126.818 Y103.457
G1 F3000 X123.172 Y104.434 E230.87466
G0 F9000 X123.183 Y105.013
G1 F3000 X126.819 Y108.649 E231.04569
G0 F9000 X126.6 Y108.649
G0 X126.6 Y109.668
G0 X126.818 Y109.668
G1 F3000 X123.183 Y110.642 E231.17085
G0 F9000 X123.403 Y110.642
G0 X123.403 Y113.499
G0 X123.183 Y113.499
G1 F3000 X126.819 Y117.135 E231.34188
G0 F9000 X126.6 Y117.135
G0 X126.6 Y115.88
G0 X126.819 Y115.88
G1 F3000 X108.18 Y120.874 E231.98368
G0 F9000 X108.4 Y120.874
G0 X108.4 Y127.086
G0 X108.18 Y127.086
G1 F3000 X111.815 Y126.112 E232.10884
G0 F9000 X111.597 Y126.112
G0 X111.669 Y131.331
G0 X119.167 Y131.403
G0 X119.167 Y131.181
G1 F3000 X117.656 Y136.819 E232.30298
G0 F9000 X118.22 Y136.819
G1 F3000 X124.31 Y135.187 E232.51268
G1 X124.303 Y135.196
G1 X126.819 Y125.805 E232.83605
G1 X126.82 Y125.621
G1 X123.182 Y121.983 E233.00717
G0 F9000 X123.403 Y121.983
G0 X123.403 Y123.065
G0 X123.184 Y123.065
G1 F3000 X126.818 Y122.092 E233.13229
G0 F9000 X126.6 Y122.092
G0 X126.6 Y128.303
G0 X126.818 Y128.303
G1 F3000 X123.183 Y129.277 E233.25746
G0 F9000 X123.403 Y129.277
G0 X123.403 Y130.468
G0 X123.182 Y130.468
G1 F3000 X126.106 Y133.392 E233.39499
G1 F2700 E228.39499
G0 F9000 X125.953 Y133.238
G0 X123.331 Y119.67
G0 X111.669 Y115.331
G0 X111.597 Y110.617
G1 F2700 E233.39499
G0 F9000 X111.816 Y110.617
G1 F3000 X108.179 Y106.98 E233.56607
G0 F9000 X108.4 Y106.98
G0 X108.4 Y108.451
G0 X108.18 Y108.451
G1 F3000 X111.816 Y107.477 E233.69126
G0 F9000 X111.597 Y107.477
G0 X111.669 Y103.67
G0 X113.502 Y103.598
G0 X113.502 Y103.818
G1 F3000 X108.179 Y98.495 E233.94164
G0 F9000 X108.4 Y98.495
G0 X109.375 Y98.4
G0 X109.375 Y98.178
G1 F3000 X108.179 Y102.64 E234.09529
G0 F9000 X108.18 Y102.239
G1 F3000 X122.412 Y98.426 E234.58534
G0 F9000 X121.798 Y98.179
G1 F3000 X120.287 Y103.817 E234.77948
G0 F9000 X120.287 Y103.598
G0 X121.987 Y103.598
G0 X121.987 Y103.818
G1 F3000 X116.349 Y98.179 E235.04469
G0 F9000 X115.587 Y98.178
G1 F3000 X114.076 Y103.817 E235.23887
G0 F9000 X114.076 Y103.298
;MESH:NONMESH
G0 F300 X114.076 Y103.298 Z1.4
G0 F9000 X111.669 Y103.67
G0 X111.597 Y114.834
G0 X111.995 Y114.834
;TIME_ELAPSED:400.563600
;LAYER:6
;TYPE:WALL-INNER
;MESH:LETRA B.stl
G1 F1500 X111.923 Y114.679 E235.24455
G1 X111.897 Y114.503 E235.25047
G1 X111.897 Y104.498 E235.58323
G1 X111.929 Y104.301 E235.58987
G1 X112.019 Y104.135 E235.59615
G1 X112.14 Y104.015 E235.60182
G1 X112.381 Y103.909 E235.61058
G1 X112.497 Y103.898 E235.61445
G1 X122.503 Y103.898 E235.94725
G1 X122.679 Y103.924 E235.95317
G1 X122.857 Y104.012 E235.95978
G1 X123.001 Y104.161 E235.96667
G1 X123.077 Y104.321 E235.97256
G1 X123.104 Y104.498 E235.97851
G1 X123.104 Y114.503 E236.31128
G1 X123.077 Y114.679 E236.3172
G1 X122.902 Y114.953 E236.32802
G1 X122.621 Y115.104 E236.33863
G1 X112.444 Y115.101 E236.67712
G1 X112.214 Y115.033 E236.68509
G1 X111.995 Y114.834 E236.69494
G0 F9000 X112.329 Y114.614
;TYPE:WALL-OUTER
G1 F1500 X112.299 Y114.538 E236.69765
G1 X112.297 Y104.445 E237.03335
G1 X112.378 Y104.337 E237.03784
G1 X112.458 Y104.301 E237.04076
G1 X122.546 Y104.298 E237.37628
G1 X122.669 Y104.385 E237.38129
G1 X122.704 Y104.498 E237.38523
G1 X122.704 Y114.503 E237.718
G1 X122.671 Y114.614 E237.72185
G1 X122.503 Y114.704 E237.72819
G1 X112.479 Y114.703 E238.06159
G1 X112.329 Y114.614 E238.06739
G1 F2700 E233.06739
G0 F9000 X112.579 Y115.204
G0 X112.598 Y119.718
G0 X112.417 Y131.103
;TYPE:WALL-INNER
G1 F2700 E238.06739
G1 F1500 X112.14 Y130.986 E238.07739
G1 X112.019 Y130.866 E238.08306
G1 X111.897 Y130.576 E238.09352
G1 X111.897 Y120.498 E238.42872
G1 X111.923 Y120.321 E238.43467
G1 X111.995 Y120.167 E238.44032
G1 X112.214 Y119.968 E238.45016
G1 X112.444 Y119.9 E238.45814
G1 X122.62 Y119.898 E238.7966
G1 X122.902 Y120.048 E238.80722
G1 X123.077 Y120.321 E238.81801
G1 X123.104 Y120.498 E238.82396
G1 X123.104 Y130.628 E239.16089
G1 X122.923 Y130.933 E239.17268
G1 X122.604 Y131.103 E239.1847
G1 X112.417 Y131.103 E239.52353
G0 F9000 X112.337 Y130.624
;TYPE:WALL-OUTER
G1 F1500 X112.299 Y130.538 E239.52665
G1 X112.297 Y120.456 E239.86198
G1 X112.402 Y120.321 E239.86767
G1 X112.479 Y120.298 E239.87034
G1 X122.54 Y120.298 E240.20497
G1 X122.671 Y120.387 E240.21024
G1 X122.704 Y120.498 E240.21409
G1 X122.704 Y130.543 E240.54819
G1 X122.667 Y130.619 E240.551
G1 X122.552 Y130.698 E240.55564
G1 X112.458 Y130.7 E240.89137
G1 X112.337 Y130.624 E240.89612
G1 F2700 E235.89612
G0 F9000 X112.598 Y131.204
G0 X121.513 Y131.284
G0 X123.42 Y135.91
G0 X122.713 Y136.9
;TYPE:WALL-INNER
G1 F2700 E240.89612
G1 F1500 X126.9 Y132.713 E241.09307
G1 X126.9 Y103.748 E242.05645
G1 X126.9 Y102.959 E242.08269
G1 X122.208 Y98.1 E242.30735
G1 X108.1 Y98.1 E242.77658
G1 X108.101 Y136.899 E244.06704
G1 X122.713 Y136.9 E244.55304
G0 F9000 X122.879 Y137.3
;TYPE:WALL-OUTER
G1 F1500 X127.3 Y132.879 E244.76099
G1 X127.3 Y103.748 E245.72989
G1 X127.3 Y102.797 E245.76152
G1 X122.378 Y97.7 E245.99719
G1 X107.7 Y97.7 E246.48538
G1 X107.701 Y137.299 E247.80245
G1 X122.879 Y137.3 E248.30727
G0 F9000 X122.563 Y136.539
;TYPE:SKIN
G1 F1500 X126.54 Y132.563 E248.49431
G1 X126.54 Y103.75 E249.45264
G1 X126.54 Y103.106 E249.47406
G1 X122.054 Y98.46 E249.68886
G1 X108.461 Y98.461 E250.14096
G1 X108.462 Y136.538 E251.40741
G1 X122.563 Y136.539 E251.87641
G1 F2700 E246.87641
G0 F9000 X122.747 Y136.723
G0 X112.598 Y136.7
G0 X112.6 Y131.284
G0 X112.351 Y131.463
G1 F2700 E251.87641
G1 F1500 X111.963 Y131.297 E251.89045
G1 X111.723 Y131.083 E251.90114
G1 X111.539 Y130.627 E251.9175
G1 X111.539 Y120.476 E252.25512
G1 X111.573 Y120.243 E252.26295
G1 X111.698 Y119.955 E252.2734
G1 X112.034 Y119.651 E252.28847
G1 X112.397 Y119.54 E252.30109
G1 X122.527 Y119.539 E252.63802
G1 X122.768 Y119.574 E252.64612
G1 X123.106 Y119.755 E252.65887
G1 X123.29 Y119.948 E252.66774
G1 X123.411 Y120.187 E252.67665
G1 X123.462 Y120.474 E252.68634
G1 X123.462 Y130.678 E253.02573
G1 X123.333 Y130.988 E253.0369
G1 X123.197 Y131.167 E253.04437
G1 X122.968 Y131.347 E253.05406
G1 X122.67 Y131.463 E253.0647
G1 X112.351 Y131.463 E253.40791
G1 F2700 E248.40791
G0 F9000 X112.598 Y131.204
G0 X112.069 Y130.931
G0 X112.069 Y120.07
G0 X112.579 Y119.718
G0 X112.579 Y115.284
G0 X112.035 Y115.35
G1 F2700 E253.40791
G1 F1500 X111.696 Y115.044 E253.4231
G1 X111.573 Y114.761 E253.43336
G1 X111.539 Y114.534 E253.441
G1 X111.539 Y104.468 E253.77579
G1 X111.586 Y104.177 E253.7856
G1 X111.748 Y103.897 E253.79636
G1 X111.966 Y103.703 E253.80606
G1 X112.357 Y103.54 E253.82015
G1 X122.524 Y103.539 E254.15831
G1 X122.785 Y103.575 E254.16707
G1 X123.067 Y103.72 E254.17762
G1 X123.092 Y103.741 E254.1787
G1 X123.295 Y103.948 E254.18835
G1 X123.422 Y104.215 E254.19818
G1 X123.462 Y104.474 E254.2069
G1 X123.462 Y114.53 E254.54136
G1 X123.429 Y114.76 E254.54909
G1 X123.319 Y115.007 E254.55808
G1 X123.141 Y115.227 E254.56749
G1 X122.768 Y115.427 E254.58157
G1 X122.521 Y115.463 E254.58987
G1 X112.402 Y115.458 E254.92643
G1 X112.035 Y115.35 E254.93916
G1 F2700 E249.93916
G0 F9000 X112.579 Y115.204
G0 X112.069 Y114.931
G0 X112.069 Y104.07
G0 X122.244 Y103.718
G0 X125.162 Y100.898
G0 X121.853 Y98.66
G1 F2700 E254.93916
G1 F1500 X125.187 Y101.994 E255.09598
G0 F9000 X125.518 Y101.674
G0 X126.708 Y102.905
G0 X126.34 Y103.712
G1 F1500 X121.287 Y98.66 E255.33363
G0 F9000 X120.722 Y98.66
G1 F1500 X126.34 Y104.278 E255.59788
G0 F9000 X126.34 Y104.844
G1 F1500 X120.156 Y98.66 E255.88876
G0 F9000 X119.59 Y98.66
G1 F1500 X126.34 Y105.409 E256.20624
G0 F9000 X126.34 Y105.975
G1 F1500 X119.025 Y98.66 E256.55031
G0 F9000 X118.459 Y98.66
G1 F1500 X126.34 Y106.541 E256.92101
G0 F9000 X126.34 Y107.106
G1 F1500 X123.655 Y104.421 E257.0473
G0 F9000 X123.659 Y104.991
G1 F1500 X126.34 Y107.672 E257.17341
G0 F9000 X126.34 Y108.238
G1 F1500 X123.659 Y105.557 E257.29952
G0 F9000 X123.659 Y106.123
G1 F1500 X126.34 Y108.803 E257.4256
G0 F9000 X126.34 Y109.369
G1 F1500 X123.66 Y106.689 E257.55166
G0 F9000 X123.66 Y107.255
G1 F1500 X126.34 Y109.935 E257.67772
G0 F9000 X126.34 Y110.5
G1 F1500 X123.66 Y107.821 E257.80375
G0 F9000 X123.66 Y108.386
G1 F1500 X126.34 Y111.066 E257.92981
G0 F9000 X126.34 Y111.632
G1 F1500 X123.66 Y108.953 E258.05585
G0 F9000 X123.66 Y109.518
G1 F1500 X126.34 Y112.198 E258.18191
G0 F9000 X126.34 Y112.763
G1 F1500 X123.66 Y110.084 E258.30794
G0 F9000 X123.661 Y110.65
G1 F1500 X126.34 Y113.329 E258.43395
G0 F9000 X126.34 Y113.895
G1 F1500 X123.661 Y111.216 E258.55996
G0 F9000 X123.661 Y111.782
G1 F1500 X126.34 Y114.46 E258.68595
G0 F9000 X126.34 Y115.026
G1 F1500 X123.661 Y112.347 E258.81197
G0 F9000 X123.662 Y112.914
G1 F1500 X126.34 Y115.592 E258.93793
G0 F9000 X126.34 Y116.157
G1 F1500 X123.662 Y113.48 E259.06387
G0 F9000 X123.662 Y114.045
G1 F1500 X126.34 Y116.723 E259.18984
G0 F9000 X126.34 Y117.289
G1 F1500 X123.65 Y114.599 E259.31637
G0 F9000 X123.522 Y115.037
G1 F1500 X126.34 Y117.854 E259.44889
G0 F9000 X126.34 Y118.42
G1 F1500 X123.285 Y115.365 E259.59259
G0 F9000 X122.926 Y115.572
G1 F1500 X126.34 Y118.986 E259.75317
G0 F9000 X126.34 Y119.551
G1 F1500 X122.452 Y115.664 E259.93603
G0 F9000 X121.886 Y115.664
G1 F1500 X126.34 Y120.117 E260.14551
G0 F9000 X126.34 Y120.683
G1 F1500 X121.321 Y115.664 E260.38159
G0 F9000 X120.754 Y115.663
G1 F1500 X126.34 Y121.249 E260.64434
G0 F9000 X126.34 Y121.814
G1 F1500 X120.189 Y115.663 E260.93366
G0 F9000 X119.623 Y115.663
G1 F1500 X126.34 Y122.38 E261.24961
G0 F9000 X126.34 Y122.946
G1 F1500 X123.627 Y120.232 E261.37724
G0 F9000 X123.662 Y120.833
G1 F1500 X126.34 Y123.511 E261.50321
G0 F9000 X126.34 Y124.077
G1 F1500 X123.662 Y121.399 E261.62917
G0 F9000 X123.662 Y121.965
G1 F1500 X126.34 Y124.643 E261.75514
G0 F9000 X126.34 Y125.208
G1 F1500 X123.661 Y122.53 E261.88113
G0 F9000 X123.661 Y123.095
G1 F1500 X126.34 Y125.774 E262.00714
G0 F9000 X126.34 Y126.34
G1 F1500 X123.661 Y123.661 E262.13315
G0 F9000 X123.66 Y124.226
G1 F1500 X126.34 Y126.905 E262.25918
G0 F9000 X126.34 Y127.471
G1 F1500 X123.66 Y124.792 E262.38522
G0 F9000 X123.66 Y125.358
G1 F1500 X126.34 Y128.037 E262.51126
G0 F9000 X126.34 Y128.602
G1 F1500 X123.66 Y125.922 E262.63731
G0 F9000 X123.66 Y126.488
G1 F1500 X126.34 Y129.168 E262.76337
G0 F9000 X126.34 Y129.734
G1 F1500 X123.66 Y127.054 E262.88943
G0 F9000 X123.659 Y127.619
G1 F1500 X126.34 Y130.299 E263.01551
G0 F9000 X126.34 Y130.865
G1 F1500 X123.659 Y128.185 E263.1416
G0 F9000 X123.659 Y128.75
G1 F1500 X126.34 Y131.431 E263.2677
G0 F9000 X126.34 Y131.997
G1 F1500 X123.658 Y129.315 E263.39386
G0 F9000 X123.658 Y129.881
G1 F1500 X126.297 Y132.52 E263.51799
G0 F9000 X126.014 Y132.803
G1 F1500 X123.658 Y130.447 E263.62881
G0 F9000 X123.575 Y130.929
G1 F1500 X125.732 Y133.085 E263.73024
G0 F9000 X125.449 Y133.368
G1 F1500 X123.358 Y131.277 E263.8286
G0 F9000 X123.046 Y131.531
G1 F1500 X125.166 Y133.651 E263.92831
G0 F9000 X124.883 Y133.934
G1 F1500 X122.61 Y131.661 E264.03523
G0 F9000 X122.045 Y131.661
G1 F1500 X124.6 Y134.217 E264.15543
G0 F9000 X124.317 Y134.5
G1 F1500 X121.479 Y131.661 E264.28895
G0 F9000 X120.913 Y131.661
G1 F1500 X124.035 Y134.783 E264.43579
G0 F9000 X123.752 Y135.065
G1 F1500 X120.348 Y131.661 E264.59591
G0 F9000 X119.782 Y131.661
G1 F1500 X123.469 Y135.348 E264.76933
G0 F9000 X123.186 Y135.631
G1 F1500 X119.216 Y131.661 E264.95607
G0 F9000 X118.651 Y131.661
G1 F1500 X122.903 Y135.914 E265.1561
G0 F9000 X122.62 Y136.197
G1 F1500 X118.085 Y131.661 E265.36943
G0 F9000 X117.519 Y131.661
G1 F1500 X122.195 Y136.337 E265.58938
G0 F9000 X121.629 Y136.337
G1 F1500 X116.954 Y131.661 E265.8093
G0 F9000 X116.388 Y131.661
G1 F1500 X121.063 Y136.337 E266.02922
G0 F9000 X120.498 Y136.337
G1 F1500 X115.822 Y131.661 E266.24916
G0 F9000 X115.256 Y131.661
G1 F1500 X119.932 Y136.337 E266.46911
G0 F9000 X119.366 Y136.337
G1 F1500 X114.691 Y131.661 E266.68903
G0 F9000 X114.125 Y131.661
G1 F1500 X118.801 Y136.337 E266.90897
G0 F9000 X118.235 Y136.337
G1 F1500 X113.559 Y131.661 E267.12892
G0 F9000 X112.994 Y131.661
G1 F1500 X117.669 Y136.337 E267.34884
G0 F9000 X117.103 Y136.337
G1 F1500 X112.428 Y131.661 E267.56876
G0 F9000 X112.598 Y131.204
G0 X112.122 Y130.959
G0 X111.801 Y130.54
G0 X111.341 Y130.575
G1 F1500 X108.661 Y127.895 E267.69482
G0 F9000 X108.661 Y128.46
G1 F1500 X116.538 Y136.337 E268.06533
G0 F9000 X115.972 Y136.337
G1 F1500 X108.661 Y129.026 E268.40922
G0 F9000 X108.661 Y129.592
G1 F1500 X115.406 Y136.337 E268.72648
G0 F9000 X114.841 Y136.337
G1 F1500 X108.661 Y130.157 E269.01717
G0 F9000 X108.661 Y130.723
G1 F1500 X114.275 Y136.337 E269.28123
G0 F9000 X113.709 Y136.337
G1 F1500 X108.661 Y131.289 E269.51868
G0 F9000 X108.661 Y131.854
G1 F1500 X113.144 Y136.337 E269.72954
G0 F9000 X112.578 Y136.337
G1 F1500 X108.661 Y132.42 E269.91379
G0 F9000 X108.661 Y132.986
G1 F1500 X112.012 Y136.337 E270.07141
G0 F9000 X111.447 Y136.337
G1 F1500 X108.661 Y133.551 E270.20245
G0 F9000 X108.661 Y134.117
G1 F1500 X110.881 Y136.337 E270.30687
G0 F9000 X110.315 Y136.337
G1 F1500 X108.661 Y134.683 E270.38467
G0 F9000 X108.661 Y135.249
G1 F1500 X109.75 Y136.337 E270.43587
G0 F9000 X109.184 Y136.337
G1 F1500 X108.661 Y135.814 E270.46047
G1 F2700 E265.46047
G0 F9000 X108.201 Y135.814
G0 X108.301 Y133.868
G0 X111.875 Y130.976
G0 X111.341 Y130.009
G1 F2700 E270.46047
G1 F1500 X108.661 Y127.329 E270.58653
G0 F9000 X108.661 Y126.763
G1 F1500 X111.341 Y129.443 E270.71259
G0 F9000 X111.341 Y128.877
G1 F1500 X108.661 Y126.198 E270.83863
G0 F9000 X108.661 Y125.632
G1 F1500 X111.341 Y128.311 E270.96466
G0 F9000 X111.341 Y127.745
G1 F1500 X108.661 Y125.066 E271.0907
G0 F9000 X108.661 Y124.5
G1 F1500 X111.34 Y127.179 E271.21671
G0 F9000 X111.34 Y126.613
G1 F1500 X108.661 Y123.935 E271.3427
G0 F9000 X108.661 Y123.368
G1 F1500 X111.34 Y126.048 E271.46873
G0 F9000 X111.339 Y125.481
G1 F1500 X108.661 Y122.803 E271.5947
G0 F9000 X108.661 Y122.237
G1 F1500 X111.339 Y124.916 E271.72069
G0 F9000 X111.339 Y124.35
G1 F1500 X108.661 Y121.671 E271.84668
G0 F9000 X108.661 Y121.106
G1 F1500 X111.338 Y123.783 E271.97259
G0 F9000 X111.338 Y123.218
G1 F1500 X108.661 Y120.54 E272.09853
G0 F9000 X108.661 Y119.974
G1 F1500 X111.338 Y122.652 E272.22448
G0 F9000 X111.338 Y122.086
G1 F1500 X108.661 Y119.409 E272.35039
G0 F9000 X108.661 Y118.843
G1 F1500 X111.338 Y121.52 E272.47631
G0 F9000 X111.338 Y120.954
G1 F1500 X108.661 Y118.277 E272.60223
G0 F9000 X108.661 Y117.712
G1 F1500 X111.35 Y120.401 E272.72871
G0 F9000 X111.478 Y119.963
G1 F1500 X108.661 Y117.146 E272.86122
G0 F9000 X108.661 Y116.58
G1 F1500 X111.732 Y119.652 E273.00569
G0 F9000 X112.074 Y119.428
G1 F1500 X108.661 Y116.015 E273.16623
G0 F9000 X108.661 Y115.449
G1 F1500 X112.553 Y119.341 E273.34929
G0 F9000 X113.119 Y119.341
G1 F1500 X108.661 Y114.883 E273.55898
G0 F9000 X108.661 Y114.317
G1 F1500 X113.685 Y119.341 E273.7953
G0 F9000 X114.25 Y119.341
G1 F1500 X108.661 Y113.752 E274.05819
G0 F9000 X108.661 Y113.186
G1 F1500 X114.815 Y119.341 E274.34768
G0 F9000 X115.381 Y119.341
G1 F1500 X108.661 Y112.62 E274.66379
G0 F9000 X108.661 Y112.055
G1 F1500 X111.371 Y114.765 E274.79126
G0 F9000 X111.34 Y114.168
G1 F1500 X108.661 Y111.489 E274.91727
G0 F9000 X108.66 Y110.923
G1 F1500 X111.34 Y113.603 E275.04333
G0 F9000 X111.34 Y113.037
G1 F1500 X108.66 Y110.357 E275.16939
G0 F9000 X108.66 Y109.791
G1 F1500 X111.339 Y112.47 E275.2954
G0 F9000 X111.339 Y111.905
G1 F1500 X108.66 Y109.226 E275.42141
G0 F9000 X108.66 Y108.66
G1 F1500 X111.339 Y111.339 E275.54742
G0 F9000 X111.338 Y110.773
G1 F1500 X108.66 Y108.094 E275.67341
G0 F9000 X108.66 Y107.529
G1 F1500 X111.338 Y110.207 E275.79938
G0 F9000 X111.338 Y109.641
G1 F1500 X108.66 Y106.963 E275.92534
G0 F9000 X108.66 Y106.397
G1 F1500 X111.338 Y109.075 E276.05131
G0 F9000 X111.338 Y108.509
G1 F1500 X108.66 Y105.831 E276.17727
G0 F9000 X108.66 Y105.266
G1 F1500 X111.338 Y107.944 E276.30324
G0 F9000 X111.337 Y107.377
G1 F1500 X108.66 Y104.7 E276.42915
G0 F9000 X108.66 Y104.134
G1 F1500 X111.337 Y106.812 E276.5551
G0 F9000 X111.337 Y106.246
G1 F1500 X108.66 Y103.569 E276.68101
G0 F9000 X108.66 Y103.003
G1 F1500 X111.336 Y105.679 E276.80688
G0 F9000 X111.336 Y105.114
G1 F1500 X108.66 Y102.437 E276.93278
G0 F9000 X108.66 Y101.872
G1 F1500 X111.336 Y104.548 E277.05865
G0 F9000 X111.418 Y104.064
G1 F1500 X108.66 Y101.306 E277.18838
G0 F9000 X108.66 Y100.74
G1 F1500 X111.642 Y103.723 E277.32867
G0 F9000 X111.968 Y103.483
G1 F1500 X108.66 Y100.175 E277.48426
G0 F9000 X108.66 Y99.609
G1 F1500 X112.393 Y103.342 E277.65985
G0 F9000 X112.958 Y103.342
G1 F1500 X108.66 Y99.043 E277.86204
G0 F9000 X108.842 Y98.66
G1 F1500 X113.524 Y103.342 E278.08227
G0 F9000 X114.09 Y103.342
G1 F1500 X109.408 Y98.66 E278.30249
G0 F9000 X109.974 Y98.66
G1 F1500 X114.655 Y103.342 E278.5227
G0 F9000 X115.221 Y103.342
G1 F1500 X110.539 Y98.66 E278.74293
G0 F9000 X111.105 Y98.66
G1 F1500 X115.786 Y103.341 E278.96311
G0 F9000 X116.352 Y103.341
G1 F1500 X111.671 Y98.66 E279.18328
G0 F9000 X112.236 Y98.66
G1 F1500 X116.917 Y103.341 E279.40346
G0 F9000 X117.483 Y103.341
G1 F1500 X112.802 Y98.66 E279.62364
G0 F9000 X113.368 Y98.66
G1 F1500 X118.049 Y103.341 E279.84382
G0 F9000 X118.615 Y103.341
G1 F1500 X113.933 Y98.66 E280.06403
G0 F9000 X114.499 Y98.66
G1 F1500 X119.18 Y103.34 E280.28418
G0 F9000 X119.745 Y103.34
G1 F1500 X115.065 Y98.66 E280.50432
G0 F9000 X115.631 Y98.66
G1 F1500 X120.311 Y103.34 E280.72445
G0 F9000 X120.877 Y103.34
G1 F1500 X116.196 Y98.66 E280.94461
G0 F9000 X116.762 Y98.66
G1 F1500 X121.442 Y103.34 E281.16474
G0 F9000 X122.008 Y103.34
G1 F1500 X117.328 Y98.66 E281.38487
G0 F9000 X117.893 Y98.66
G1 F1500 X122.579 Y103.346 E281.60529
G0 F9000 X122.513 Y103.8
G0 X122.931 Y104.07
G0 X122.931 Y114.931
G0 X119.056 Y115.204
G0 X119.056 Y115.662
G1 F1500 X122.761 Y119.367 E281.77956
G0 F9000 X122.166 Y119.338
G1 F1500 X118.491 Y115.662 E281.95244
G0 F9000 X117.924 Y115.662
G1 F1500 X121.601 Y119.338 E282.12537
G0 F9000 X121.035 Y119.338
G1 F1500 X117.359 Y115.662 E282.29828
G0 F9000 X116.793 Y115.662
G1 F1500 X120.47 Y119.339 E282.47124
G0 F9000 X119.904 Y119.339
G1 F1500 X116.227 Y115.661 E282.64422
G0 F9000 X115.661 Y115.661
G1 F1500 X119.339 Y119.339 E282.81722
G0 F9000 X118.774 Y119.339
G1 F1500 X115.095 Y115.66 E282.99027
G0 F9000 X114.529 Y115.66
G1 F1500 X118.208 Y119.339 E283.16332
G0 F9000 X117.642 Y119.339
G1 F1500 X113.963 Y115.66 E283.33636
G0 F9000 X113.397 Y115.66
G1 F1500 X117.077 Y119.34 E283.50946
G0 F9000 X116.512 Y119.34
G1 F1500 X112.831 Y115.66 E283.68258
G0 F9000 X112.221 Y115.615
G1 F1500 X115.946 Y119.34 E283.85779
G1 F2700 E278.85779
;MESH:NONMESH
G0 F300 X115.946 Y119.34 Z1.6
G0 F9000 X115.946 Y119.798
G0 X112.579 Y119.718
G0 X112.579 Y115.284
G0 X111.995 Y114.834
;TIME_ELAPSED:480.207666
;LAYER:7
;TYPE:WALL-INNER
;MESH:LETRA B.stl
G1 F2700 E283.85779
G1 F1500 X111.923 Y114.679 E283.86348
G1 X111.897 Y114.503 E283.86939
G1 X111.897 Y104.498 E284.20216
G1 X111.929 Y104.301 E284.2088
G1 X112.019 Y104.135 E284.21508
G1 X112.14 Y104.015 E284.22075
G1 X112.421 Y103.898 E284.23087
G1 X122.503 Y103.898 E284.5662
G1 X122.679 Y103.924 E284.57212
G1 X122.857 Y104.012 E284.57872
G1 X123.001 Y104.161 E284.58561
G1 X123.077 Y104.321 E284.59151
G1 X123.104 Y104.498 E284.59746
G1 X123.104 Y114.503 E284.93023
G1 X123.077 Y114.679 E284.93615
G1 X122.902 Y114.953 E284.94696
G1 X122.621 Y115.104 E284.95757
G1 X112.444 Y115.101 E285.29606
G1 X112.214 Y115.033 E285.30404
G1 X111.995 Y114.834 E285.31388
G0 F9000 X112.329 Y114.614
;TYPE:WALL-OUTER
G1 F1500 X112.299 Y114.538 E285.3166
G1 X112.297 Y104.445 E285.65229
G1 X112.378 Y104.337 E285.65678
G1 X112.462 Y104.3 E285.65984
G1 X122.546 Y104.298 E285.99523
G1 X122.669 Y104.385 E286.00024
G1 X122.704 Y104.498 E286.00418
G1 X122.704 Y114.503 E286.33694
G1 X122.671 Y114.614 E286.3408
G1 X122.503 Y114.704 E286.34714
G1 X112.479 Y114.703 E286.68054
G1 X112.329 Y114.614 E286.68634
G1 F2700 E281.68634
G0 F9000 X112.579 Y115.204
G0 X112.598 Y119.718
G0 X112.417 Y131.103
;TYPE:WALL-INNER
G1 F2700 E286.68634
G1 F1500 X112.14 Y130.986 E286.69634
G1 X112.019 Y130.866 E286.70201
G1 X111.897 Y130.576 E286.71247
G1 X111.897 Y120.498 E287.04767
G1 X111.923 Y120.321 E287.05362
G1 X111.995 Y120.167 E287.05927
G1 X112.214 Y119.968 E287.06911
G1 X112.444 Y119.9 E287.07709
G1 X122.503 Y119.898 E287.41165
G1 X122.786 Y119.968 E287.42135
G1 X123.005 Y120.167 E287.43119
G1 X123.104 Y120.498 E287.44268
G1 X123.104 Y130.628 E287.77961
G1 X122.923 Y130.933 E287.7914
G1 X122.604 Y131.103 E287.80343
G1 X112.417 Y131.103 E288.14225
G0 F9000 X112.337 Y130.624
;TYPE:WALL-OUTER
G1 F1500 X112.299 Y130.538 E288.14537
G1 X112.297 Y120.456 E288.4807
G1 X112.42 Y120.298 E288.48736
G1 X122.54 Y120.298 E288.82395
G1 X122.598 Y120.321 E288.82603
G1 X122.671 Y120.387 E288.8293
G1 X122.704 Y120.498 E288.83315
G1 X122.704 Y130.543 E289.16725
G1 X122.667 Y130.619 E289.17006
G1 X122.552 Y130.698 E289.1747
G1 X112.458 Y130.7 E289.51043
G1 X112.337 Y130.624 E289.51519
G1 F2700 E284.51519
G0 F9000 X112.598 Y131.204
G0 X121.513 Y131.284
G0 X123.42 Y135.91
G0 X122.713 Y136.9
;TYPE:WALL-INNER
G1 F2700 E289.51519
G1 F1500 X126.9 Y132.713 E289.71213
G1 X126.9 Y103.748 E290.67551
G1 X126.9 Y102.959 E290.70175
G1 X122.208 Y98.1 E290.92641
G1 X108.1 Y98.1 E291.39564
G1 X108.101 Y136.899 E292.6861
G1 X122.713 Y136.9 E293.1721
G0 F9000 X122.879 Y137.3
;TYPE:WALL-OUTER
G1 F1500 X127.3 Y132.879 E293.38005
G1 X127.3 Y103.748 E294.34895
G1 X127.3 Y102.797 E294.38058
G1 X122.378 Y97.7 E294.61625
G1 X107.7 Y97.7 E295.10444
G1 X107.701 Y137.299 E296.42151
G1 X122.879 Y137.3 E296.92633
G0 F9000 X122.563 Y136.539
;TYPE:SKIN
G1 F1500 X126.54 Y132.563 E297.11338
G1 X126.54 Y103.75 E298.0717
G1 X126.54 Y103.106 E298.09312
G1 X122.054 Y98.46 E298.30792
G1 X108.461 Y98.461 E298.76003
G1 X108.462 Y136.538 E300.02647
G1 X122.563 Y136.539 E300.49547
G1 F2700 E295.49547
G0 F9000 X122.747 Y136.723
G0 X112.598 Y136.7
G0 X112.6 Y131.284
G0 X112.351 Y131.463
G1 F2700 E300.49547
G1 F1500 X111.963 Y131.297 E300.50951
G1 X111.723 Y131.083 E300.52021
G1 X111.539 Y130.627 E300.53656
G1 X111.539 Y120.476 E300.87418
G1 X111.573 Y120.243 E300.88202
G1 X111.698 Y119.955 E300.89246
G1 X112.034 Y119.651 E300.90753
G1 X112.397 Y119.54 E300.92015
G1 X122.527 Y119.539 E301.25708
G1 X122.768 Y119.574 E301.26518
G1 X123.106 Y119.755 E301.27793
G1 X123.29 Y119.948 E301.2868
G1 X123.411 Y120.187 E301.29571
G1 X123.462 Y120.474 E301.30541
G1 X123.462 Y130.678 E301.64479
G1 X123.333 Y130.988 E301.65596
G1 X123.18 Y131.186 E301.66428
G1 X122.943 Y131.357 E301.674
G1 X122.669 Y131.463 E301.68377
G1 X112.351 Y131.463 E302.02695
G1 F2700 E297.02695
G0 F9000 X112.598 Y131.204
G0 X112.069 Y130.931
G0 X112.069 Y120.07
G0 X112.579 Y119.718
G0 X112.579 Y115.284
G0 X112.035 Y115.35
G1 F2700 E302.02695
G1 F1500 X111.696 Y115.044 E302.04214
G1 X111.573 Y114.761 E302.0524
G1 X111.539 Y114.534 E302.06004
G1 X111.539 Y104.468 E302.39484
G1 X111.586 Y104.177 E302.40464
G1 X111.748 Y103.897 E302.4154
G1 X111.966 Y103.703 E302.42511
G1 X112.357 Y103.54 E302.43919
G1 X122.524 Y103.539 E302.77735
G1 X122.785 Y103.575 E302.78611
G1 X123.067 Y103.72 E302.79666
G1 X123.294 Y103.947 E302.80734
G1 X123.422 Y104.215 E302.81722
G1 X123.462 Y104.474 E302.82593
G1 X123.464 Y114.5 E303.1594
G1 X123.429 Y114.76 E303.16812
G1 X123.319 Y115.007 E303.17712
G1 X123.141 Y115.227 E303.18653
G1 X122.768 Y115.427 E303.20061
G1 X122.521 Y115.463 E303.20891
G1 X112.402 Y115.458 E303.54547
G1 X112.035 Y115.35 E303.55819
G1 F2700 E298.55819
G0 F9000 X112.579 Y115.204
G0 X112.069 Y114.931
G0 X112.094 Y104.057
G0 X108.3 Y103.656
G0 X108.661 Y98.945
G1 F2700 E303.55819
G1 F1500 X108.946 Y98.66 E303.5716
G0 F9000 X109.511 Y98.66
G1 F1500 X108.661 Y99.511 E303.6116
G0 F9000 X108.661 Y100.076
G1 F1500 X110.077 Y98.66 E303.67821
G0 F9000 X110.643 Y98.66
G1 F1500 X108.661 Y100.642 E303.77143
G0 F9000 X108.661 Y101.208
G1 F1500 X111.208 Y98.66 E303.89126
G0 F9000 X111.774 Y98.66
G1 F1500 X108.661 Y101.773 E304.03769
G0 F9000 X108.661 Y102.339
G1 F1500 X112.34 Y98.66 E304.21074
G0 F9000 X112.905 Y98.66
G1 F1500 X108.661 Y102.905 E304.41038
G0 F9000 X108.661 Y103.47
G1 F1500 X113.471 Y98.66 E304.63663
G0 F9000 X114.037 Y98.66
G1 F1500 X108.661 Y104.036 E304.8895
G0 F9000 X108.661 Y104.602
G1 F1500 X114.602 Y98.66 E305.16897
G0 F9000 X115.168 Y98.66
G1 F1500 X108.661 Y105.167 E305.47504
G0 F9000 X108.661 Y105.733
G1 F1500 X115.734 Y98.66 E305.80773
G0 F9000 X116.299 Y98.66
G1 F1500 X108.661 Y106.299 E306.16702
G0 F9000 X108.661 Y106.865
G1 F1500 X111.386 Y104.139 E306.29522
G0 F9000 X111.336 Y104.755
G1 F1500 X108.661 Y107.43 E306.42105
G0 F9000 X108.661 Y107.996
G1 F1500 X111.336 Y105.321 E306.54687
G0 F9000 X111.336 Y105.887
G1 F1500 X108.661 Y108.562 E306.6727
G0 F9000 X108.661 Y109.127
G1 F1500 X111.336 Y106.452 E306.79852
G0 F9000 X111.336 Y107.017
