;FLAVOR:Marlin
;TIME:432
;Filament used: 0.274778m
;Layer height: 0.2
;MINX:107.7
;MINY:97.7
;MINZ:0.2
;MAXX:127.3
;MAXY:137.3
;MAXZ:2
;Generated with Cura_SteamEngine 5.2.2
M140 S50
M105
M190 S50
M104 S200
M105
M109 S200
M82 ;absolute extrusion mode
; Ender 3 Custom Start G-code
G92 E0 ; Reset Extruder
G28 ; Home all axes
G1 Z2.0 F3000 ; Move Z Axis up little to prevent scratching of Heat Bed
G1 X0.1 Y20 Z0.3 F5000.0 ; Move to start position
G1 X0.1 Y200.0 Z0.3 F1500.0 E15 ; Draw the first line
G1 X0.4 Y200.0 Z0.3 F5000.0 ; Move to side a little
G1 X0.4 Y20 Z0.3 F1500.0 E30 ; Draw the second line
G92 E0 ; Reset Extruder
G1 Z2.0 F3000 ; Move Z Axis up little to prevent scratching of Heat Bed
G1 X5 Y20 Z0.3 F5000.0 ; Move over to prevent blob squish
G92 E0
G92 E0
G1 F2700 E-5
;LAYER_COUNT:10
;LAYER:0
M107
;MESH:LETRA L.stl
G0 F6000 X113.897 Y136.9 Z0.2
;TYPE:WALL-INNER
G1 F2700 E0
G1 F1200 X113.897 Y104.403 E1.08085
G1 X114.002 Y104.157 E1.08975
G1 X114.157 Y104.003 E1.09702
G1 X114.419 Y103.898 E1.10641
G1 X126.9 Y103.898 E1.52153
G1 X126.9 Y100.999 E1.61795
G1 X126.9 Y98.1 E1.71437
G1 X108.1 Y98.1 E2.33966
G1 X108.101 Y136.9 E3.63015
G1 X113.897 Y136.9 E3.82293
G0 F6000 X114.297 Y137.3
;TYPE:WALL-OUTER
G1 F1200 X114.301 Y104.457 E4.91529
G1 X114.355 Y104.356 E4.9191
G1 X114.462 Y104.3 E4.92312
G1 X127.3 Y104.298 E5.35011
G1 X127.3 Y100.999 E5.45983
G1 X127.3 Y97.7 E5.56956
G1 X107.7 Y97.7 E6.22146
G1 X107.701 Y137.3 E7.53856
G1 X114.297 Y137.3 E7.75794
G0 F6000 X114.027 Y137.03
G0 X113.797 Y136.54
G0 X113.537 Y136.54
;TYPE:SKIN
G1 F1200 X113.537 Y104.335 E8.82909
G1 X113.698 Y103.957 E8.84275
G1 X113.957 Y103.698 E8.85493
G1 X114.343 Y103.54 E8.86881
G1 X126.54 Y103.538 E9.27448
G1 X126.54 Y100.999 E9.35893
G1 X126.54 Y98.46 E9.44338
G1 X108.461 Y98.461 E10.04469
G1 X108.461 Y136.54 E11.3112
G1 X113.537 Y136.54 E11.48003
G0 F6000 X113.797 Y136.54
G0 X109.186 Y136.8
G0 X109.186 Y136.339
G1 F1200 X108.66 Y135.813 E11.50477
G0 F6000 X108.66 Y135.247
G1 F1200 X109.752 Y136.339 E11.55613
G0 F6000 X110.317 Y136.339
G1 F1200 X108.66 Y134.681 E11.6341
G0 F6000 X108.66 Y134.116
G1 F1200 X110.883 Y136.339 E11.73866
G0 F6000 X111.449 Y136.339
G1 F1200 X108.66 Y133.55 E11.86985
G0 F6000 X108.66 Y132.984
G1 F1200 X112.014 Y136.339 E12.02763
G0 F6000 X112.58 Y136.339
G1 F1200 X108.66 Y132.419 E12.21202
G0 F6000 X108.66 Y131.853
G1 F1200 X113.146 Y136.339 E12.42302
G0 F6000 X113.337 Y135.964
G1 F1200 X108.66 Y131.287 E12.64301
G0 F6000 X108.66 Y130.722
G1 F1200 X113.337 Y135.398 E12.86298
G0 F6000 X113.337 Y134.833
G1 F1200 X108.66 Y130.156 E13.08297
G0 F6000 X108.66 Y129.59
G1 F1200 X113.337 Y134.267 E13.30297
G0 F6000 X113.337 Y133.701
G1 F1200 X108.66 Y129.025 E13.52293
G0 F6000 X108.66 Y128.459
G1 F1200 X113.337 Y133.136 E13.74293
G0 F6000 X113.337 Y132.57
G1 F1200 X108.66 Y127.893 E13.96292
G0 F6000 X108.66 Y127.328
G1 F1200 X113.337 Y132.004 E14.18289
G0 F6000 X113.337 Y131.439
G1 F1200 X108.66 Y126.762 E14.40288
G0 F6000 X108.66 Y126.196
G1 F1200 X113.337 Y130.873 E14.62287
G0 F6000 X113.337 Y130.307
G1 F1200 X108.66 Y125.63 E14.84286
G0 F6000 X108.66 Y125.065
G1 F1200 X113.337 Y129.742 E15.06285
G0 F6000 X113.337 Y129.176
G1 F1200 X108.66 Y124.499 E15.28285
G0 F6000 X108.66 Y123.933
G1 F1200 X113.337 Y128.61 E15.50284
G0 F6000 X113.337 Y128.045
G1 F1200 X108.66 Y123.368 E15.72283
G0 F6000 X108.66 Y122.802
G1 F1200 X113.337 Y127.479 E15.94282
G0 F6000 X113.337 Y126.913
G1 F1200 X108.66 Y122.236 E16.16281
G0 F6000 X108.66 Y121.671
G1 F1200 X113.337 Y126.347 E16.38278
G0 F6000 X113.337 Y125.782
G1 F1200 X108.66 Y121.105 E16.60277
G0 F6000 X108.66 Y120.539
G1 F1200 X113.337 Y125.216 E16.82276
G0 F6000 X113.337 Y124.65
G1 F1200 X108.66 Y119.974 E17.04273
G0 F6000 X108.66 Y119.408
G1 F1200 X113.337 Y124.085 E17.26272
G0 F6000 X113.337 Y123.519
G1 F1200 X108.66 Y118.842 E17.48272
G0 F6000 X108.66 Y118.277
G1 F1200 X113.337 Y122.953 E17.70268
G0 F6000 X113.337 Y122.388
G1 F1200 X108.66 Y117.711 E17.92268
G0 F6000 X108.66 Y117.145
G1 F1200 X113.337 Y121.822 E18.14267
G0 F6000 X113.337 Y121.256
G1 F1200 X108.66 Y116.579 E18.36266
G0 F6000 X108.66 Y116.014
G1 F1200 X113.337 Y120.691 E18.58265
G0 F6000 X113.337 Y120.125
G1 F1200 X108.66 Y115.448 E18.80264
G0 F6000 X108.66 Y114.882
G1 F1200 X113.337 Y119.559 E19.02263
G0 F6000 X113.337 Y118.994
G1 F1200 X108.66 Y114.317 E19.24263
G0 F6000 X108.66 Y113.751
G1 F1200 X113.337 Y118.428 E19.46262
G0 F6000 X113.337 Y117.862
G1 F1200 X108.66 Y113.185 E19.68261
G0 F6000 X108.66 Y112.62
G1 F1200 X113.337 Y117.296 E19.90258
G0 F6000 X113.337 Y116.731
G1 F1200 X108.66 Y112.054 E20.12257
G0 F6000 X108.66 Y111.488
G1 F1200 X113.337 Y116.165 E20.34256
G0 F6000 X113.337 Y115.599
G1 F1200 X108.66 Y110.923 E20.56253
G0 F6000 X108.66 Y110.357
G1 F1200 X113.337 Y115.034 E20.78252
G0 F6000 X113.337 Y114.468
G1 F1200 X108.66 Y109.791 E21.00251
G0 F6000 X108.66 Y109.226
G1 F1200 X113.337 Y113.902 E21.22248
G0 F6000 X113.337 Y113.337
G1 F1200 X108.66 Y108.66 E21.44247
G0 F6000 X108.66 Y108.094
G1 F1200 X113.337 Y112.771 E21.66246
G0 F6000 X113.337 Y112.205
G1 F1200 X108.66 Y107.529 E21.88243
G0 F6000 X108.66 Y106.963
G1 F1200 X113.337 Y111.64 E22.10242
G0 F6000 X113.337 Y111.074
G1 F1200 X108.66 Y106.397 E22.32242
G0 F6000 X108.66 Y105.831
G1 F1200 X113.337 Y110.508 E22.54241
G0 F6000 X113.337 Y109.943
G1 F1200 X108.66 Y105.266 E22.7624
G0 F6000 X108.66 Y104.7
G1 F1200 X113.337 Y109.377 E22.98239
G0 F6000 X113.337 Y108.811
G1 F1200 X108.66 Y104.134 E23.20238
G0 F6000 X108.66 Y103.569
G1 F1200 X113.337 Y108.246 E23.42237
G0 F6000 X113.337 Y107.68
G1 F1200 X108.66 Y103.003 E23.64237
G0 F6000 X108.66 Y102.437
G1 F1200 X113.337 Y107.114 E23.86236
G0 F6000 X113.337 Y106.548
G1 F1200 X108.66 Y101.872 E24.08233
G0 F6000 X108.66 Y101.306
G1 F1200 X113.337 Y105.983 E24.30232
G0 F6000 X113.337 Y105.417
G1 F1200 X108.66 Y100.74 E24.52231
G0 F6000 X108.66 Y100.175
G1 F1200 X113.337 Y104.851 E24.74228
G0 F6000 X113.34 Y104.289
G1 F1200 X108.66 Y99.609 E24.96241
G0 F6000 X108.66 Y99.043
G1 F1200 X113.507 Y103.89 E25.1904
G0 F6000 X113.777 Y103.594
G1 F1200 X108.842 Y98.66 E25.4225
G0 F6000 X109.408 Y98.66
G1 F1200 X114.147 Y103.399 E25.64541
G0 F6000 X114.655 Y103.342
G1 F1200 X109.974 Y98.66 E25.86561
G0 F6000 X110.539 Y98.66
G1 F1200 X115.221 Y103.342 E26.08584
G0 F6000 X115.787 Y103.342
G1 F1200 X111.105 Y98.66 E26.30607
G0 F6000 X111.671 Y98.66
G1 F1200 X116.352 Y103.341 E26.52625
G0 F6000 X116.917 Y103.341
G1 F1200 X112.236 Y98.66 E26.74643
G0 F6000 X112.802 Y98.66
G1 F1200 X117.483 Y103.341 E26.96661
G0 F6000 X118.048 Y103.34
G1 F1200 X113.368 Y98.66 E27.18674
G0 F6000 X113.933 Y98.66
G1 F1200 X118.614 Y103.34 E27.4069
G0 F6000 X119.18 Y103.34
G1 F1200 X114.499 Y98.66 E27.62705
G0 F6000 X115.065 Y98.66
G1 F1200 X119.744 Y103.34 E27.84716
G0 F6000 X120.31 Y103.34
G1 F1200 X115.631 Y98.66 E28.06727
G0 F6000 X116.196 Y98.66
G1 F1200 X120.876 Y103.34 E28.28741
G0 F6000 X121.441 Y103.339
G1 F1200 X116.762 Y98.66 E28.50749
G0 F6000 X117.328 Y98.66
G1 F1200 X122.007 Y103.339 E28.72758
G0 F6000 X122.572 Y103.339
G1 F1200 X117.893 Y98.66 E28.94766
G0 F6000 X118.459 Y98.66
G1 F1200 X123.137 Y103.338 E29.1677
G0 F6000 X123.703 Y103.338
G1 F1200 X119.025 Y98.66 E29.38774
G0 F6000 X119.59 Y98.66
G1 F1200 X124.269 Y103.338 E29.6078
G0 F6000 X124.834 Y103.337
G1 F1200 X120.156 Y98.66 E29.82782
G0 F6000 X120.722 Y98.66
G1 F1200 X125.399 Y103.337 E30.04781
G0 F6000 X125.965 Y103.337
G1 F1200 X121.287 Y98.66 E30.26782
G0 F6000 X121.853 Y98.66
G1 F1200 X126.339 Y103.146 E30.47883
G0 F6000 X126.339 Y102.58
G1 F1200 X122.419 Y98.66 E30.66322
G0 F6000 X122.984 Y98.66
G1 F1200 X126.339 Y102.015 E30.82103
G0 F6000 X126.339 Y101.449
G1 F1200 X123.55 Y98.66 E30.95221
G0 F6000 X124.116 Y98.66
G1 F1200 X126.339 Y100.883 E31.05678
G0 F6000 X126.339 Y100.317
G1 F1200 X124.682 Y98.66 E31.13472
G0 F6000 X125.247 Y98.66
G1 F1200 X126.339 Y99.752 E31.18608
G0 F6000 X126.339 Y99.186
G1 F1200 X125.813 Y98.66 E31.21082
G1 F2700 E26.21082
;MESH:NONMESH
G0 F300 X125.813 Y98.66 Z0.4
G0 F6000 X125.813 Y98.2
G0 X126.728 Y98.272
G0 X126.728 Y103.726
G0 X114.069 Y104.07
G0 X113.897 Y136.9
;TIME_ELAPSED:60.090912
;LAYER:1
M106 S85
;TYPE:WALL-INNER
;MESH:LETRA L.stl
G1 F2700 E31.21082
G1 F1350 X113.897 Y104.403 E32.29168
G1 X114.002 Y104.157 E32.30057
G1 X114.157 Y104.003 E32.30784
G1 X114.419 Y103.898 E32.31723
G1 X126.9 Y103.898 E32.73235
G1 X126.9 Y100.999 E32.82877
G1 X126.9 Y98.1 E32.92519
G1 X108.1 Y98.1 E33.55048
G1 X108.101 Y136.9 E34.84097
G1 X113.897 Y136.9 E35.03375
G0 F7500 X114.297 Y137.3
;TYPE:WALL-OUTER
G1 F1350 X114.301 Y104.457 E36.12611
G1 X114.355 Y104.356 E36.12992
G1 X114.462 Y104.3 E36.13394
G1 X127.3 Y104.298 E36.56093
G1 X127.3 Y100.999 E36.67066
G1 X127.3 Y97.7 E36.78038
G1 X107.7 Y97.7 E37.43228
G1 X107.701 Y137.3 E38.74938
G1 X114.297 Y137.3 E38.96876
G0 F7500 X114.027 Y137.03
G0 X113.797 Y136.54
G0 X113.537 Y136.54
;TYPE:SKIN
G1 F1350 X113.537 Y104.335 E40.03991
G1 X113.698 Y103.957 E40.05357
G1 X113.957 Y103.698 E40.06576
G1 X114.343 Y103.54 E40.07963
G1 X126.54 Y103.538 E40.4853
G1 X126.54 Y100.999 E40.56975
G1 X126.54 Y98.46 E40.6542
G1 X108.461 Y98.461 E41.25551
G1 X108.461 Y136.54 E42.52202
G1 X113.537 Y136.54 E42.69085
G0 F7500 X113.127 Y136.339
G1 F1350 X113.336 Y136.13 E42.70068
G0 F7500 X113.336 Y135.565
G1 F1350 X112.562 Y136.339 E42.73708
G0 F7500 X111.996 Y136.339
G1 F1350 X113.336 Y134.999 E42.80011
G0 F7500 X113.336 Y134.433
G1 F1350 X111.43 Y136.339 E42.88977
G0 F7500 X110.865 Y136.339
G1 F1350 X113.336 Y133.868 E43.006
G0 F7500 X113.336 Y133.302
G1 F1350 X110.299 Y136.339 E43.14885
G0 F7500 X109.733 Y136.339
G1 F1350 X113.336 Y132.736 E43.31832
G0 F7500 X113.336 Y132.17
G1 F1350 X109.168 Y136.339 E43.51439
G0 F7500 X108.66 Y136.281
G1 F1350 X113.336 Y131.605 E43.73434
G0 F7500 X113.336 Y131.039
G1 F1350 X108.66 Y135.715 E43.95428
G0 F7500 X108.66 Y135.15
G1 F1350 X113.336 Y130.473 E44.17425
G0 F7500 X113.336 Y129.908
G1 F1350 X108.66 Y134.584 E44.3942
G0 F7500 X108.66 Y134.018
G1 F1350 X113.336 Y129.342 E44.61414
G0 F7500 X113.336 Y128.776
G1 F1350 X108.66 Y133.452 E44.83409
G0 F7500 X108.66 Y132.887
G1 F1350 X113.336 Y128.211 E45.05403
G0 F7500 X113.336 Y127.645
G1 F1350 X108.66 Y132.321 E45.27397
G0 F7500 X108.66 Y131.755
G1 F1350 X113.336 Y127.079 E45.49392
G0 F7500 X113.336 Y126.514
G1 F1350 X108.66 Y131.19 E45.71386
G0 F7500 X108.66 Y130.624
G1 F1350 X113.336 Y125.948 E45.93381
G0 F7500 X113.336 Y125.382
G1 F1350 X108.66 Y130.058 E46.15375
G0 F7500 X108.66 Y129.493
G1 F1350 X113.336 Y124.817 E46.3737
G0 F7500 X113.336 Y124.251
G1 F1350 X108.66 Y128.927 E46.59364
G0 F7500 X108.66 Y128.361
G1 F1350 X113.336 Y123.685 E46.81359
G0 F7500 X113.336 Y123.12
G1 F1350 X108.66 Y127.796 E47.03353
G0 F7500 X108.66 Y127.23
G1 F1350 X113.336 Y122.554 E47.25348
G0 F7500 X113.336 Y121.988
G1 F1350 X108.66 Y126.664 E47.47342
G0 F7500 X108.66 Y126.099
G1 F1350 X113.336 Y121.422 E47.69339
G0 F7500 X113.336 Y120.857
G1 F1350 X108.66 Y125.533 E47.91333
G0 F7500 X108.66 Y124.967
G1 F1350 X113.336 Y120.291 E48.13328
G0 F7500 X113.336 Y119.725
G1 F1350 X108.66 Y124.402 E48.35325
G0 F7500 X108.66 Y123.836
G1 F1350 X113.336 Y119.16 E48.57319
G0 F7500 X113.336 Y118.594
G1 F1350 X108.66 Y123.27 E48.79314
G0 F7500 X108.66 Y122.704
G1 F1350 X113.336 Y118.028 E49.01308
G0 F7500 X113.336 Y117.463
G1 F1350 X108.66 Y122.139 E49.23303
G0 F7500 X108.66 Y121.573
G1 F1350 X113.336 Y116.897 E49.45297
G0 F7500 X113.336 Y116.331
G1 F1350 X108.66 Y121.007 E49.67292
G0 F7500 X108.66 Y120.442
G1 F1350 X113.336 Y115.766 E49.89286
G0 F7500 X113.336 Y115.2
G1 F1350 X108.66 Y119.876 E50.11281
G0 F7500 X108.66 Y119.31
G1 F1350 X113.336 Y114.634 E50.33275
G0 F7500 X113.336 Y114.069
G1 F1350 X108.66 Y118.745 E50.55269
G0 F7500 X108.66 Y118.179
G1 F1350 X113.336 Y113.503 E50.77264
G0 F7500 X113.336 Y112.937
G1 F1350 X108.66 Y117.613 E50.99258
G0 F7500 X108.66 Y117.048
G1 F1350 X113.336 Y112.371 E51.21255
G0 F7500 X113.336 Y111.806
G1 F1350 X108.66 Y116.482 E51.4325
G0 F7500 X108.66 Y115.916
G1 F1350 X113.336 Y111.24 E51.65244
G0 F7500 X113.336 Y110.674
G1 F1350 X108.66 Y115.351 E51.87241
G0 F7500 X108.66 Y114.785
G1 F1350 X113.336 Y110.109 E52.09235
G0 F7500 X113.336 Y109.543
G1 F1350 X108.66 Y114.219 E52.3123
G0 F7500 X108.66 Y113.653
G1 F1350 X113.336 Y108.977 E52.53224
G0 F7500 X113.336 Y108.412
G1 F1350 X108.66 Y113.088 E52.75219
G0 F7500 X108.66 Y112.522
G1 F1350 X113.336 Y107.846 E52.97213
G0 F7500 X113.336 Y107.28
G1 F1350 X108.66 Y111.956 E53.19208
G0 F7500 X108.66 Y111.391
G1 F1350 X113.336 Y106.715 E53.41202
G0 F7500 X113.336 Y106.149
G1 F1350 X108.66 Y110.825 E53.63197
G0 F7500 X108.66 Y110.259
G1 F1350 X113.336 Y105.583 E53.85191
G0 F7500 X113.336 Y105.018
G1 F1350 X108.66 Y109.694 E54.07186
G0 F7500 X108.66 Y109.128
G1 F1350 X113.336 Y104.452 E54.2918
G0 F7500 X113.798 Y104.497
G0 X114.48 Y103.8
G0 X114.445 Y103.342
G1 F1350 X119.128 Y98.66 E54.51205
G0 F7500 X119.694 Y98.66
G1 F1350 X115.011 Y103.342 E54.7323
G0 F7500 X115.577 Y103.342
G1 F1350 X120.259 Y98.66 E54.95253
G0 F7500 X120.825 Y98.66
G1 F1350 X116.143 Y103.342 E55.17276
G0 F7500 X116.709 Y103.342
G1 F1350 X121.391 Y98.66 E55.39298
G0 F7500 X121.956 Y98.66
G1 F1350 X117.275 Y103.342 E55.61319
G0 F7500 X117.841 Y103.341
G1 F1350 X122.522 Y98.66 E55.83337
G0 F7500 X123.088 Y98.66
G1 F1350 X118.407 Y103.341 E56.05355
G0 F7500 X118.972 Y103.341
G1 F1350 X123.653 Y98.66 E56.27373
G0 F7500 X124.219 Y98.66
G1 F1350 X119.539 Y103.34 E56.49386
G0 F7500 X120.104 Y103.34
G1 F1350 X124.785 Y98.66 E56.71402
G0 F7500 X125.35 Y98.66
G1 F1350 X120.67 Y103.34 E56.93415
G0 F7500 X121.236 Y103.34
G1 F1350 X125.916 Y98.66 E57.15428
G0 F7500 X126.338 Y98.804
G1 F1350 X121.802 Y103.34 E57.36764
G0 F7500 X122.368 Y103.34
G1 F1350 X126.338 Y99.369 E57.5544
G0 F7500 X126.338 Y99.935
G1 F1350 X122.934 Y103.339 E57.71451
G0 F7500 X123.5 Y103.339
G1 F1350 X126.338 Y100.501 E57.84801
G0 F7500 X126.338 Y101.066
G1 F1350 X124.066 Y103.339 E57.9549
G0 F7500 X124.632 Y103.338
G1 F1350 X126.338 Y101.632 E58.03514
G0 F7500 X126.338 Y102.198
G1 F1350 X125.198 Y103.338 E58.08876
G0 F7500 X125.763 Y103.338
G1 F1350 X126.338 Y102.763 E58.11581
G0 F7500 X126.8 Y102.763
G0 X126.728 Y98.272
G0 X118.562 Y98.2
G0 X118.562 Y98.66
G1 F1350 X108.66 Y108.562 E58.58157
G0 F7500 X108.66 Y107.997
G1 F1350 X117.997 Y98.66 E59.02075
G0 F7500 X117.431 Y98.66
G1 F1350 X108.66 Y107.431 E59.43332
G0 F7500 X108.66 Y106.865
G1 F1350 X116.865 Y98.66 E59.81925
G0 F7500 X116.299 Y98.66
G1 F1350 X108.66 Y106.3 E60.17859
G0 F7500 X108.66 Y105.734
G1 F1350 X115.734 Y98.66 E60.51133
G0 F7500 X115.168 Y98.66
G1 F1350 X108.66 Y105.168 E60.81745
G0 F7500 X108.66 Y104.603
G1 F1350 X114.602 Y98.66 E61.09696
G0 F7500 X114.037 Y98.66
G1 F1350 X108.66 Y104.037 E61.34988
G0 F7500 X108.66 Y103.471
G1 F1350 X113.471 Y98.66 E61.57618
G0 F7500 X112.905 Y98.66
G1 F1350 X108.66 Y102.905 E61.77585
G0 F7500 X108.66 Y102.34
G1 F1350 X112.34 Y98.66 E61.94894
G0 F7500 X111.774 Y98.66
G1 F1350 X108.66 Y101.774 E62.09542
G0 F7500 X108.66 Y101.208
G1 F1350 X111.208 Y98.66 E62.21527
G0 F7500 X110.643 Y98.66
G1 F1350 X108.66 Y100.643 E62.30854
G0 F7500 X108.66 Y100.077
G1 F1350 X110.077 Y98.66 E62.37519
G0 F7500 X109.511 Y98.66
G1 F1350 X108.66 Y99.511 E62.41522
G0 F7500 X108.66 Y98.946
G1 F1350 X108.946 Y98.66 E62.42867
G1 F2700 E57.42867
;MESH:NONMESH
G0 F300 X108.946 Y98.66 Z0.6
G0 F7500 X108.946 Y98.2
G0 X108.272 Y98.272
G0 X108.273 Y136.728
G0 X113.897 Y136.9
;TIME_ELAPSED:111.292277
;LAYER:2
M106 S170
;TYPE:WALL-INNER
;MESH:LETRA L.stl
G1 F2700 E62.42867
G1 F1500 X113.897 Y104.403 E63.50953
G1 X114.002 Y104.157 E63.51842
G1 X114.157 Y104.003 E63.52569
G1 X114.419 Y103.898 E63.53508
G1 X126.9 Y103.898 E63.9502
G1 X126.9 Y100.999 E64.04662
G1 X126.9 Y98.1 E64.14304
G1 X108.1 Y98.1 E64.76833
G1 X108.101 Y136.9 E66.05883
G1 X113.897 Y136.9 E66.2516
G0 F9000 X114.297 Y137.3
;TYPE:WALL-OUTER
G1 F1500 X114.301 Y104.457 E67.34396
G1 X114.355 Y104.356 E67.34777
G1 X114.462 Y104.3 E67.35179
G1 X127.3 Y104.298 E67.77878
G1 X127.3 Y100.999 E67.88851
G1 X127.3 Y97.7 E67.99823
G1 X107.7 Y97.7 E68.65013
G1 X107.701 Y137.3 E69.96723
G1 X114.297 Y137.3 E70.18662
G0 F9000 X114.027 Y137.03
G0 X113.797 Y136.54
G0 X113.537 Y136.54
;TYPE:SKIN
G1 F1500 X113.537 Y104.335 E71.25776
G1 X113.698 Y103.957 E71.27143
G1 X113.957 Y103.698 E71.28361
G1 X114.343 Y103.54 E71.29748
G1 X126.54 Y103.538 E71.70315
G1 X126.54 Y100.999 E71.7876
G1 X126.54 Y98.46 E71.87205
G1 X108.461 Y98.461 E72.47336
G1 X108.461 Y136.54 E73.73987
G1 X113.537 Y136.54 E73.9087
G0 F9000 X113.797 Y136.54
G0 X109.186 Y136.8
G0 X109.186 Y136.339
G1 F1500 X108.66 Y135.813 E73.93344
G0 F9000 X108.66 Y135.247
G1 F1500 X109.752 Y136.339 E73.98481
G0 F9000 X110.317 Y136.339
G1 F1500 X108.66 Y134.681 E74.06277
G0 F9000 X108.66 Y134.116
G1 F1500 X110.883 Y136.339 E74.16733
G0 F9000 X111.449 Y136.339
G1 F1500 X108.66 Y133.55 E74.29852
G0 F9000 X108.66 Y132.984
G1 F1500 X112.014 Y136.339 E74.4563
G0 F9000 X112.58 Y136.339
G1 F1500 X108.66 Y132.419 E74.64069
G0 F9000 X108.66 Y131.853
G1 F1500 X113.146 Y136.339 E74.8517
G0 F9000 X113.337 Y135.964
G1 F1500 X108.66 Y131.287 E75.07169
G0 F9000 X108.66 Y130.722
G1 F1500 X113.337 Y135.398 E75.29166
G0 F9000 X113.337 Y134.833
G1 F1500 X108.66 Y130.156 E75.51165
G0 F9000 X108.66 Y129.59
G1 F1500 X113.337 Y134.267 E75.73164
G0 F9000 X113.337 Y133.701
G1 F1500 X108.66 Y129.025 E75.95161
G0 F9000 X108.66 Y128.459
G1 F1500 X113.337 Y133.136 E76.1716
G0 F9000 X113.337 Y132.57
G1 F1500 X108.66 Y127.893 E76.39159
G0 F9000 X108.66 Y127.328
G1 F1500 X113.337 Y132.004 E76.61156
G0 F9000 X113.337 Y131.439
G1 F1500 X108.66 Y126.762 E76.83155
G0 F9000 X108.66 Y126.196
G1 F1500 X113.337 Y130.873 E77.05154
G0 F9000 X113.337 Y130.307
G1 F1500 X108.66 Y125.63 E77.27154
G0 F9000 X108.66 Y125.065
G1 F1500 X113.337 Y129.742 E77.49153
G0 F9000 X113.337 Y129.176
G1 F1500 X108.66 Y124.499 E77.71152
G0 F9000 X108.66 Y123.933
G1 F1500 X113.337 Y128.61 E77.93151
G0 F9000 X113.337 Y128.045
G1 F1500 X108.66 Y123.368 E78.1515
G0 F9000 X108.66 Y122.802
G1 F1500 X113.337 Y127.479 E78.37149
G0 F9000 X113.337 Y126.913
G1 F1500 X108.66 Y122.236 E78.59149
G0 F9000 X108.66 Y121.671
G1 F1500 X113.337 Y126.347 E78.81145
G0 F9000 X113.337 Y125.782
G1 F1500 X108.66 Y121.105 E79.03145
G0 F9000 X108.66 Y120.539
G1 F1500 X113.337 Y125.216 E79.25144
G0 F9000 X113.337 Y124.65
G1 F1500 X108.66 Y119.974 E79.47141
G0 F9000 X108.66 Y119.408
G1 F1500 X113.337 Y124.085 E79.6914
G0 F9000 X113.337 Y123.519
G1 F1500 X108.66 Y118.842 E79.91139
G0 F9000 X108.66 Y118.277
G1 F1500 X113.337 Y122.953 E80.13136
G0 F9000 X113.337 Y122.388
G1 F1500 X108.66 Y117.711 E80.35135
G0 F9000 X108.66 Y117.145
G1 F1500 X113.337 Y121.822 E80.57134
G0 F9000 X113.337 Y121.256
G1 F1500 X108.66 Y116.579 E80.79133
G0 F9000 X108.66 Y116.014
G1 F1500 X113.337 Y120.691 E81.01132
G0 F9000 X113.337 Y120.125
G1 F1500 X108.66 Y115.448 E81.23132
G0 F9000 X108.66 Y114.882
G1 F1500 X113.337 Y119.559 E81.45131
G0 F9000 X113.337 Y118.994
G1 F1500 X108.66 Y114.317 E81.6713
G0 F9000 X108.66 Y113.751
G1 F1500 X113.337 Y118.428 E81.89129
G0 F9000 X113.337 Y117.862
G1 F1500 X108.66 Y113.185 E82.11128
G0 F9000 X108.66 Y112.62
G1 F1500 X113.337 Y117.296 E82.33125
G0 F9000 X113.337 Y116.731
G1 F1500 X108.66 Y112.054 E82.55124
G0 F9000 X108.66 Y111.488
G1 F1500 X113.337 Y116.165 E82.77124
G0 F9000 X113.337 Y115.599
G1 F1500 X108.66 Y110.923 E82.9912
G0 F9000 X108.66 Y110.357
G1 F1500 X113.337 Y115.034 E83.2112
G0 F9000 X113.337 Y114.468
G1 F1500 X108.66 Y109.791 E83.43119
G0 F9000 X108.66 Y109.226
G1 F1500 X113.337 Y113.902 E83.65116
G0 F9000 X113.337 Y113.337
G1 F1500 X108.66 Y108.66 E83.87115
G0 F9000 X108.66 Y108.094
G1 F1500 X113.337 Y112.771 E84.09114
G0 F9000 X113.337 Y112.205
G1 F1500 X108.66 Y107.529 E84.31111
G0 F9000 X108.66 Y106.963
G1 F1500 X113.337 Y111.64 E84.5311
G0 F9000 X113.337 Y111.074
G1 F1500 X108.66 Y106.397 E84.75109
G0 F9000 X108.66 Y105.831
G1 F1500 X113.337 Y110.508 E84.97108
G0 F9000 X113.337 Y109.943
G1 F1500 X108.66 Y105.266 E85.19107
G0 F9000 X108.66 Y104.7
G1 F1500 X113.337 Y109.377 E85.41107
G0 F9000 X113.337 Y108.811
G1 F1500 X108.66 Y104.134 E85.63106
G0 F9000 X108.66 Y103.569
G1 F1500 X113.337 Y108.246 E85.85105
G0 F9000 X113.337 Y107.68
G1 F1500 X108.66 Y103.003 E86.07104
G0 F9000 X108.66 Y102.437
G1 F1500 X113.337 Y107.114 E86.29103
G0 F9000 X113.337 Y106.548
G1 F1500 X108.66 Y101.872 E86.511
G0 F9000 X108.66 Y101.306
G1 F1500 X113.337 Y105.983 E86.73099
G0 F9000 X113.337 Y105.417
G1 F1500 X108.66 Y100.74 E86.95098
G0 F9000 X108.66 Y100.175
G1 F1500 X113.337 Y104.851 E87.17095
G0 F9000 X113.34 Y104.289
G1 F1500 X108.66 Y99.609 E87.39109
G0 F9000 X108.66 Y99.043
G1 F1500 X113.507 Y103.89 E87.61907
G0 F9000 X113.777 Y103.594
G1 F1500 X108.842 Y98.66 E87.85118
G0 F9000 X109.408 Y98.66
G1 F1500 X114.147 Y103.399 E88.07409
G0 F9000 X114.655 Y103.342
G1 F1500 X109.974 Y98.66 E88.29429
G0 F9000 X110.539 Y98.66
G1 F1500 X115.221 Y103.342 E88.51452
G0 F9000 X115.787 Y103.342
G1 F1500 X111.105 Y98.66 E88.73474
G0 F9000 X111.671 Y98.66
G1 F1500 X116.352 Y103.341 E88.95492
G0 F9000 X116.917 Y103.341
G1 F1500 X112.236 Y98.66 E89.1751
G0 F9000 X112.802 Y98.66
G1 F1500 X117.483 Y103.341 E89.39528
G0 F9000 X118.048 Y103.34
G1 F1500 X113.368 Y98.66 E89.61541
G0 F9000 X113.933 Y98.66
G1 F1500 X118.614 Y103.34 E89.83557
G0 F9000 X119.18 Y103.34
G1 F1500 X114.499 Y98.66 E90.05573
G0 F9000 X115.065 Y98.66
G1 F1500 X119.744 Y103.34 E90.27584
G0 F9000 X120.31 Y103.34
G1 F1500 X115.631 Y98.66 E90.49595
G0 F9000 X116.196 Y98.66
G1 F1500 X120.876 Y103.34 E90.71608
G0 F9000 X121.441 Y103.339
G1 F1500 X116.762 Y98.66 E90.93616
G0 F9000 X117.328 Y98.66
G1 F1500 X122.007 Y103.339 E91.15625
G0 F9000 X122.572 Y103.339
G1 F1500 X117.893 Y98.66 E91.37634
G0 F9000 X118.459 Y98.66
G1 F1500 X123.137 Y103.338 E91.59638
G0 F9000 X123.703 Y103.338
G1 F1500 X119.025 Y98.66 E91.81641
G0 F9000 X119.59 Y98.66
G1 F1500 X124.269 Y103.338 E92.03648
G0 F9000 X124.834 Y103.337
G1 F1500 X120.156 Y98.66 E92.25649
G0 F9000 X120.722 Y98.66
G1 F1500 X125.399 Y103.337 E92.47648
G0 F9000 X125.965 Y103.337
G1 F1500 X121.287 Y98.66 E92.6965
G0 F9000 X121.853 Y98.66
G1 F1500 X126.339 Y103.146 E92.90751
G0 F9000 X126.339 Y102.58
G1 F1500 X122.419 Y98.66 E93.09189
G0 F9000 X122.984 Y98.66
G1 F1500 X126.339 Y102.015 E93.2497
G0 F9000 X126.339 Y101.449
G1 F1500 X123.55 Y98.66 E93.38089
G0 F9000 X124.116 Y98.66
G1 F1500 X126.339 Y100.883 E93.48545
G0 F9000 X126.339 Y100.317
G1 F1500 X124.682 Y98.66 E93.56339
G0 F9000 X125.247 Y98.66
G1 F1500 X126.339 Y99.752 E93.61475
G0 F9000 X126.339 Y99.186
G1 F1500 X125.813 Y98.66 E93.6395
G1 F2700 E88.6395
;MESH:NONMESH
G0 F300 X125.813 Y98.66 Z0.8
G0 F9000 X125.813 Y98.2
G0 X126.728 Y98.272
G0 X126.728 Y103.726
G0 X114.069 Y104.07
G0 X113.897 Y136.9
;TIME_ELAPSED:158.868980
;LAYER:3
M106 S255
;TYPE:WALL-INNER
;MESH:LETRA L.stl
G1 F2700 E93.6395
G1 F1500 X113.897 Y104.403 E94.72035
G1 X114.002 Y104.157 E94.72925
G1 X114.157 Y104.003 E94.73651
G1 X114.419 Y103.898 E94.7459
G1 X126.9 Y103.898 E95.16102
G1 X126.9 Y100.999 E95.25744
G1 X126.9 Y98.1 E95.35386
G1 X108.1 Y98.1 E95.97915
G1 X108.101 Y136.9 E97.26965
G1 X113.897 Y136.9 E97.46242
G0 F9000 X114.297 Y137.3
;TYPE:WALL-OUTER
G1 F1500 X114.301 Y104.457 E98.55479
G1 X114.355 Y104.356 E98.55859
G1 X114.462 Y104.3 E98.56261
G1 X127.3 Y104.298 E98.9896
G1 X127.3 Y100.999 E99.09933
G1 X127.3 Y97.7 E99.20906
G1 X107.7 Y97.7 E99.86095
G1 X107.701 Y137.3 E101.17806
G1 X114.297 Y137.3 E101.39744
G0 F9000 X114.027 Y137.03
G0 X113.797 Y136.54
G0 X113.537 Y136.54
;TYPE:SKIN
G1 F1500 X113.537 Y104.335 E102.46858
G1 X113.698 Y103.957 E102.48225
G1 X113.957 Y103.698 E102.49443
G1 X114.343 Y103.54 E102.5083
G1 X126.54 Y103.538 E102.91398
G1 X126.54 Y100.999 E102.99842
G1 X126.54 Y98.46 E103.08287
G1 X108.461 Y98.461 E103.68418
G1 X108.461 Y136.54 E104.95069
G1 X113.537 Y136.54 E105.11952
G0 F9000 X113.127 Y136.339
G1 F1500 X113.336 Y136.13 E105.12935
G0 F9000 X113.336 Y135.565
G1 F1500 X112.562 Y136.339 E105.16576
G0 F9000 X111.996 Y136.339
G1 F1500 X113.336 Y134.999 E105.22879
G0 F9000 X113.336 Y134.433
G1 F1500 X111.43 Y136.339 E105.31844
G0 F9000 X110.865 Y136.339
G1 F1500 X113.336 Y133.868 E105.43467
G0 F9000 X113.336 Y133.302
G1 F1500 X110.299 Y136.339 E105.57752
G0 F9000 X109.733 Y136.339
G1 F1500 X113.336 Y132.736 E105.74699
G0 F9000 X113.336 Y132.17
G1 F1500 X109.168 Y136.339 E105.94307
G0 F9000 X108.66 Y136.281
G1 F1500 X113.336 Y131.605 E106.16301
G0 F9000 X113.336 Y131.039
G1 F1500 X108.66 Y135.715 E106.38296
G0 F9000 X108.66 Y135.15
G1 F1500 X113.336 Y130.473 E106.60293
G0 F9000 X113.336 Y129.908
G1 F1500 X108.66 Y134.584 E106.82287
G0 F9000 X108.66 Y134.018
G1 F1500 X113.336 Y129.342 E107.04281
G0 F9000 X113.336 Y128.776
G1 F1500 X108.66 Y133.452 E107.26276
G0 F9000 X108.66 Y132.887
G1 F1500 X113.336 Y128.211 E107.4827
G0 F9000 X113.336 Y127.645
G1 F1500 X108.66 Y132.321 E107.70265
G0 F9000 X108.66 Y131.755
G1 F1500 X113.336 Y127.079 E107.92259
G0 F9000 X113.336 Y126.514
G1 F1500 X108.66 Y131.19 E108.14254
G0 F9000 X108.66 Y130.624
G1 F1500 X113.336 Y125.948 E108.36248
G0 F9000 X113.336 Y125.382
G1 F1500 X108.66 Y130.058 E108.58243
G0 F9000 X108.66 Y129.493
G1 F1500 X113.336 Y124.817 E108.80237
G0 F9000 X113.336 Y124.251
G1 F1500 X108.66 Y128.927 E109.02232
G0 F9000 X108.66 Y128.361
G1 F1500 X113.336 Y123.685 E109.24226
G0 F9000 X113.336 Y123.12
G1 F1500 X108.66 Y127.796 E109.46221
G0 F9000 X108.66 Y127.23
G1 F1500 X113.336 Y122.554 E109.68215
G0 F9000 X113.336 Y121.988
G1 F1500 X108.66 Y126.664 E109.9021
G0 F9000 X108.66 Y126.099
G1 F1500 X113.336 Y121.422 E110.12206
G0 F9000 X113.336 Y120.857
G1 F1500 X108.66 Y125.533 E110.34201
G0 F9000 X108.66 Y124.967
G1 F1500 X113.336 Y120.291 E110.56195
G0 F9000 X113.336 Y119.725
G1 F1500 X108.66 Y124.402 E110.78192
G0 F9000 X108.66 Y123.836
G1 F1500 X113.336 Y119.16 E111.00187
G0 F9000 X113.336 Y118.594
G1 F1500 X108.66 Y123.27 E111.22181
G0 F9000 X108.66 Y122.704
G1 F1500 X113.336 Y118.028 E111.44176
G0 F9000 X113.336 Y117.463
G1 F1500 X108.66 Y122.139 E111.6617
G0 F9000 X108.66 Y121.573
G1 F1500 X113.336 Y116.897 E111.88165
G0 F9000 X113.336 Y116.331
G1 F1500 X108.66 Y121.007 E112.10159
G0 F9000 X108.66 Y120.442
G1 F1500 X113.336 Y115.766 E112.32153
G0 F9000 X113.336 Y115.2
G1 F1500 X108.66 Y119.876 E112.54148
G0 F9000 X108.66 Y119.31
G1 F1500 X113.336 Y114.634 E112.76142
G0 F9000 X113.336 Y114.069
G1 F1500 X108.66 Y118.745 E112.98137
G0 F9000 X108.66 Y118.179
G1 F1500 X113.336 Y113.503 E113.20131
G0 F9000 X113.336 Y112.937
G1 F1500 X108.66 Y117.613 E113.42126
G0 F9000 X108.66 Y117.048
G1 F1500 X113.336 Y112.371 E113.64123
G0 F9000 X113.336 Y111.806
G1 F1500 X108.66 Y116.482 E113.86117
G0 F9000 X108.66 Y115.916
G1 F1500 X113.336 Y111.24 E114.08112
G0 F9000 X113.336 Y110.674
G1 F1500 X108.66 Y115.351 E114.30108
G0 F9000 X108.66 Y114.785
G1 F1500 X113.336 Y110.109 E114.52103
G0 F9000 X113.336 Y109.543
G1 F1500 X108.66 Y114.219 E114.74097
G0 F9000 X108.66 Y113.653
G1 F1500 X113.336 Y108.977 E114.96092
G0 F9000 X113.336 Y108.412
G1 F1500 X108.66 Y113.088 E115.18086
G0 F9000 X108.66 Y112.522
G1 F1500 X113.336 Y107.846 E115.40081
G0 F9000 X113.336 Y107.28
G1 F1500 X108.66 Y111.956 E115.62075
G0 F9000 X108.66 Y111.391
G1 F1500 X113.336 Y106.715 E115.8407
G0 F9000 X113.336 Y106.149
G1 F1500 X108.66 Y110.825 E116.06064
G0 F9000 X108.66 Y110.259
G1 F1500 X113.336 Y105.583 E116.28059
G0 F9000 X113.336 Y105.018
G1 F1500 X108.66 Y109.694 E116.50053
G0 F9000 X108.66 Y109.128
G1 F1500 X113.336 Y104.452 E116.72048
G0 F9000 X113.798 Y104.497
G0 X114.48 Y103.8
G0 X114.445 Y103.342
G1 F1500 X119.128 Y98.66 E116.94073
G0 F9000 X119.694 Y98.66
G1 F1500 X115.011 Y103.342 E117.16098
G0 F9000 X115.577 Y103.342
G1 F1500 X120.259 Y98.66 E117.3812
G0 F9000 X120.825 Y98.66
G1 F1500 X116.143 Y103.342 E117.60143
G0 F9000 X116.709 Y103.342
G1 F1500 X121.391 Y98.66 E117.82166
G0 F9000 X121.956 Y98.66
G1 F1500 X117.275 Y103.342 E118.04186
G0 F9000 X117.841 Y103.341
G1 F1500 X122.522 Y98.66 E118.26204
G0 F9000 X123.088 Y98.66
G1 F1500 X118.407 Y103.341 E118.48222
G0 F9000 X118.972 Y103.341
G1 F1500 X123.653 Y98.66 E118.7024
G0 F9000 X124.219 Y98.66
G1 F1500 X119.539 Y103.34 E118.92253
G0 F9000 X120.104 Y103.34
G1 F1500 X124.785 Y98.66 E119.14269
G0 F9000 X125.35 Y98.66
G1 F1500 X120.67 Y103.34 E119.36282
G0 F9000 X121.236 Y103.34
G1 F1500 X125.916 Y98.66 E119.58296
G0 F9000 X126.338 Y98.804
G1 F1500 X121.802 Y103.34 E119.79632
G0 F9000 X122.368 Y103.34
G1 F1500 X126.338 Y99.369 E119.98308
G0 F9000 X126.338 Y99.935
G1 F1500 X122.934 Y103.339 E120.14319
G0 F9000 X123.5 Y103.339
G1 F1500 X126.338 Y100.501 E120.27668
G0 F9000 X126.338 Y101.066
G1 F1500 X124.066 Y103.339 E120.38357
G0 F9000 X124.632 Y103.338
G1 F1500 X126.338 Y101.632 E120.46382
G0 F9000 X126.338 Y102.198
G1 F1500 X125.198 Y103.338 E120.51744
G0 F9000 X125.763 Y103.338
G1 F1500 X126.338 Y102.763 E120.54448
G0 F9000 X126.8 Y102.763
G0 X126.728 Y98.272
G0 X118.562 Y98.2
G0 X118.562 Y98.66
G1 F1500 X108.66 Y108.562 E121.01024
G0 F9000 X108.66 Y107.997
G1 F1500 X117.997 Y98.66 E121.44943
G0 F9000 X117.431 Y98.66
G1 F1500 X108.66 Y107.431 E121.86199
G0 F9000 X108.66 Y106.865
G1 F1500 X116.865 Y98.66 E122.24793
G0 F9000 X116.299 Y98.66
G1 F1500 X108.66 Y106.3 E122.60727
G0 F9000 X108.66 Y105.734
G1 F1500 X115.734 Y98.66 E122.94001
G0 F9000 X115.168 Y98.66
G1 F1500 X108.66 Y105.168 E123.24612
G0 F9000 X108.66 Y104.603
G1 F1500 X114.602 Y98.66 E123.52564
G0 F9000 X114.037 Y98.66
G1 F1500 X108.66 Y104.037 E123.77856
G0 F9000 X108.66 Y103.471
G1 F1500 X113.471 Y98.66 E124.00485
G0 F9000 X112.905 Y98.66
G1 F1500 X108.66 Y102.905 E124.20452
G0 F9000 X108.66 Y102.34
G1 F1500 X112.34 Y98.66 E124.37762
G0 F9000 X111.774 Y98.66
G1 F1500 X108.66 Y101.774 E124.52409
G0 F9000 X108.66 Y101.208
G1 F1500 X111.208 Y98.66 E124.64394
G0 F9000 X110.643 Y98.66
G1 F1500 X108.66 Y100.643 E124.73722
G0 F9000 X108.66 Y100.077
G1 F1500 X110.077 Y98.66 E124.80387
G0 F9000 X109.511 Y98.66
G1 F1500 X108.66 Y99.511 E124.8439
G0 F9000 X108.66 Y98.946
G1 F1500 X108.946 Y98.66 E124.85735
G1 F2700 E119.85735
;MESH:NONMESH
G0 F300 X108.946 Y98.66 Z1
G0 F9000 X108.946 Y98.2
G0 X108.272 Y98.272
G0 X108.273 Y136.728
G0 X113.897 Y136.9
;TIME_ELAPSED:206.442692
;LAYER:4
;TYPE:WALL-INNER
;MESH:LETRA L.stl
G1 F2700 E124.85735
G1 F1500 X113.897 Y104.403 E125.9382
G1 X114.002 Y104.157 E125.9471
G1 X114.157 Y104.003 E125.95437
G1 X114.419 Y103.898 E125.96375
G1 X126.9 Y103.898 E126.37887
G1 X126.9 Y100.999 E126.47529
G1 X126.9 Y98.1 E126.57172
G1 X108.1 Y98.1 E127.19701
G1 X108.101 Y136.9 E128.4875
G1 X113.897 Y136.9 E128.68028
G0 F9000 X114.297 Y137.3
;TYPE:WALL-OUTER
G1 F1500 X114.301 Y104.457 E129.77264
G1 X114.355 Y104.356 E129.77645
G1 X114.462 Y104.3 E129.78046
G1 X127.3 Y104.298 E130.20746
G1 X127.3 Y100.999 E130.31718
G1 X127.3 Y97.7 E130.42691
G1 X107.7 Y97.7 E131.07881
G1 X107.701 Y137.3 E132.39591
G1 X114.297 Y137.3 E132.61529
G0 F9000 X114.027 Y137.03
G0 X112.362 Y136.6
G0 X112.362 Y136.818
;TYPE:FILL
G1 F3000 X108.18 Y132.636 E132.812
G0 F9000 X108.181 Y133.151
G1 F3000 X113.815 Y131.641 E133.006
G0 F9000 X113.597 Y131.641
G0 X113.597 Y129.788
G0 X113.817 Y129.788
G1 F3000 X108.18 Y124.15 E133.27117
G0 F9000 X108.4 Y124.15
G0 X108.4 Y126.364
G0 X108.18 Y126.364
G1 F3000 X113.817 Y105.329 E133.99549
G0 F9000 X113.834 Y104.349
G1 F3000 X108.179 Y98.694 E134.26148
G0 F9000 X108.4 Y98.694
G0 X109.521 Y98.4
G0 X109.521 Y98.178
G1 F3000 X108.179 Y103.185 E134.43389
G0 F9000 X108.4 Y103.185
G0 X108.4 Y102.093
G0 X108.179 Y102.093
G1 F3000 X122.786 Y98.179 E134.93686
G0 F9000 X121.944 Y98.178
G1 F3000 X120.433 Y103.818 E135.13106
G0 F9000 X120.433 Y103.598
G0 X121.788 Y103.598
G0 X121.788 Y103.818
G1 F3000 X116.15 Y98.18 E135.39626
G0 F9000 X115.732 Y98.179
G1 F3000 X114.199 Y103.901 E135.59328
G0 F9000 X114.199 Y103.598
G0 X113.669 Y103.67
G0 X113.597 Y106.795
G0 X113.815 Y106.795
G1 F3000 X108.18 Y108.305 E135.78732
G0 F9000 X108.4 Y108.305
G0 X108.4 Y107.179
G0 X108.179 Y107.179
G1 F3000 X113.817 Y112.817 E136.05251
G1 X113.815 Y113.006
G1 X108.18 Y114.516 E136.24654
G0 F9000 X108.4 Y114.516
G0 X108.4 Y115.664
G0 X108.179 Y115.664
G1 F3000 X113.817 Y121.302 E136.51174
G0 F9000 X113.597 Y121.302
G0 X113.597 Y119.218
G0 X113.816 Y119.218
G1 F3000 X108.18 Y120.728 E136.7058
G0 F9000 X108.4 Y120.728
G0 X108.4 Y126.94
G0 X108.18 Y126.94
G1 F3000 X113.815 Y125.43 E136.89984
G0 F9000 X113.597 Y125.43
G0 X113.597 Y128.511
G0 X113.816 Y128.511
G1 F3000 X111.59 Y136.819 E137.18591
G1 F2700 E132.18591
G0 F9000 X111.59 Y136.6
G0 X113.669 Y103.67
G0 X124.928 Y103.598
G1 F2700 E137.18591
G0 F9000 X124.928 Y103.817
G1 F3000 X126.819 Y103.311 E137.25102
G1 X126.819 Y103.168
G1 X126.645 Y103.818 E137.2734
G0 F9000 X126.645 Y103.598
G0 X126.6 Y100.363
G0 X126.819 Y100.363
G1 F3000 X124.636 Y98.18 E137.37608
G0 F9000 X124.636 Y98.7
G1 F2700 E132.37608
;MESH:NONMESH
G0 F300 X124.636 Y98.7 Z1.2
G0 F9000 X113.669 Y103.67
G0 X113.627 Y136.63
G1 F2700 E137.37608
G0 F9000 X113.897 Y136.9
;TIME_ELAPSED:225.340124
;LAYER:5
;TYPE:WALL-INNER
;MESH:LETRA L.stl
G1 F1500 X113.897 Y104.403 E138.45693
G1 X114.002 Y104.157 E138.46583
G1 X114.157 Y104.003 E138.4731
G1 X114.419 Y103.898 E138.48248
G1 X126.9 Y103.898 E138.8976
G1 X126.9 Y100.999 E138.99403
G1 X126.9 Y98.1 E139.09045
G1 X108.1 Y98.1 E139.71574
G1 X108.101 Y136.9 E141.00623
G1 X113.897 Y136.9 E141.19901
G0 F9000 X114.297 Y137.3
;TYPE:WALL-OUTER
G1 F1500 X114.301 Y104.457 E142.29137
G1 X114.355 Y104.356 E142.29518
G1 X114.462 Y104.3 E142.29919
G1 X127.3 Y104.298 E142.72619
G1 X127.3 Y100.999 E142.83591
G1 X127.3 Y97.7 E142.94564
G1 X107.7 Y97.7 E143.59754
G1 X107.701 Y137.3 E144.91464
G1 X114.297 Y137.3 E145.13402
G0 F9000 X114.027 Y137.03
G0 X112.562 Y136.6
G0 X112.562 Y136.818
;TYPE:FILL
G1 F3000 X108.18 Y132.436 E145.34014
G0 F9000 X108.181 Y133.297
G1 F3000 X113.816 Y131.787 E145.53417
G0 F9000 X113.597 Y131.787
G0 X113.597 Y129.588
G0 X113.817 Y129.588
G1 F3000 X108.18 Y123.951 E145.79932
G0 F9000 X108.4 Y123.951
G0 X108.4 Y125.82
G0 X108.18 Y125.82
G1 F3000 X113.817 Y104.784 E146.52366
G0 F9000 X113.894 Y104.209
G1 F3000 X108.179 Y98.495 E146.79246
G0 F9000 X108.4 Y98.495
G0 X109.375 Y98.4
G0 X109.375 Y98.178
G1 F3000 X108.179 Y102.64 E146.9461
G0 F9000 X108.18 Y102.239
G1 F3000 X123.331 Y98.179 E147.46781
G0 F9000 X123.331 Y98.4
G0 X124.835 Y98.4
G0 X124.835 Y98.18
G1 F3000 X126.819 Y100.164 E147.56113
G0 F9000 X126.6 Y100.164
G0 X126.6 Y102.624
G0 X126.819 Y102.624
G1 F3000 X126.499 Y103.817 E147.60221
G0 F9000 X126.818 Y103.457
G1 F3000 X125.474 Y103.817 E147.64849
G0 F9000 X125.474 Y103.598
G0 X121.987 Y103.598
G0 X121.987 Y103.818
G1 F3000 X116.35 Y98.18 E147.91366
G0 F9000 X115.587 Y98.178
G1 F3000 X114.019 Y104.027 E148.11506
G0 F9000 X113.597 Y104.027
G0 X113.597 Y106.941
G0 X113.815 Y106.941
G1 F3000 X108.18 Y108.451 E148.3091
G0 F9000 X108.4 Y108.451
G0 X108.4 Y106.98
G0 X108.179 Y106.98
G1 F3000 X113.817 Y112.618 E148.57429
G0 F9000 X113.816 Y113.152
G1 F3000 X108.181 Y114.662 E148.76833
G0 F9000 X108.179 Y115.465
G1 F3000 X113.817 Y121.103 E149.03352
G0 F9000 X113.597 Y121.103
G0 X113.597 Y119.364
G0 X113.815 Y119.364
G1 F3000 X108.18 Y120.874 E149.22755
G0 F9000 X108.4 Y120.874
G0 X108.4 Y127.085
G0 X108.181 Y127.085
G1 F3000 X113.815 Y125.576 E149.42155
G0 F9000 X113.597 Y125.576
G0 X113.597 Y127.967
G0 X113.816 Y127.967
G1 F3000 X111.445 Y136.819 E149.72634
G1 F2700 E144.72634
G0 F9000 X111.445 Y136.6
G0 X113.669 Y103.67
G0 X120.287 Y103.598
G1 F2700 E149.72634
G0 F9000 X120.287 Y103.818
G1 F3000 X121.798 Y98.179 E149.92051
G0 F9000 X121.798 Y98.7
G1 F2700 E144.92051
;MESH:NONMESH
G0 F300 X121.798 Y98.7 Z1.4
G0 F9000 X113.669 Y103.67
G0 X113.627 Y136.63
G1 F2700 E149.92051
G0 F9000 X113.897 Y136.9
;TIME_ELAPSED:243.943695
;LAYER:6
;TYPE:WALL-INNER
;MESH:LETRA L.stl
G1 F1500 X113.897 Y104.403 E151.00137
G1 X114.002 Y104.157 E151.01026
G1 X114.157 Y104.003 E151.01753
G1 X114.419 Y103.898 E151.02692
G1 X126.9 Y103.898 E151.44204
G1 X126.9 Y98.1 E151.63488
G1 X108.1 Y98.1 E152.26017
G1 X108.1 Y102.323 E152.40063
G1 X108.101 Y136.9 E153.55066
G1 X113.897 Y136.9 E153.74344
G0 F9000 X114.297 Y137.3
;TYPE:WALL-OUTER
G1 F1500 X114.301 Y104.457 E154.8358
G1 X114.355 Y104.356 E154.83961
G1 X114.462 Y104.3 E154.84363
G1 X127.3 Y104.298 E155.27062
G1 X127.3 Y97.7 E155.49007
G1 X107.7 Y97.7 E156.14197
G1 X107.7 Y102.323 E156.29573
G1 X107.701 Y137.3 E157.45907
G1 X114.297 Y137.3 E157.67846
G0 F9000 X114.027 Y137.03
G0 X113.797 Y136.54
G0 X113.537 Y136.54
;TYPE:SKIN
G1 F1500 X113.537 Y104.335 E158.7496
G1 X113.698 Y103.957 E158.76326
G1 X113.957 Y103.698 E158.77545
G1 X114.343 Y103.54 E158.78932
G1 X126.54 Y103.538 E159.19499
G1 X126.54 Y100.999 E159.27944
G1 X126.54 Y98.46 E159.36389
G1 X108.461 Y98.461 E159.9652
G1 X108.461 Y136.54 E161.23171
G1 X113.537 Y136.54 E161.40054
G0 F9000 X113.797 Y136.54
G0 X109.186 Y136.8
G0 X109.186 Y136.339
G1 F1500 X108.66 Y135.813 E161.42528
G0 F9000 X108.66 Y135.247
G1 F1500 X109.752 Y136.339 E161.47665
G0 F9000 X110.317 Y136.339
G1 F1500 X108.66 Y134.681 E161.55461
G0 F9000 X108.66 Y134.116
G1 F1500 X110.883 Y136.339 E161.65917
G0 F9000 X111.449 Y136.339
G1 F1500 X108.66 Y133.55 E161.79036
G0 F9000 X108.66 Y132.984
G1 F1500 X112.014 Y136.339 E161.94814
G0 F9000 X112.58 Y136.339
G1 F1500 X108.66 Y132.419 E162.13253
G0 F9000 X108.66 Y131.853
G1 F1500 X113.146 Y136.339 E162.34354
G0 F9000 X113.337 Y135.964
G1 F1500 X108.66 Y131.287 E162.56353
G0 F9000 X108.66 Y130.722
G1 F1500 X113.337 Y135.398 E162.7835
G0 F9000 X113.337 Y134.833
G1 F1500 X108.66 Y130.156 E163.00349
G0 F9000 X108.66 Y129.59
G1 F1500 X113.337 Y134.267 E163.22348
G0 F9000 X113.337 Y133.701
G1 F1500 X108.66 Y129.025 E163.44345
G0 F9000 X108.66 Y128.459
G1 F1500 X113.337 Y133.136 E163.66344
G0 F9000 X113.337 Y132.57
G1 F1500 X108.66 Y127.893 E163.88343
G0 F9000 X108.66 Y127.328
G1 F1500 X113.337 Y132.004 E164.1034
G0 F9000 X113.337 Y131.439
G1 F1500 X108.66 Y126.762 E164.32339
G0 F9000 X108.66 Y126.196
G1 F1500 X113.337 Y130.873 E164.54338
G0 F9000 X113.337 Y130.307
G1 F1500 X108.66 Y125.63 E164.76337
G0 F9000 X108.66 Y125.065
G1 F1500 X113.337 Y129.742 E164.98337
G0 F9000 X113.337 Y129.176
G1 F1500 X108.66 Y124.499 E165.20336
G0 F9000 X108.66 Y123.933
G1 F1500 X113.337 Y128.61 E165.42335
G0 F9000 X113.337 Y128.045
G1 F1500 X108.66 Y123.368 E165.64334
G0 F9000 X108.66 Y122.802
G1 F1500 X113.337 Y127.479 E165.86333
G0 F9000 X113.337 Y126.913
G1 F1500 X108.66 Y122.236 E166.08332
G0 F9000 X108.66 Y121.671
G1 F1500 X113.337 Y126.347 E166.30329
G0 F9000 X113.337 Y125.782
G1 F1500 X108.66 Y121.105 E166.52328
G0 F9000 X108.66 Y120.539
G1 F1500 X113.337 Y125.216 E166.74328
G0 F9000 X113.337 Y124.65
G1 F1500 X108.66 Y119.974 E166.96324
G0 F9000 X108.66 Y119.408
G1 F1500 X113.337 Y124.085 E167.18324
G0 F9000 X113.337 Y123.519
G1 F1500 X108.66 Y118.842 E167.40323
G0 F9000 X108.66 Y118.277
G1 F1500 X113.337 Y122.953 E167.6232
G0 F9000 X113.337 Y122.388
G1 F1500 X108.66 Y117.711 E167.84319
G0 F9000 X108.66 Y117.145
G1 F1500 X113.337 Y121.822 E168.06318
G0 F9000 X113.337 Y121.256
G1 F1500 X108.66 Y116.579 E168.28317
G0 F9000 X108.66 Y116.014
G1 F1500 X113.337 Y120.691 E168.50316
G0 F9000 X113.337 Y120.125
G1 F1500 X108.66 Y115.448 E168.72316
G0 F9000 X108.66 Y114.882
G1 F1500 X113.337 Y119.559 E168.94315
G0 F9000 X113.337 Y118.994
G1 F1500 X108.66 Y114.317 E169.16314
G0 F9000 X108.66 Y113.751
G1 F1500 X113.337 Y118.428 E169.38313
G0 F9000 X113.337 Y117.862
G1 F1500 X108.66 Y113.185 E169.60312
G0 F9000 X108.66 Y112.62
G1 F1500 X113.337 Y117.296 E169.82309
G0 F9000 X113.337 Y116.731
G1 F1500 X108.66 Y112.054 E170.04308
G0 F9000 X108.66 Y111.488
G1 F1500 X113.337 Y116.165 E170.26307
G0 F9000 X113.337 Y115.599
G1 F1500 X108.66 Y110.923 E170.48304
G0 F9000 X108.66 Y110.357
G1 F1500 X113.337 Y115.034 E170.70303
G0 F9000 X113.337 Y114.468
G1 F1500 X108.66 Y109.791 E170.92303
G0 F9000 X108.66 Y109.226
G1 F1500 X113.337 Y113.902 E171.14299
G0 F9000 X113.337 Y113.337
G1 F1500 X108.66 Y108.66 E171.36299
G0 F9000 X108.66 Y108.094
G1 F1500 X113.337 Y112.771 E171.58298
G0 F9000 X113.337 Y112.205
G1 F1500 X108.66 Y107.529 E171.80295
G0 F9000 X108.66 Y106.963
G1 F1500 X113.337 Y111.64 E172.02294
G0 F9000 X113.337 Y111.074
G1 F1500 X108.66 Y106.397 E172.24293
G0 F9000 X108.66 Y105.831
G1 F1500 X113.337 Y110.508 E172.46292
G0 F9000 X113.337 Y109.943
G1 F1500 X108.66 Y105.266 E172.68291
G0 F9000 X108.66 Y104.7
G1 F1500 X113.337 Y109.377 E172.9029
G0 F9000 X113.337 Y108.811
G1 F1500 X108.66 Y104.134 E173.1229
G0 F9000 X108.66 Y103.569
G1 F1500 X113.337 Y108.246 E173.34289
G0 F9000 X113.337 Y107.68
G1 F1500 X108.66 Y103.003 E173.56288
G0 F9000 X108.66 Y102.437
G1 F1500 X113.337 Y107.114 E173.78287
G0 F9000 X113.337 Y106.548
G1 F1500 X108.66 Y101.872 E174.00284
G0 F9000 X108.66 Y101.306
G1 F1500 X113.337 Y105.983 E174.22283
G0 F9000 X113.337 Y105.417
G1 F1500 X108.66 Y100.74 E174.44282
G0 F9000 X108.66 Y100.175
G1 F1500 X113.337 Y104.851 E174.66279
G0 F9000 X113.34 Y104.289
G1 F1500 X108.66 Y99.609 E174.88292
G0 F9000 X108.66 Y99.043
G1 F1500 X113.507 Y103.89 E175.11091
G0 F9000 X113.777 Y103.594
G1 F1500 X108.842 Y98.66 E175.34302
G0 F9000 X109.408 Y98.66
G1 F1500 X114.147 Y103.399 E175.56592
G0 F9000 X114.655 Y103.342
G1 F1500 X109.974 Y98.66 E175.78613
G0 F9000 X110.539 Y98.66
G1 F1500 X115.221 Y103.342 E176.00635
G0 F9000 X115.787 Y103.342
G1 F1500 X111.105 Y98.66 E176.22658
G0 F9000 X111.671 Y98.66
G1 F1500 X116.352 Y103.341 E176.44676
G0 F9000 X116.917 Y103.341
G1 F1500 X112.236 Y98.66 E176.66694
G0 F9000 X112.802 Y98.66
G1 F1500 X117.483 Y103.341 E176.88712
G0 F9000 X118.048 Y103.34
G1 F1500 X113.368 Y98.66 E177.10725
G0 F9000 X113.933 Y98.66
G1 F1500 X118.614 Y103.34 E177.32741
G0 F9000 X119.18 Y103.34
G1 F1500 X114.499 Y98.66 E177.54757
G0 F9000 X115.065 Y98.66
G1 F1500 X119.744 Y103.34 E177.76768
G0 F9000 X120.31 Y103.34
G1 F1500 X115.631 Y98.66 E177.98778
G0 F9000 X116.196 Y98.66
G1 F1500 X120.876 Y103.34 E178.20792
G0 F9000 X121.441 Y103.339
G1 F1500 X116.762 Y98.66 E178.428
G0 F9000 X117.328 Y98.66
G1 F1500 X122.007 Y103.339 E178.64809
G0 F9000 X122.572 Y103.339
G1 F1500 X117.893 Y98.66 E178.86818
G0 F9000 X118.459 Y98.66
G1 F1500 X123.137 Y103.338 E179.08821
G0 F9000 X123.703 Y103.338
G1 F1500 X119.025 Y98.66 E179.30825
G0 F9000 X119.59 Y98.66
G1 F1500 X124.269 Y103.338 E179.52832
G0 F9000 X124.834 Y103.337
G1 F1500 X120.156 Y98.66 E179.74833
G0 F9000 X120.722 Y98.66
G1 F1500 X125.399 Y103.337 E179.96832
G0 F9000 X125.965 Y103.337
G1 F1500 X121.287 Y98.66 E180.18834
G0 F9000 X121.853 Y98.66
G1 F1500 X126.339 Y103.146 E180.39935
G0 F9000 X126.339 Y102.58
G1 F1500 X122.419 Y98.66 E180.58373
G0 F9000 X122.984 Y98.66
G1 F1500 X126.339 Y102.015 E180.74154
G0 F9000 X126.339 Y101.449
G1 F1500 X123.55 Y98.66 E180.87272
G0 F9000 X124.116 Y98.66
G1 F1500 X126.339 Y100.883 E180.97729
G0 F9000 X126.339 Y100.317
G1 F1500 X124.682 Y98.66 E181.05523
G0 F9000 X125.247 Y98.66
G1 F1500 X126.339 Y99.752 E181.10659
G0 F9000 X126.339 Y99.186
G1 F1500 X125.813 Y98.66 E181.13133
G1 F2700 E176.13133
;MESH:NONMESH
G0 F300 X125.813 Y98.66 Z1.6
G0 F9000 X125.813 Y98.2
G0 X126.728 Y98.272
G0 X126.728 Y103.726
G0 X114.069 Y104.07
G0 X113.897 Y136.9
;TIME_ELAPSED:291.325970
;LAYER:7
;TYPE:WALL-INNER
;MESH:LETRA L.stl
G1 F2700 E181.13133
G1 F1500 X113.897 Y104.403 E182.21219
G1 X114.002 Y104.157 E182.22108
G1 X114.157 Y104.003 E182.22835
G1 X114.419 Y103.898 E182.23774
G1 X126.9 Y103.898 E182.65286
G1 X126.9 Y100.999 E182.74928
G1 X126.9 Y98.1 E182.8457
G1 X108.1 Y98.1 E183.47099
G1 X108.101 Y136.9 E184.76149
G1 X113.897 Y136.9 E184.95426
G0 F9000 X114.297 Y137.3
;TYPE:WALL-OUTER
G1 F1500 X114.301 Y104.457 E186.04662
G1 X114.355 Y104.356 E186.05043
G1 X114.462 Y104.3 E186.05445
G1 X127.3 Y104.298 E186.48144
G1 X127.3 Y100.999 E186.59117
G1 X127.3 Y97.7 E186.70089
G1 X107.7 Y97.7 E187.35279
G1 X107.701 Y137.3 E188.66989
G1 X114.297 Y137.3 E188.88928
G0 F9000 X114.027 Y137.03
G0 X113.797 Y136.54
G0 X113.537 Y136.54
;TYPE:SKIN
G1 F1500 X113.537 Y104.335 E189.96042
G1 X113.698 Y103.957 E189.97409
G1 X113.957 Y103.698 E189.98627
G1 X114.343 Y103.54 E190.00014
G1 X126.54 Y103.538 E190.40581
G1 X126.54 Y100.999 E190.49026
G1 X126.54 Y98.46 E190.57471
G1 X108.461 Y98.461 E191.17602
G1 X108.461 Y136.54 E192.44253
G1 X113.537 Y136.54 E192.61136
G0 F9000 X113.127 Y136.339
G1 F1500 X113.336 Y136.13 E192.62119
G0 F9000 X113.336 Y135.565
G1 F1500 X112.562 Y136.339 E192.6576
G0 F9000 X111.996 Y136.339
G1 F1500 X113.336 Y134.999 E192.72063
G0 F9000 X113.336 Y134.433
G1 F1500 X111.43 Y136.339 E192.81028
G0 F9000 X110.865 Y136.339
G1 F1500 X113.336 Y133.868 E192.92651
G0 F9000 X113.336 Y133.302
G1 F1500 X110.299 Y136.339 E193.06936
G0 F9000 X109.733 Y136.339
G1 F1500 X113.336 Y132.736 E193.23883
G0 F9000 X113.336 Y132.17
G1 F1500 X109.168 Y136.339 E193.43491
G0 F9000 X108.66 Y136.281
G1 F1500 X113.336 Y131.605 E193.65485
G0 F9000 X113.336 Y131.039
G1 F1500 X108.66 Y135.715 E193.8748
G0 F9000 X108.66 Y135.15
G1 F1500 X113.336 Y130.473 E194.09476
G0 F9000 X113.336 Y129.908
G1 F1500 X108.66 Y134.584 E194.31471
G0 F9000 X108.66 Y134.018
G1 F1500 X113.336 Y129.342 E194.53465
G0 F9000 X113.336 Y128.776
G1 F1500 X108.66 Y133.452 E194.7546
G0 F9000 X108.66 Y132.887
G1 F1500 X113.336 Y128.211 E194.97454
G0 F9000 X113.336 Y127.645
G1 F1500 X108.66 Y132.321 E195.19449
G0 F9000 X108.66 Y131.755
G1 F1500 X113.336 Y127.079 E195.41443
G0 F9000 X113.336 Y126.514
G1 F1500 X108.66 Y131.19 E195.63438
G0 F9000 X108.66 Y130.624
G1 F1500 X113.336 Y125.948 E195.85432
G0 F9000 X113.336 Y125.382
G1 F1500 X108.66 Y130.058 E196.07427
G0 F9000 X108.66 Y129.493
G1 F1500 X113.336 Y124.817 E196.29421
G0 F9000 X113.336 Y124.251
G1 F1500 X108.66 Y128.927 E196.51416
G0 F9000 X108.66 Y128.361
G1 F1500 X113.336 Y123.685 E196.7341
G0 F9000 X113.336 Y123.12
G1 F1500 X108.66 Y127.796 E196.95405
G0 F9000 X108.66 Y127.23
G1 F1500 X113.336 Y122.554 E197.17399
G0 F9000 X113.336 Y121.988
G1 F1500 X108.66 Y126.664 E197.39393
G0 F9000 X108.66 Y126.099
G1 F1500 X113.336 Y121.422 E197.6139
G0 F9000 X113.336 Y120.857
G1 F1500 X108.66 Y125.533 E197.83385
G0 F9000 X108.66 Y124.967
G1 F1500 X113.336 Y120.291 E198.05379
G0 F9000 X113.336 Y119.725
G1 F1500 X108.66 Y124.402 E198.27376
G0 F9000 X108.66 Y123.836
G1 F1500 X113.336 Y119.16 E198.49371
G0 F9000 X113.336 Y118.594
G1 F1500 X108.66 Y123.27 E198.71365
G0 F9000 X108.66 Y122.704
G1 F1500 X113.336 Y118.028 E198.93359
G0 F9000 X113.336 Y117.463
G1 F1500 X108.66 Y122.139 E199.15354
G0 F9000 X108.66 Y121.573
G1 F1500 X113.336 Y116.897 E199.37348
G0 F9000 X113.336 Y116.331
G1 F1500 X108.66 Y121.007 E199.59343
G0 F9000 X108.66 Y120.442
G1 F1500 X113.336 Y115.766 E199.81337
G0 F9000 X113.336 Y115.2
G1 F1500 X108.66 Y119.876 E200.03332
G0 F9000 X108.66 Y119.31
G1 F1500 X113.336 Y114.634 E200.25326
G0 F9000 X113.336 Y114.069
G1 F1500 X108.66 Y118.745 E200.47321
G0 F9000 X108.66 Y118.179
G1 F1500 X113.336 Y113.503 E200.69315
G0 F9000 X113.336 Y112.937
G1 F1500 X108.66 Y117.613 E200.9131
G0 F9000 X108.66 Y117.048
G1 F1500 X113.336 Y112.371 E201.13307
G0 F9000 X113.336 Y111.806
G1 F1500 X108.66 Y116.482 E201.35301
G0 F9000 X108.66 Y115.916
G1 F1500 X113.336 Y111.24 E201.57295
G0 F9000 X113.336 Y110.674
G1 F1500 X108.66 Y115.351 E201.79292
G0 F9000 X108.66 Y114.785
G1 F1500 X113.336 Y110.109 E202.01287
G0 F9000 X113.336 Y109.543
G1 F1500 X108.66 Y114.219 E202.23281
G0 F9000 X108.66 Y113.653
G1 F1500 X113.336 Y108.977 E202.45276
G0 F9000 X113.336 Y108.412
G1 F1500 X108.66 Y113.088 E202.6727
G0 F9000 X108.66 Y112.522
G1 F1500 X113.336 Y107.846 E202.89265
G0 F9000 X113.336 Y107.28
G1 F1500 X108.66 Y111.956 E203.11259
G0 F9000 X108.66 Y111.391
G1 F1500 X113.336 Y106.715 E203.33254
G0 F9000 X113.336 Y106.149
G1 F1500 X108.66 Y110.825 E203.55248
G0 F9000 X108.66 Y110.259
G1 F1500 X113.336 Y105.583 E203.77243
G0 F9000 X113.336 Y105.018
G1 F1500 X108.66 Y109.694 E203.99237
G0 F9000 X108.66 Y109.128
G1 F1500 X113.336 Y104.452 E204.21231
G0 F9000 X113.798 Y104.497
G0 X114.48 Y103.8
G0 X114.445 Y103.342
G1 F1500 X119.128 Y98.66 E204.43257
G0 F9000 X119.694 Y98.66
G1 F1500 X115.011 Y103.342 E204.65282
G0 F9000 X115.577 Y103.342
G1 F1500 X120.259 Y98.66 E204.87304
G0 F9000 X120.825 Y98.66
G1 F1500 X116.143 Y103.342 E205.09327
G0 F9000 X116.709 Y103.342
G1 F1500 X121.391 Y98.66 E205.3135
G0 F9000 X121.956 Y98.66
G1 F1500 X117.275 Y103.342 E205.5337
G0 F9000 X117.841 Y103.341
G1 F1500 X122.522 Y98.66 E205.75388
G0 F9000 X123.088 Y98.66
G1 F1500 X118.407 Y103.341 E205.97406
G0 F9000 X118.972 Y103.341
G1 F1500 X123.653 Y98.66 E206.19424
G0 F9000 X124.219 Y98.66
G1 F1500 X119.539 Y103.34 E206.41437
G0 F9000 X120.104 Y103.34
G1 F1500 X124.785 Y98.66 E206.63453
G0 F9000 X125.35 Y98.66
G1 F1500 X120.67 Y103.34 E206.85466
G0 F9000 X121.236 Y103.34
G1 F1500 X125.916 Y98.66 E207.07479
G0 F9000 X126.338 Y98.804
G1 F1500 X121.802 Y103.34 E207.28815
G0 F9000 X122.368 Y103.34
G1 F1500 X126.338 Y99.369 E207.47491
G0 F9000 X126.338 Y99.935
G1 F1500 X122.934 Y103.339 E207.63503
G0 F9000 X123.5 Y103.339
G1 F1500 X126.338 Y100.501 E207.76852
G0 F9000 X126.338 Y101.066
G1 F1500 X124.066 Y103.339 E207.87541
G0 F9000 X124.632 Y103.338
G1 F1500 X126.338 Y101.632 E207.95565
G0 F9000 X126.338 Y102.198
G1 F1500 X125.198 Y103.338 E208.00928
G0 F9000 X125.763 Y103.338
G1 F1500 X126.338 Y102.763 E208.03632
G0 F9000 X126.8 Y102.763
G0 X126.728 Y98.272
G0 X118.562 Y98.2
G0 X118.562 Y98.66
G1 F1500 X108.66 Y108.562 E208.50208
G0 F9000 X108.66 Y107.997
G1 F1500 X117.997 Y98.66 E208.94127
G0 F9000 X117.431 Y98.66
G1 F1500 X108.66 Y107.431 E209.35383
G0 F9000 X108.66 Y106.865
G1 F1500 X116.865 Y98.66 E209.73977
G0 F9000 X116.299 Y98.66
G1 F1500 X108.66 Y106.3 E210.0991
G0 F9000 X108.66 Y105.734
G1 F1500 X115.734 Y98.66 E210.43184
G0 F9000 X115.168 Y98.66
G1 F1500 X108.66 Y105.168 E210.73796
G0 F9000 X108.66 Y104.603
G1 F1500 X114.602 Y98.66 E211.01748
G0 F9000 X114.037 Y98.66
G1 F1500 X108.66 Y104.037 E211.27039
G0 F9000 X108.66 Y103.471
G1 F1500 X113.471 Y98.66 E211.49669
G0 F9000 X112.905 Y98.66
G1 F1500 X108.66 Y102.905 E211.69636
G0 F9000 X108.66 Y102.34
G1 F1500 X112.34 Y98.66 E211.86946
G0 F9000 X111.774 Y98.66
G1 F1500 X108.66 Y101.774 E212.01593
G0 F9000 X108.66 Y101.208
G1 F1500 X111.208 Y98.66 E212.13578
G0 F9000 X110.643 Y98.66
G1 F1500 X108.66 Y100.643 E212.22905
G0 F9000 X108.66 Y100.077
G1 F1500 X110.077 Y98.66 E212.29571
G0 F9000 X109.511 Y98.66
G1 F1500 X108.66 Y99.511 E212.33573
G0 F9000 X108.66 Y98.946
G1 F1500 X108.946 Y98.66 E212.34919
G1 F2700 E207.34919
;MESH:NONMESH
G0 F300 X108.946 Y98.66 Z1.8
G0 F9000 X108.946 Y98.2
G0 X108.272 Y98.272
G0 X108.273 Y136.728
G0 X113.897 Y136.9
;TIME_ELAPSED:338.899681
;LAYER:8
;TYPE:WALL-INNER
;MESH:LETRA L.stl
G1 F2700 E212.34919
G1 F1500 X113.897 Y104.403 E213.43004
G1 X114.002 Y104.157 E213.43894
G1 X114.157 Y104.003 E213.4462
G1 X114.419 Y103.898 E213.45559
G1 X126.9 Y103.898 E213.87071
G1 X126.9 Y100.999 E213.96713
G1 X126.9 Y98.1 E214.06355
G1 X108.1 Y98.1 E214.68885
G1 X108.101 Y136.9 E215.97934
G1 X113.897 Y136.9 E216.17211
G0 F9000 X114.297 Y137.3
;TYPE:WALL-OUTER
G1 F1500 X114.301 Y104.457 E217.26448
G1 X114.355 Y104.356 E217.26829
G1 X114.462 Y104.3 E217.2723
G1 X127.3 Y104.298 E217.6993
G1 X127.3 Y100.999 E217.80902
G1 X127.3 Y97.7 E217.91875
G1 X107.7 Y97.7 E218.57065
G1 X107.701 Y137.3 E219.88775
G1 X114.297 Y137.3 E220.10713
G0 F9000 X114.027 Y137.03
G0 X113.797 Y136.54
G0 X113.537 Y136.54
;TYPE:SKIN
G1 F1500 X113.537 Y104.335 E221.17827
G1 X113.698 Y103.957 E221.19194
G1 X113.957 Y103.698 E221.20412
G1 X114.343 Y103.54 E221.21799
G1 X126.54 Y103.538 E221.62367
G1 X126.54 Y98.46 E221.79256
G1 X114.378 Y98.46 E222.19707
G1 X108.461 Y98.461 E222.39387
G1 X108.461 Y136.54 E223.66039
G1 X113.537 Y136.54 E223.82921
G0 F9000 X113.797 Y136.54
G0 X109.186 Y136.8
G0 X109.186 Y136.339
G1 F1500 X108.66 Y135.813 E223.85395
G0 F9000 X108.66 Y135.247
G1 F1500 X109.752 Y136.339 E223.90532
G0 F9000 X110.317 Y136.339
G1 F1500 X108.66 Y134.681 E223.98328
G0 F9000 X108.66 Y134.116
G1 F1500 X110.883 Y136.339 E224.08785
G0 F9000 X111.449 Y136.339
G1 F1500 X108.66 Y133.55 E224.21903
G0 F9000 X108.66 Y132.984
G1 F1500 X112.014 Y136.339 E224.37682
G0 F9000 X112.58 Y136.339
G1 F1500 X108.66 Y132.419 E224.5612
G0 F9000 X108.66 Y131.853
G1 F1500 X113.146 Y136.339 E224.77221
G0 F9000 X113.337 Y135.964
G1 F1500 X108.66 Y131.287 E224.9922
G0 F9000 X108.66 Y130.722
G1 F1500 X113.337 Y135.398 E225.21217
G0 F9000 X113.337 Y134.833
G1 F1500 X108.66 Y130.156 E225.43216
G0 F9000 X108.66 Y129.59
G1 F1500 X113.337 Y134.267 E225.65215
G0 F9000 X113.337 Y133.701
G1 F1500 X108.66 Y129.025 E225.87212
G0 F9000 X108.66 Y128.459
G1 F1500 X113.337 Y133.136 E226.09211
G0 F9000 X113.337 Y132.57
G1 F1500 X108.66 Y127.893 E226.31211
G0 F9000 X108.66 Y127.328
G1 F1500 X113.337 Y132.004 E226.53207
G0 F9000 X113.337 Y131.439
G1 F1500 X108.66 Y126.762 E226.75207
G0 F9000 X108.66 Y126.196
G1 F1500 X113.337 Y130.873 E226.97206
G0 F9000 X113.337 Y130.307
G1 F1500 X108.66 Y125.63 E227.19205
G0 F9000 X108.66 Y125.065
G1 F1500 X113.337 Y129.742 E227.41204
G0 F9000 X113.337 Y129.176
G1 F1500 X108.66 Y124.499 E227.63203
G0 F9000 X108.66 Y123.933
G1 F1500 X113.337 Y128.61 E227.85202
G0 F9000 X113.337 Y128.045
G1 F1500 X108.66 Y123.368 E228.07202
G0 F9000 X108.66 Y122.802
G1 F1500 X113.337 Y127.479 E228.29201
G0 F9000 X113.337 Y126.913
G1 F1500 X108.66 Y122.236 E228.512
G0 F9000 X108.66 Y121.671
G1 F1500 X113.337 Y126.347 E228.73197
G0 F9000 X113.337 Y125.782
G1 F1500 X108.66 Y121.105 E228.95196
G0 F9000 X108.66 Y120.539
G1 F1500 X113.337 Y125.216 E229.17195
G0 F9000 X113.337 Y124.65
G1 F1500 X108.66 Y119.974 E229.39192
G0 F9000 X108.66 Y119.408
G1 F1500 X113.337 Y124.085 E229.61191
G0 F9000 X113.337 Y123.519
G1 F1500 X108.66 Y118.842 E229.8319
G0 F9000 X108.66 Y118.277
G1 F1500 X113.337 Y122.953 E230.05187
G0 F9000 X113.337 Y122.388
G1 F1500 X108.66 Y117.711 E230.27186
G0 F9000 X108.66 Y117.145
G1 F1500 X113.337 Y121.822 E230.49185
G0 F9000 X113.337 Y121.256
G1 F1500 X108.66 Y116.579 E230.71185
G0 F9000 X108.66 Y116.014
G1 F1500 X113.337 Y120.691 E230.93184
G0 F9000 X113.337 Y120.125
G1 F1500 X108.66 Y115.448 E231.15183
G0 F9000 X108.66 Y114.882
G1 F1500 X113.337 Y119.559 E231.37182
G0 F9000 X113.337 Y118.994
G1 F1500 X108.66 Y114.317 E231.59181
G0 F9000 X108.66 Y113.751
G1 F1500 X113.337 Y118.428 E231.8118
G0 F9000 X113.337 Y117.862
G1 F1500 X108.66 Y113.185 E232.0318
G0 F9000 X108.66 Y112.62
G1 F1500 X113.337 Y117.296 E232.25176
G0 F9000 X113.337 Y116.731
G1 F1500 X108.66 Y112.054 E232.47176
G0 F9000 X108.66 Y111.488
G1 F1500 X113.337 Y116.165 E232.69175
G0 F9000 X113.337 Y115.599
G1 F1500 X108.66 Y110.923 E232.91172
G0 F9000 X108.66 Y110.357
G1 F1500 X113.337 Y115.034 E233.13171
G0 F9000 X113.337 Y114.468
G1 F1500 X108.66 Y109.791 E233.3517
G0 F9000 X108.66 Y109.226
G1 F1500 X113.337 Y113.902 E233.57167
G0 F9000 X113.337 Y113.337
G1 F1500 X108.66 Y108.66 E233.79166
G0 F9000 X108.66 Y108.094
G1 F1500 X113.337 Y112.771 E234.01165
G0 F9000 X113.337 Y112.205
G1 F1500 X108.66 Y107.529 E234.23162
G0 F9000 X108.66 Y106.963
G1 F1500 X113.337 Y111.64 E234.45161
G0 F9000 X113.337 Y111.074
G1 F1500 X108.66 Y106.397 E234.6716
G0 F9000 X108.66 Y105.831
G1 F1500 X113.337 Y110.508 E234.89159
G0 F9000 X113.337 Y109.943
G1 F1500 X108.66 Y105.266 E235.11159
G0 F9000 X108.66 Y104.7
G1 F1500 X113.337 Y109.377 E235.33158
G0 F9000 X113.337 Y108.811
G1 F1500 X108.66 Y104.134 E235.55157
G0 F9000 X108.66 Y103.569
G1 F1500 X113.337 Y108.246 E235.77156
G0 F9000 X113.337 Y107.68
G1 F1500 X108.66 Y103.003 E235.99155
G0 F9000 X108.66 Y102.437
G1 F1500 X113.337 Y107.114 E236.21155
G0 F9000 X113.337 Y106.548
G1 F1500 X108.66 Y101.872 E236.43151
G0 F9000 X108.66 Y101.306
G1 F1500 X113.337 Y105.983 E236.65151
G0 F9000 X113.337 Y105.417
G1 F1500 X108.66 Y100.74 E236.8715
G0 F9000 X108.66 Y100.175
G1 F1500 X113.337 Y104.851 E237.09147
G0 F9000 X113.34 Y104.289
G1 F1500 X108.66 Y99.609 E237.3116
G0 F9000 X108.66 Y99.043
G1 F1500 X113.507 Y103.89 E237.53959
G0 F9000 X113.777 Y103.594
G1 F1500 X108.842 Y98.66 E237.77169
G0 F9000 X109.408 Y98.66
G1 F1500 X114.147 Y103.399 E237.9946
G0 F9000 X114.655 Y103.342
G1 F1500 X109.974 Y98.66 E238.2148
G0 F9000 X110.539 Y98.66
G1 F1500 X115.221 Y103.342 E238.43503
G0 F9000 X115.787 Y103.342
G1 F1500 X111.105 Y98.66 E238.65526
G0 F9000 X111.671 Y98.66
G1 F1500 X116.352 Y103.341 E238.87544
G0 F9000 X116.917 Y103.341
G1 F1500 X112.236 Y98.66 E239.09561
G0 F9000 X112.802 Y98.66
G1 F1500 X117.483 Y103.341 E239.31579
G0 F9000 X118.048 Y103.34
G1 F1500 X113.368 Y98.66 E239.53593
G0 F9000 X113.933 Y98.66
G1 F1500 X118.614 Y103.34 E239.75608
G0 F9000 X119.18 Y103.34
G1 F1500 X114.499 Y98.66 E239.97624
G0 F9000 X115.065 Y98.66
G1 F1500 X119.744 Y103.34 E240.19635
G0 F9000 X120.31 Y103.34
G1 F1500 X115.631 Y98.66 E240.41646
G0 F9000 X116.196 Y98.66
G1 F1500 X120.876 Y103.34 E240.63659
G0 F9000 X121.441 Y103.339
G1 F1500 X116.762 Y98.66 E240.85668
G0 F9000 X117.328 Y98.66
G1 F1500 X122.007 Y103.339 E241.07676
G0 F9000 X122.572 Y103.339
G1 F1500 X117.893 Y98.66 E241.29685
G0 F9000 X118.459 Y98.66
G1 F1500 X123.137 Y103.338 E241.51689
G0 F9000 X123.703 Y103.338
G1 F1500 X119.025 Y98.66 E241.73693
G0 F9000 X119.59 Y98.66
G1 F1500 X124.269 Y103.338 E241.95699
G0 F9000 X124.834 Y103.337
G1 F1500 X120.156 Y98.66 E242.177
G0 F9000 X120.722 Y98.66
G1 F1500 X125.399 Y103.337 E242.397
G0 F9000 X125.965 Y103.337
G1 F1500 X121.287 Y98.66 E242.61701
G0 F9000 X121.853 Y98.66
G1 F1500 X126.339 Y103.146 E242.82802
G0 F9000 X126.339 Y102.58
G1 F1500 X122.419 Y98.66 E243.0124
G0 F9000 X122.984 Y98.66
G1 F1500 X126.339 Y102.015 E243.17021
G0 F9000 X126.339 Y101.449
G1 F1500 X123.55 Y98.66 E243.3014
G0 F9000 X124.116 Y98.66
G1 F1500 X126.339 Y100.883 E243.40596
G0 F9000 X126.339 Y100.317
G1 F1500 X124.682 Y98.66 E243.4839
G0 F9000 X125.247 Y98.66
G1 F1500 X126.339 Y99.752 E243.53527
G0 F9000 X126.339 Y99.186
G1 F1500 X125.813 Y98.66 E243.56001
G1 F2700 E238.56001
;MESH:NONMESH
G0 F300 X125.813 Y98.66 Z2
G0 F9000 X125.813 Y98.2
G0 X126.728 Y98.272
G0 X126.728 Y103.726
G0 X114.069 Y104.07
G0 X113.897 Y136.9
;TIME_ELAPSED:386.476383
;LAYER:9
;TYPE:WALL-INNER
;MESH:LETRA L.stl
G1 F2700 E243.56001
G1 F1500 X113.897 Y104.403 E244.64086
G1 X114.002 Y104.157 E244.64976
G1 X114.157 Y104.003 E244.65703
G1 X114.419 Y103.898 E244.66641
G1 X126.9 Y103.898 E245.08153
G1 X126.9 Y100.999 E245.17795
G1 X126.9 Y98.1 E245.27438
G1 X108.1 Y98.1 E245.89967
G1 X108.101 Y136.9 E247.19016
G1 X113.897 Y136.9 E247.38294
G0 F9000 X114.297 Y137.3
;TYPE:WALL-OUTER
G1 F1500 X114.301 Y104.457 E248.4753
G1 X114.355 Y104.356 E248.47911
G1 X114.462 Y104.3 E248.48312
G1 X127.3 Y104.298 E248.91012
G1 X127.3 Y100.999 E249.01984
G1 X127.3 Y97.7 E249.12957
G1 X107.7 Y97.7 E249.78147
G1 X107.701 Y137.3 E251.09857
G1 X114.297 Y137.3 E251.31795
G0 F9000 X114.027 Y137.03
G0 X113.797 Y136.54
G0 X113.537 Y136.54
;TYPE:SKIN
G1 F1500 X113.537 Y104.335 E252.38909
G1 X113.698 Y103.957 E252.40276
G1 X113.957 Y103.698 E252.41494
G1 X114.343 Y103.54 E252.42881
G1 X126.54 Y103.538 E252.83449
G1 X126.54 Y100.999 E252.91894
G1 X126.54 Y98.46 E253.00338
G1 X108.461 Y98.461 E253.60469
G1 X108.461 Y136.54 E254.87121
G1 X113.537 Y136.54 E255.04003
G0 F9000 X113.127 Y136.339
G1 F1500 X113.336 Y136.13 E255.04987
G0 F9000 X113.336 Y135.565
G1 F1500 X112.562 Y136.339 E255.08627
G0 F9000 X111.996 Y136.339
G1 F1500 X113.336 Y134.999 E255.1493
G0 F9000 X113.336 Y134.433
G1 F1500 X111.43 Y136.339 E255.23895
G0 F9000 X110.865 Y136.339
G1 F1500 X113.336 Y133.868 E255.35518
G0 F9000 X113.336 Y133.302
G1 F1500 X110.299 Y136.339 E255.49803
G0 F9000 X109.733 Y136.339
G1 F1500 X113.336 Y132.736 E255.66751
G0 F9000 X113.336 Y132.17
G1 F1500 X109.168 Y136.339 E255.86358
G0 F9000 X108.66 Y136.281
G1 F1500 X113.336 Y131.605 E256.08353
G0 F9000 X113.336 Y131.039
G1 F1500 X108.66 Y135.715 E256.30347
G0 F9000 X108.66 Y135.15
G1 F1500 X113.336 Y130.473 E256.52344
G0 F9000 X113.336 Y129.908
G1 F1500 X108.66 Y134.584 E256.74338
G0 F9000 X108.66 Y134.018
G1 F1500 X113.336 Y129.342 E256.96333
G0 F9000 X113.336 Y128.776
G1 F1500 X108.66 Y133.452 E257.18327
G0 F9000 X108.66 Y132.887
G1 F1500 X113.336 Y128.211 E257.40322
G0 F9000 X113.336 Y127.645
G1 F1500 X108.66 Y132.321 E257.62316
G0 F9000 X108.66 Y131.755
G1 F1500 X113.336 Y127.079 E257.84311
G0 F9000 X113.336 Y126.514
G1 F1500 X108.66 Y131.19 E258.06305
G0 F9000 X108.66 Y130.624
G1 F1500 X113.336 Y125.948 E258.283
G0 F9000 X113.336 Y125.382
G1 F1500 X108.66 Y130.058 E258.50294
G0 F9000 X108.66 Y129.493
G1 F1500 X113.336 Y124.817 E258.72289
G0 F9000 X113.336 Y124.251
G1 F1500 X108.66 Y128.927 E258.94283
G0 F9000 X108.66 Y128.361
G1 F1500 X113.336 Y123.685 E259.16277
G0 F9000 X113.336 Y123.12
G1 F1500 X108.66 Y127.796 E259.38272
G0 F9000 X108.66 Y127.23
G1 F1500 X113.336 Y122.554 E259.60266
G0 F9000 X113.336 Y121.988
G1 F1500 X108.66 Y126.664 E259.82261
G0 F9000 X108.66 Y126.099
G1 F1500 X113.336 Y121.422 E260.04258
G0 F9000 X113.336 Y120.857
G1 F1500 X108.66 Y125.533 E260.26252
G0 F9000 X108.66 Y124.967
G1 F1500 X113.336 Y120.291 E260.48247
G0 F9000 X113.336 Y119.725
G1 F1500 X108.66 Y124.402 E260.70243
G0 F9000 X108.66 Y123.836
G1 F1500 X113.336 Y119.16 E260.92238
G0 F9000 X113.336 Y118.594
G1 F1500 X108.66 Y123.27 E261.14232
G0 F9000 X108.66 Y122.704
G1 F1500 X113.336 Y118.028 E261.36227
G0 F9000 X113.336 Y117.463
G1 F1500 X108.66 Y122.139 E261.58221
G0 F9000 X108.66 Y121.573
G1 F1500 X113.336 Y116.897 E261.80216
G0 F9000 X113.336 Y116.331
G1 F1500 X108.66 Y121.007 E262.0221
G0 F9000 X108.66 Y120.442
G1 F1500 X113.336 Y115.766 E262.24205
G0 F9000 X113.336 Y115.2
G1 F1500 X108.66 Y119.876 E262.46199
G0 F9000 X108.66 Y119.31
G1 F1500 X113.336 Y114.634 E262.68194
G0 F9000 X113.336 Y114.069
G1 F1500 X108.66 Y118.745 E262.90188
G0 F9000 X108.66 Y118.179
G1 F1500 X113.336 Y113.503 E263.12183
G0 F9000 X113.336 Y112.937
G1 F1500 X108.66 Y117.613 E263.34177
G0 F9000 X108.66 Y117.048
G1 F1500 X113.336 Y112.371 E263.56174
G0 F9000 X113.336 Y111.806
G1 F1500 X108.66 Y116.482 E263.78168
G0 F9000 X108.66 Y115.916
G1 F1500 X113.336 Y111.24 E264.00163
G0 F9000 X113.336 Y110.674
G1 F1500 X108.66 Y115.351 E264.2216
G0 F9000 X108.66 Y114.785
G1 F1500 X113.336 Y110.109 E264.44154
G0 F9000 X113.336 Y109.543
G1 F1500 X108.66 Y114.219 E264.66149
G0 F9000 X108.66 Y113.653
G1 F1500 X113.336 Y108.977 E264.88143
G0 F9000 X113.336 Y108.412
G1 F1500 X108.66 Y113.088 E265.10138
G0 F9000 X108.66 Y112.522
G1 F1500 X113.336 Y107.846 E265.32132
G0 F9000 X113.336 Y107.28
G1 F1500 X108.66 Y111.956 E265.54127
G0 F9000 X108.66 Y111.391
G1 F1500 X113.336 Y106.715 E265.76121
G0 F9000 X113.336 Y106.149
G1 F1500 X108.66 Y110.825 E265.98115
G0 F9000 X108.66 Y110.259
G1 F1500 X113.336 Y105.583 E266.2011
G0 F9000 X113.336 Y105.018
G1 F1500 X108.66 Y109.694 E266.42104
G0 F9000 X108.66 Y109.128
G1 F1500 X113.336 Y104.452 E266.64099
G0 F9000 X113.798 Y104.497
G0 X114.48 Y103.8
G0 X114.445 Y103.342
G1 F1500 X119.128 Y98.66 E266.86124
G0 F9000 X119.694 Y98.66
G1 F1500 X115.011 Y103.342 E267.08149
G0 F9000 X115.577 Y103.342
G1 F1500 X120.259 Y98.66 E267.30172
G0 F9000 X120.825 Y98.66
G1 F1500 X116.143 Y103.342 E267.52194
G0 F9000 X116.709 Y103.342
G1 F1500 X121.391 Y98.66 E267.74217
G0 F9000 X121.956 Y98.66
G1 F1500 X117.275 Y103.342 E267.96237
G0 F9000 X117.841 Y103.341
G1 F1500 X122.522 Y98.66 E268.18255
G0 F9000 X123.088 Y98.66
G1 F1500 X118.407 Y103.341 E268.40273
G0 F9000 X118.972 Y103.341
G1 F1500 X123.653 Y98.66 E268.62291
G0 F9000 X124.219 Y98.66
G1 F1500 X119.539 Y103.34 E268.84305
G0 F9000 X120.104 Y103.34
G1 F1500 X124.785 Y98.66 E269.0632
G0 F9000 X125.35 Y98.66
G1 F1500 X120.67 Y103.34 E269.28334
G0 F9000 X121.236 Y103.34
G1 F1500 X125.916 Y98.66 E269.50347
G0 F9000 X126.338 Y98.804
G1 F1500 X121.802 Y103.34 E269.71683
G0 F9000 X122.368 Y103.34
G1 F1500 X126.338 Y99.369 E269.90359
G0 F9000 X126.338 Y99.935
G1 F1500 X122.934 Y103.339 E270.0637
G0 F9000 X123.5 Y103.339
G1 F1500 X126.338 Y100.501 E270.19719
G0 F9000 X126.338 Y101.066
G1 F1500 X124.066 Y103.339 E270.30408
G0 F9000 X124.632 Y103.338
G1 F1500 X126.338 Y101.632 E270.38433
G0 F9000 X126.338 Y102.198
G1 F1500 X125.198 Y103.338 E270.43795
G0 F9000 X125.763 Y103.338
G1 F1500 X126.338 Y102.763 E270.465
G0 F9000 X126.8 Y102.763
G0 X126.728 Y98.272
G0 X118.562 Y98.2
G0 X118.562 Y98.66
G1 F1500 X108.66 Y108.562 E270.93076
G0 F9000 X108.66 Y107.997
G1 F1500 X117.997 Y98.66 E271.36994
G0 F9000 X117.431 Y98.66
G1 F1500 X108.66 Y107.431 E271.7825
G0 F9000 X108.66 Y106.865
G1 F1500 X116.865 Y98.66 E272.16844
G0 F9000 X116.299 Y98.66
G1 F1500 X108.66 Y106.3 E272.52778
G0 F9000 X108.66 Y105.734
G1 F1500 X115.734 Y98.66 E272.86052
G0 F9000 X115.168 Y98.66
G1 F1500 X108.66 Y105.168 E273.16663
G0 F9000 X108.66 Y104.603
G1 F1500 X114.602 Y98.66 E273.44615
G0 F9000 X114.037 Y98.66
G1 F1500 X108.66 Y104.037 E273.69907
G0 F9000 X108.66 Y103.471
G1 F1500 X113.471 Y98.66 E273.92536
G0 F9000 X112.905 Y98.66
G1 F1500 X108.66 Y102.905 E274.12504
G0 F9000 X108.66 Y102.34
G1 F1500 X112.34 Y98.66 E274.29813
G0 F9000 X111.774 Y98.66
G1 F1500 X108.66 Y101.774 E274.4446
G0 F9000 X108.66 Y101.208
G1 F1500 X111.208 Y98.66 E274.56445
G0 F9000 X110.643 Y98.66
G1 F1500 X108.66 Y100.643 E274.65773
G0 F9000 X108.66 Y100.077
G1 F1500 X110.077 Y98.66 E274.72438
G0 F9000 X109.511 Y98.66
G1 F1500 X108.66 Y99.511 E274.76441
G0 F9000 X108.66 Y98.946
G1 F1500 X108.946 Y98.66 E274.77786
;TIME_ELAPSED:432.988957
G1 F2700 E269.77786
M140 S0
M107
G91 ;Relative positioning
G1 E-2 F2700 ;Retract a bit
G1 E-2 Z0.2 F2400 ;Retract and raise Z
G1 X5 Y5 F3000 ;Wipe out
G1 Z10 ;Raise Z more
G90 ;Absolute positioning

G1 X0 Y235 ;Present print
M106 S0 ;Turn-off fan
M104 S0 ;Turn-off hotend
M140 S0 ;Turn-off bed

M84 X Y E ;Disable all steppers but Z

M82 ;absolute extrusion mode
M104 S0
;End of Gcode
;SETTING_3 {"global_quality": "[general]\\nversion = 4\\nname = Standard Quality
;SETTING_3  #2\\ndefinition = creality_ender3\\n\\n[metadata]\\ntype = quality_c
;SETTING_3 hanges\\nquality_type = standard\\nsetting_version = 20\\n\\n[values]
;SETTING_3 \\nadhesion_type = none\\n\\n", "extruder_quality": ["[general]\\nver
;SETTING_3 sion = 4\\nname = Standard Quality #2\\ndefinition = creality_ender3\
;SETTING_3 \n\\n[metadata]\\ntype = quality_changes\\nquality_type = standard\\n
;SETTING_3 setting_version = 20\\nposition = 0\\n\\n[values]\\ninfill_sparse_den
;SETTING_3 sity = 20\\n\\n"]}
